P3
300 300
255
13 13 255 13 13 255 13 13 255 13 13 255 13 13 255 13 13 255 13 13 255 14 14 255 14 14 255 14 14 255 14 14 255 14 14 255 15 15 255 15 15 255 15 15 255 15 15 255 15 15 255 15 15 255 16 16 255 16 16 255 16 16 255 16 16 255 16 16 255 17 17 255 17 17 255 17 17 255 17 17 255 17 17 255 17 17 255 18 18 255 18 18 255 18 18 255 18 18 255 18 18 255 19 19 255 19 19 255 19 19 255 19 19 255 19 19 255 20 20 255 20 20 255 20 20 255 20 20 255 21 21 255 21 21 255 21 21 255 21 21 255 21 21 255 22 22 255 22 22 255 22 22 255 22 22 255 23 23 255 23 23 255 23 23 255 23 23 255 23 23 255 24 24 255 24 24 255 24 24 255 24 24 255 25 25 255 25 25 255 25 25 255 25 25 255 26 26 255 26 26 255 26 26 255 26 26 255 27 27 255 27 27 255 27 27 255 27 27 255 28 28 255 28 28 255 28 28 255 28 28 255 29 29 255 29 29 255 29 29 255 29 29 255 30 30 255 30 30 255 30 30 255 30 30 255 31 31 255 31 31 255 31 31 255 31 31 255 32 32 255 32 32 255 32 32 255 33 33 255 33 33 255 33 33 255 33 33 255 34 34 255 34 34 255 34 34 255 34 34 255 35 35 255 35 35 255 35 35 255 36 36 255 36 36 255 36 36 255 36 36 255 37 37 255 37 37 255 37 37 255 37 37 255 38 38 255 38 38 255 38 38 255 39 39 255 39 39 255 39 39 255 39 39 255 40 40 255 40 40 255 40 40 255 41 41 255 41 41 255 41 41 255 41 41 255 42 42 255 42 42 255 42 42 255 43 43 255 43 43 255 43 43 255 44 44 255 44 44 255 44 44 255 44 44 255 45 45 255 45 45 255 45 45 255 46 46 255 46 46 255 46 46 255 46 46 255 47 47 255 47 47 255 47 47 255 48 48 255 48 48 255 48 48 255 48 48 255 49 49 255 49 49 255 49 49 255 50 50 255 50 50 255 50 50 255 50 50 255 51 51 255 51 51 255 51 51 255 52 52 255 52 52 255 52 52 255 53 53 255 53 53 255 53 53 255 53 53 255 54 54 255 54 54 255 54 54 255 55 55 255 55 55 255 55 55 255 55 55 255 56 56 255 56 56 255 56 56 255 56 56 255 57 57 255 57 57 255 57 57 255 57 57 255 58 58 255 58 58 255 58 58 255 59 59 255 59 59 255 59 59 255 59 59 255 60 60 255 60 60 255 60 60 255 60 60 255 61 61 255 61 61 255 61 61 255 61 61 255 61 61 255 62 62 255 62 62 255 62 62 255 62 62 255 63 63 255 63 63 255 63 63 255 63 63 255 63 63 255 64 64 255 64 64 255 64 64 255 64 64 255 65 65 255 65 65 255 65 65 255 65 65 255 65 65 255 65 65 255 66 66 255 66 66 255 66 66 255 66 66 255 66 66 255 67 67 255 67 67 255 67 67 255 67 67 255 67 67 255 67 67 255 68 68 255 68 68 255 68 68 255 68 68 255 68 68 255 68 68 255 69 69 255 69 69 255 69 69 255 69 69 255 69 69 255 69 69 255 69 69 255 69 69 255 70 70 255 70 70 255 70 70 255 70 70 255 70 70 255 70 70 255 70 70 255 70 70 255 70 70 255 71 71 255 71 71 255 71 71 255 71 71 255 71 71 255 71 71 255 71 71 255 71 71 255 71 71 255 71 71 255 71 71 255 72 72 255 72 72 255 72 72 255 72 72 255 72 72 255 72 72 255 72 72 255 72 72 255 72 72 255 72 72 255 72 72 255 72 72 255 72 72 255 72 72 255 72 72 255 72 72 255 72 72 255 72 72 255 72 72 255 72 72 255 72 72 255 72 72 255 72 72 255 72 72 255 72 72 255 72 72 255 72 72 255 72 72 255 72 72 255 72 72 255 72 72 255 72 72 255 72 72 255 72 72 255 72 72 255 72 72 255 72 72 255 72 72 255 72 72 255 
12 12 255 12 12 255 12 12 255 13 13 255 13 13 255 13 13 255 13 13 255 13 13 255 13 13 255 14 14 255 14 14 255 14 14 255 14 14 255 14 14 255 14 14 255 15 15 255 15 15 255 15 15 255 15 15 255 15 15 255 15 15 255 16 16 255 16 16 255 16 16 255 16 16 255 16 16 255 17 17 255 17 17 255 17 17 255 17 17 255 17 17 255 18 18 255 18 18 255 18 18 255 18 18 255 18 18 255 19 19 255 19 19 255 19 19 255 19 19 255 19 19 255 20 20 255 20 20 255 20 20 255 20 20 255 21 21 255 21 21 255 21 21 255 21 21 255 21 21 255 22 22 255 22 22 255 22 22 255 22 22 255 23 23 255 23 23 255 23 23 255 23 23 255 24 24 255 24 24 255 24 24 255 24 24 255 24 24 255 25 25 255 25 25 255 25 25 255 25 25 255 26 26 255 26 26 255 26 26 255 26 26 255 27 27 255 27 27 255 27 27 255 27 27 255 28 28 255 28 28 255 28 28 255 29 29 255 29 29 255 29 29 255 29 29 255 30 30 255 30 30 255 30 30 255 30 30 255 31 31 255 31 31 255 31 31 255 31 31 255 32 32 255 32 32 255 32 32 255 33 33 255 33 33 255 33 33 255 33 33 255 34 34 255 34 34 255 34 34 255 34 34 255 35 35 255 35 35 255 35 35 255 36 36 255 36 36 255 36 36 255 36 36 255 37 37 255 37 37 255 37 37 255 38 38 255 38 38 255 38 38 255 38 38 255 39 39 255 39 39 255 39 39 255 40 40 255 40 40 255 40 40 255 40 40 255 41 41 255 41 41 255 41 41 255 42 42 255 42 42 255 42 42 255 43 43 255 43 43 255 43 43 255 43 43 255 44 44 255 44 44 255 44 44 255 45 45 255 45 45 255 45 45 255 45 45 255 46 46 255 46 46 255 46 46 255 47 47 255 47 47 255 47 47 255 48 48 255 48 48 255 48 48 255 48 48 255 49 49 255 49 49 255 49 49 255 50 50 255 50 50 255 50 50 255 50 50 255 51 51 255 51 51 255 51 51 255 52 52 255 52 52 255 52 52 255 53 53 255 53 53 255 53 53 255 53 53 255 54 54 255 54 54 255 54 54 255 55 55 255 55 55 255 55 55 255 55 55 255 56 56 255 56 56 255 56 56 255 56 56 255 57 57 255 57 57 255 57 57 255 58 58 255 58 58 255 58 58 255 58 58 255 59 59 255 59 59 255 59 59 255 59 59 255 60 60 255 60 60 255 60 60 255 60 60 255 61 61 255 61 61 255 61 61 255 61 61 255 62 62 255 62 62 255 62 62 255 62 62 255 62 62 255 63 63 255 63 63 255 63 63 255 63 63 255 64 64 255 64 64 255 64 64 255 64 64 255 64 64 255 65 65 255 65 65 255 65 65 255 65 65 255 65 65 255 66 66 255 66 66 255 66 66 255 66 66 255 66 66 255 67 67 255 67 67 255 67 67 255 67 67 255 67 67 255 67 67 255 68 68 255 68 68 255 68 68 255 68 68 255 68 68 255 68 68 255 68 68 255 69 69 255 69 69 255 69 69 255 69 69 255 69 69 255 69 69 255 69 69 255 70 70 255 70 70 255 70 70 255 70 70 255 70 70 255 70 70 255 70 70 255 70 70 255 71 71 255 71 71 255 71 71 255 71 71 255 71 71 255 71 71 255 71 71 255 71 71 255 71 71 255 71 71 255 71 71 255 72 72 255 72 72 255 72 72 255 72 72 255 72 72 255 72 72 255 72 72 255 72 72 255 72 72 255 72 72 255 72 72 255 72 72 255 72 72 255 72 72 255 72 72 255 72 72 255 72 72 255 72 72 255 72 72 255 72 72 255 73 73 255 73 73 255 73 73 255 73 73 255 73 73 255 73 73 255 73 73 255 73 73 255 73 73 255 73 73 255 73 73 255 73 73 255 73 73 255 73 73 255 73 73 255 73 73 255 73 73 255 73 73 255 72 72 255 72 72 255 72 72 255 
12 12 255 12 12 255 12 12 255 12 12 255 12 12 255 12 12 255 13 13 255 13 13 255 13 13 255 13 13 255 13 13 255 13 13 255 14 14 255 14 14 255 14 14 255 14 14 255 14 14 255 14 14 255 15 15 255 15 15 255 15 15 255 15 15 255 15 15 255 16 16 255 16 16 255 16 16 255 16 16 255 16 16 255 17 17 255 17 17 255 17 17 255 17 17 255 17 17 255 18 18 255 18 18 255 18 18 255 18 18 255 18 18 255 19 19 255 19 19 255 19 19 255 19 19 255 19 19 255 20 20 255 20 20 255 20 20 255 20 20 255 21 21 255 21 21 255 21 21 255 21 21 255 22 22 255 22 22 255 22 22 255 22 22 255 22 22 255 23 23 255 23 23 255 23 23 255 23 23 255 24 24 255 24 24 255 24 24 255 24 24 255 25 25 255 25 25 255 25 25 255 25 25 255 26 26 255 26 26 255 26 26 255 26 26 255 27 27 255 27 27 255 27 27 255 27 27 255 28 28 255 28 28 255 28 28 255 28 28 255 29 29 255 29 29 255 29 29 255 30 30 255 30 30 255 30 30 255 30 30 255 31 31 255 31 31 255 31 31 255 31 31 255 32 32 255 32 32 255 32 32 255 33 33 255 33 33 255 33 33 255 33 33 255 34 34 255 34 34 255 34 34 255 34 34 255 35 35 255 35 35 255 35 35 255 36 36 255 36 36 255 36 36 255 36 36 255 37 37 255 37 37 255 37 37 255 38 38 255 38 38 255 38 38 255 39 39 255 39 39 255 39 39 255 39 39 255 40 40 255 40 40 255 40 40 255 41 41 255 41 41 255 41 41 255 41 41 255 42 42 255 42 42 255 42 42 255 43 43 255 43 43 255 43 43 255 44 44 255 44 44 255 44 44 255 44 44 255 45 45 255 45 45 255 45 45 255 46 46 255 46 46 255 46 46 255 47 47 255 47 47 255 47 47 255 47 47 255 48 48 255 48 48 255 48 48 255 49 49 255 49 49 255 49 49 255 50 50 255 50 50 255 50 50 255 50 50 255 51 51 255 51 51 255 51 51 255 52 52 255 52 52 255 52 52 255 53 53 255 53 53 255 53 53 255 53 53 255 54 54 255 54 54 255 54 54 255 55 55 255 55 55 255 55 55 255 55 55 255 56 56 255 56 56 255 56 56 255 57 57 255 57 57 255 57 57 255 57 57 255 58 58 255 58 58 255 58 58 255 58 58 255 59 59 255 59 59 255 59 59 255 59 59 255 60 60 255 60 60 255 60 60 255 60 60 255 61 61 255 61 61 255 61 61 255 61 61 255 62 62 255 62 62 255 62 62 255 62 62 255 63 63 255 63 63 255 63 63 255 63 63 255 63 63 255 64 64 255 64 64 255 64 64 255 64 64 255 65 65 255 65 65 255 65 65 255 65 65 255 65 65 255 66 66 255 66 66 255 66 66 255 66 66 255 66 66 255 66 66 255 67 67 255 67 67 255 67 67 255 67 67 255 67 67 255 68 68 255 68 68 255 68 68 255 68 68 255 68 68 255 68 68 255 68 68 255 69 69 255 69 69 255 69 69 255 69 69 255 69 69 255 69 69 255 69 69 255 70 70 255 70 70 255 70 70 255 70 70 255 70 70 255 70 70 255 70 70 255 70 70 255 71 71 255 71 71 255 71 71 255 71 71 255 71 71 255 71 71 255 71 71 255 71 71 255 71 71 255 71 71 255 71 71 255 72 72 255 72 72 255 72 72 255 72 72 255 72 72 255 72 72 255 72 72 255 72 72 255 72 72 255 72 72 255 72 72 255 72 72 255 72 72 255 72 72 255 72 72 255 72 72 255 72 72 255 73 73 255 73 73 255 73 73 255 73 73 255 73 73 255 73 73 255 73 73 255 73 73 255 73 73 255 73 73 255 73 73 255 73 73 255 73 73 255 73 73 255 73 73 255 73 73 255 73 73 255 73 73 255 73 73 255 73 73 255 73 73 255 73 73 255 73 73 255 73 73 255 73 73 255 
11 11 255 11 11 255 11 11 255 12 12 255 12 12 255 12 12 255 12 12 255 12 12 255 12 12 255 13 13 255 13 13 255 13 13 255 13 13 255 13 13 255 13 13 255 14 14 255 14 14 255 14 14 255 14 14 255 14 14 255 15 15 255 15 15 255 15 15 255 15 15 255 15 15 255 16 16 255 16 16 255 16 16 255 16 16 255 16 16 255 17 17 255 17 17 255 17 17 255 17 17 255 17 17 255 18 18 255 18 18 255 18 18 255 18 18 255 18 18 255 19 19 255 19 19 255 19 19 255 19 19 255 20 20 255 20 20 255 20 20 255 20 20 255 20 20 255 21 21 255 21 21 255 21 21 255 21 21 255 22 22 255 22 22 255 22 22 255 22 22 255 23 23 255 23 23 255 23 23 255 23 23 255 24 24 255 24 24 255 24 24 255 24 24 255 25 25 255 25 25 255 25 25 255 25 25 255 26 26 255 26 26 255 26 26 255 26 26 255 27 27 255 27 27 255 27 27 255 27 27 255 28 28 255 28 28 255 28 28 255 28 28 255 29 29 255 29 29 255 29 29 255 29 29 255 30 30 255 30 30 255 30 30 255 31 31 255 31 31 255 31 31 255 31 31 255 32 32 255 32 32 255 32 32 255 33 33 255 33 33 255 33 33 255 33 33 255 34 34 255 34 34 255 34 34 255 35 35 255 35 35 255 35 35 255 35 35 255 36 36 255 36 36 255 36 36 255 37 37 255 37 37 255 37 37 255 37 37 255 38 38 255 38 38 255 38 38 255 39 39 255 39 39 255 39 39 255 40 40 255 40 40 255 40 40 255 40 40 255 41 41 255 41 41 255 41 41 255 42 42 255 42 42 255 42 42 255 43 43 255 43 43 255 43 43 255 43 43 255 44 44 255 44 44 255 44 44 255 45 45 255 45 45 255 45 45 255 46 46 255 46 46 255 46 46 255 47 47 255 47 47 255 47 47 255 47 47 255 48 48 255 48 48 255 48 48 255 49 49 255 49 49 255 49 49 255 50 50 255 50 50 255 50 50 255 50 50 255 51 51 255 51 51 255 51 51 255 52 52 255 52 52 255 52 52 255 53 53 255 53 53 255 53 53 255 53 53 255 54 54 255 54 54 255 54 54 255 55 55 255 55 55 255 55 55 255 55 55 255 56 56 255 56 56 255 56 56 255 57 57 255 57 57 255 57 57 255 57 57 255 58 58 255 58 58 255 58 58 255 58 58 255 59 59 255 59 59 255 59 59 255 59 59 255 60 60 255 60 60 255 60 60 255 61 61 255 61 61 255 61 61 255 61 61 255 61 61 255 62 62 255 62 62 255 62 62 255 62 62 255 63 63 255 63 63 255 63 63 255 63 63 255 64 64 255 64 64 255 64 64 255 64 64 255 64 64 255 65 65 255 65 65 255 65 65 255 65 65 255 65 65 255 66 66 255 66 66 255 66 66 255 66 66 255 66 66 255 67 67 255 67 67 255 67 67 255 67 67 255 67 67 255 67 67 255 68 68 255 68 68 255 68 68 255 68 68 255 68 68 255 68 68 255 69 69 255 69 69 255 69 69 255 69 69 255 69 69 255 69 69 255 69 69 255 70 70 255 70 70 255 70 70 255 70 70 255 70 70 255 70 70 255 70 70 255 70 70 255 71 71 255 71 71 255 71 71 255 71 71 255 71 71 255 71 71 255 71 71 255 71 71 255 71 71 255 71 71 255 72 72 255 72 72 255 72 72 255 72 72 255 72 72 255 72 72 255 72 72 255 72 72 255 72 72 255 72 72 255 72 72 255 72 72 255 72 72 255 72 72 255 72 72 255 72 72 255 73 73 255 73 73 255 73 73 255 73 73 255 73 73 255 73 73 255 73 73 255 73 73 255 73 73 255 73 73 255 73 73 255 73 73 255 73 73 255 73 73 255 73 73 255 73 73 255 73 73 255 73 73 255 73 73 255 73 73 255 73 73 255 73 73 255 73 73 255 73 73 255 73 73 255 73 73 255 73 73 255 73 73 255 
11 11 255 11 11 255 11 11 255 11 11 255 11 11 255 11 11 255 12 12 255 12 12 255 12 12 255 12 12 255 12 12 255 12 12 255 13 13 255 13 13 255 13 13 255 13 13 255 13 13 255 14 14 255 14 14 255 14 14 255 14 14 255 14 14 255 15 15 255 15 15 255 15 15 255 15 15 255 15 15 255 16 16 255 16 16 255 16 16 255 16 16 255 16 16 255 17 17 255 17 17 255 17 17 255 17 17 255 17 17 255 18 18 255 18 18 255 18 18 255 18 18 255 18 18 255 19 19 255 19 19 255 19 19 255 19 19 255 20 20 255 20 20 255 20 20 255 20 20 255 20 20 255 21 21 255 21 21 255 21 21 255 21 21 255 22 22 255 22 22 255 22 22 255 22 22 255 23 23 255 23 23 255 23 23 255 23 23 255 24 24 255 24 24 255 24 24 255 24 24 255 25 25 255 25 25 255 25 25 255 25 25 255 26 26 255 26 26 255 26 26 255 26 26 255 27 27 255 27 27 255 27 27 255 28 28 255 28 28 255 28 28 255 28 28 255 29 29 255 29 29 255 29 29 255 29 29 255 30 30 255 30 30 255 30 30 255 31 31 255 31 31 255 31 31 255 31 31 255 32 32 255 32 32 255 32 32 255 33 33 255 33 33 255 33 33 255 33 33 255 34 34 255 34 34 255 34 34 255 35 35 255 35 35 255 35 35 255 35 35 255 36 36 255 36 36 255 36 36 255 37 37 255 37 37 255 37 37 255 38 38 255 38 38 255 38 38 255 38 38 255 39 39 255 39 39 255 39 39 255 40 40 255 40 40 255 40 40 255 41 41 255 41 41 255 41 41 255 42 42 255 42 42 255 42 42 255 42 42 255 43 43 255 43 43 255 43 43 255 44 44 255 44 44 255 44 44 255 45 45 255 45 45 255 45 45 255 46 46 255 46 46 255 46 46 255 46 46 255 47 47 255 47 47 255 47 47 255 48 48 255 48 48 255 48 48 255 49 49 255 49 49 255 49 49 255 50 50 255 50 50 255 50 50 255 50 50 255 51 51 255 51 51 255 51 51 255 52 52 255 52 52 255 52 52 255 53 53 255 53 53 255 53 53 255 53 53 255 54 54 255 54 54 255 54 54 255 55 55 255 55 55 255 55 55 255 55 55 255 56 56 255 56 56 255 56 56 255 57 57 255 57 57 255 57 57 255 57 57 255 58 58 255 58 58 255 58 58 255 59 59 255 59 59 255 59 59 255 59 59 255 60 60 255 60 60 255 60 60 255 60 60 255 61 61 255 61 61 255 61 61 255 61 61 255 62 62 255 62 62 255 62 62 255 62 62 255 62 62 255 63 63 255 63 63 255 63 63 255 63 63 255 64 64 255 64 64 255 64 64 255 64 64 255 64 64 255 65 65 255 65 65 255 65 65 255 65 65 255 66 66 255 66 66 255 66 66 255 66 66 255 66 66 255 66 66 255 67 67 255 67 67 255 67 67 255 67 67 255 67 67 255 68 68 255 68 68 255 68 68 255 68 68 255 68 68 255 68 68 255 69 69 255 69 69 255 69 69 255 69 69 255 69 69 255 69 69 255 69 69 255 70 70 255 70 70 255 70 70 255 70 70 255 70 70 255 70 70 255 70 70 255 70 70 255 71 71 255 71 71 255 71 71 255 71 71 255 71 71 255 71 71 255 71 71 255 71 71 255 71 71 255 71 71 255 72 72 255 72 72 255 72 72 255 72 72 255 72 72 255 72 72 255 72 72 255 72 72 255 72 72 255 72 72 255 72 72 255 72 72 255 72 72 255 72 72 255 73 73 255 73 73 255 73 73 255 73 73 255 73 73 255 73 73 255 73 73 255 73 73 255 73 73 255 73 73 255 73 73 255 73 73 255 73 73 255 73 73 255 73 73 255 73 73 255 73 73 255 73 73 255 73 73 255 73 73 255 73 73 255 73 73 255 73 73 255 73 73 255 73 73 255 73 73 255 73 73 255 73 73 255 73 73 255 73 73 255 73 73 255 
10 10 255 10 10 255 11 11 255 11 11 255 11 11 255 11 11 255 11 11 255 11 11 255 12 12 255 12 12 255 12 12 255 12 12 255 12 12 255 12 12 255 13 13 255 13 13 255 13 13 255 13 13 255 13 13 255 14 14 255 14 14 255 14 14 255 14 14 255 14 14 255 14 14 255 15 15 255 15 15 255 15 15 255 15 15 255 15 15 255 16 16 255 16 16 255 16 16 255 16 16 255 17 17 255 17 17 255 17 17 255 17 17 255 17 17 255 18 18 255 18 18 255 18 18 255 18 18 255 18 18 255 19 19 255 19 19 255 19 19 255 19 19 255 20 20 255 20 20 255 20 20 255 20 20 255 21 21 255 21 21 255 21 21 255 21 21 255 22 22 255 22 22 255 22 22 255 22 22 255 23 23 255 23 23 255 23 23 255 23 23 255 24 24 255 24 24 255 24 24 255 24 24 255 25 25 255 25 25 255 25 25 255 25 25 255 26 26 255 26 26 255 26 26 255 26 26 255 27 27 255 27 27 255 27 27 255 27 27 255 28 28 255 28 28 255 28 28 255 29 29 255 29 29 255 29 29 255 29 29 255 30 30 255 30 30 255 30 30 255 31 31 255 31 31 255 31 31 255 31 31 255 32 32 255 32 32 255 32 32 255 33 33 255 33 33 255 33 33 255 33 33 255 34 34 255 34 34 255 34 34 255 35 35 255 35 35 255 35 35 255 36 36 255 36 36 255 36 36 255 36 36 255 37 37 255 37 37 255 37 37 255 38 38 255 38 38 255 38 38 255 39 39 255 39 39 255 39 39 255 40 40 255 40 40 255 40 40 255 40 40 255 41 41 255 41 41 255 41 41 255 42 42 255 42 42 255 42 42 255 43 43 255 43 43 255 43 43 255 44 44 255 44 44 255 44 44 255 45 45 255 45 45 255 45 45 255 45 45 255 46 46 255 46 46 255 46 46 255 47 47 255 47 47 255 47 47 255 48 48 255 48 48 255 48 48 255 49 49 255 49 49 255 49 49 255 50 50 255 50 50 255 50 50 255 50 50 255 51 51 255 51 51 255 51 51 255 52 52 255 52 52 255 52 52 255 53 53 255 53 53 255 53 53 255 53 53 255 54 54 255 54 54 255 54 54 255 55 55 255 55 55 255 55 55 255 56 56 255 56 56 255 56 56 255 56 56 255 57 57 255 57 57 255 57 57 255 57 57 255 58 58 255 58 58 255 58 58 255 59 59 255 59 59 255 59 59 255 59 59 255 60 60 255 60 60 255 60 60 255 60 60 255 61 61 255 61 61 255 61 61 255 61 61 255 62 62 255 62 62 255 62 62 255 62 62 255 63 63 255 63 63 255 63 63 255 63 63 255 63 63 255 64 64 255 64 64 255 64 64 255 64 64 255 65 65 255 65 65 255 65 65 255 65 65 255 65 65 255 66 66 255 66 66 255 66 66 255 66 66 255 66 66 255 67 67 255 67 67 255 67 67 255 67 67 255 67 67 255 67 67 255 68 68 255 68 68 255 68 68 255 68 68 255 68 68 255 68 68 255 69 69 255 69 69 255 69 69 255 69 69 255 69 69 255 69 69 255 70 70 255 70 70 255 70 70 255 70 70 255 70 70 255 70 70 255 70 70 255 70 70 255 71 71 255 71 71 255 71 71 255 71 71 255 71 71 255 71 71 255 71 71 255 71 71 255 71 71 255 72 72 255 72 72 255 72 72 255 72 72 255 72 72 255 72 72 255 72 72 255 72 72 255 72 72 255 72 72 255 72 72 255 72 72 255 72 72 255 72 72 255 73 73 255 73 73 255 73 73 255 73 73 255 73 73 255 73 73 255 73 73 255 73 73 255 73 73 255 73 73 255 73 73 255 73 73 255 73 73 255 73 73 255 73 73 255 73 73 255 73 73 255 73 73 255 73 73 255 73 73 255 73 73 255 73 73 255 73 73 255 73 73 255 73 73 255 73 73 255 73 73 255 73 73 255 73 73 255 73 73 255 73 73 255 73 73 255 73 73 255 
10 10 255 10 10 255 10 10 255 10 10 255 10 10 255 11 11 255 11 11 255 11 11 255 11 11 255 11 11 255 11 11 255 12 12 255 12 12 255 12 12 255 12 12 255 12 12 255 13 13 255 13 13 255 13 13 255 13 13 255 13 13 255 13 13 255 14 14 255 14 14 255 14 14 255 14 14 255 14 14 255 15 15 255 15 15 255 15 15 255 15 15 255 15 15 255 16 16 255 16 16 255 16 16 255 16 16 255 17 17 255 17 17 255 17 17 255 17 17 255 17 17 255 18 18 255 18 18 255 18 18 255 18 18 255 19 19 255 19 19 255 19 19 255 19 19 255 19 19 255 20 20 255 20 20 255 20 20 255 20 20 255 21 21 255 21 21 255 21 21 255 21 21 255 22 22 255 22 22 255 22 22 255 22 22 255 23 23 255 23 23 255 23 23 255 23 23 255 24 24 255 24 24 255 24 24 255 24 24 255 25 25 255 25 25 255 25 25 255 26 26 255 26 26 255 26 26 255 26 26 255 27 27 255 27 27 255 27 27 255 27 27 255 28 28 255 28 28 255 28 28 255 29 29 255 29 29 255 29 29 255 29 29 255 30 30 255 30 30 255 30 30 255 31 31 255 31 31 255 31 31 255 31 31 255 32 32 255 32 32 255 32 32 255 33 33 255 33 33 255 33 33 255 34 34 255 34 34 255 34 34 255 34 34 255 35 35 255 35 35 255 35 35 255 36 36 255 36 36 255 36 36 255 37 37 255 37 37 255 37 37 255 38 38 255 38 38 255 38 38 255 38 38 255 39 39 255 39 39 255 39 39 255 40 40 255 40 40 255 40 40 255 41 41 255 41 41 255 41 41 255 42 42 255 42 42 255 42 42 255 43 43 255 43 43 255 43 43 255 43 43 255 44 44 255 44 44 255 44 44 255 45 45 255 45 45 255 45 45 255 46 46 255 46 46 255 46 46 255 47 47 255 47 47 255 47 47 255 48 48 255 48 48 255 48 48 255 49 49 255 49 49 255 49 49 255 50 50 255 50 50 255 50 50 255 50 50 255 51 51 255 51 51 255 51 51 255 52 52 255 52 52 255 52 52 255 53 53 255 53 53 255 53 53 255 53 53 255 54 54 255 54 54 255 54 54 255 55 55 255 55 55 255 55 55 255 56 56 255 56 56 255 56 56 255 56 56 255 57 57 255 57 57 255 57 57 255 58 58 255 58 58 255 58 58 255 58 58 255 59 59 255 59 59 255 59 59 255 59 59 255 60 60 255 60 60 255 60 60 255 60 60 255 61 61 255 61 61 255 61 61 255 61 61 255 62 62 255 62 62 255 62 62 255 62 62 255 63 63 255 63 63 255 63 63 255 63 63 255 64 64 255 64 64 255 64 64 255 64 64 255 64 64 255 65 65 255 65 65 255 65 65 255 65 65 255 65 65 255 66 66 255 66 66 255 66 66 255 66 66 255 66 66 255 67 67 255 67 67 255 67 67 255 67 67 255 67 67 255 68 68 255 68 68 255 68 68 255 68 68 255 68 68 255 68 68 255 69 69 255 69 69 255 69 69 255 69 69 255 69 69 255 69 69 255 69 69 255 70 70 255 70 70 255 70 70 255 70 70 255 70 70 255 70 70 255 70 70 255 71 71 255 71 71 255 71 71 255 71 71 255 71 71 255 71 71 255 71 71 255 71 71 255 71 71 255 72 72 255 72 72 255 72 72 255 72 72 255 72 72 255 72 72 255 72 72 255 72 72 255 72 72 255 72 72 255 72 72 255 72 72 255 72 72 255 73 73 255 73 73 255 73 73 255 73 73 255 73 73 255 73 73 255 73 73 255 73 73 255 73 73 255 73 73 255 73 73 255 73 73 255 73 73 255 73 73 255 73 73 255 73 73 255 73 73 255 73 73 255 73 73 255 73 73 255 73 73 255 73 73 255 73 73 255 73 73 255 73 73 255 73 73 255 73 73 255 73 73 255 73 73 255 73 73 255 73 73 255 73 73 255 73 73 255 73 73 255 73 73 255 
9 9 255 9 9 255 10 10 255 10 10 255 10 10 255 10 10 255 10 10 255 10 10 255 11 11 255 11 11 255 11 11 255 11 11 255 11 11 255 12 12 255 12 12 255 12 12 255 12 12 255 12 12 255 12 12 255 13 13 255 13 13 255 13 13 255 13 13 255 13 13 255 14 14 255 14 14 255 14 14 255 14 14 255 14 14 255 15 15 255 15 15 255 15 15 255 15 15 255 15 15 255 16 16 255 16 16 255 16 16 255 16 16 255 17 17 255 17 17 255 17 17 255 17 17 255 17 17 255 18 18 255 18 18 255 18 18 255 18 18 255 19 19 255 19 19 255 19 19 255 19 19 255 20 20 255 20 20 255 20 20 255 20 20 255 21 21 255 21 21 255 21 21 255 21 21 255 22 22 255 22 22 255 22 22 255 22 22 255 23 23 255 23 23 255 23 23 255 23 23 255 24 24 255 24 24 255 24 24 255 24 24 255 25 25 255 25 25 255 25 25 255 25 25 255 26 26 255 26 26 255 26 26 255 27 27 255 27 27 255 27 27 255 27 27 255 28 28 255 28 28 255 28 28 255 29 29 255 29 29 255 29 29 255 29 29 255 30 30 255 30 30 255 30 30 255 31 31 255 31 31 255 31 31 255 32 32 255 32 32 255 32 32 255 32 32 255 33 33 255 33 33 255 33 33 255 34 34 255 34 34 255 34 34 255 35 35 255 35 35 255 35 35 255 35 35 255 36 36 255 36 36 255 36 36 255 37 37 255 37 37 255 37 37 255 38 38 255 38 38 255 38 38 255 39 39 255 39 39 255 39 39 255 40 40 255 40 40 255 40 40 255 40 40 255 41 41 255 41 41 255 41 41 255 42 42 255 42 42 255 42 42 255 43 43 255 43 43 255 43 43 255 44 44 255 44 44 255 44 44 255 45 45 255 45 45 255 45 45 255 46 46 255 46 46 255 46 46 255 47 47 255 47 47 255 47 47 255 48 48 255 48 48 255 48 48 255 49 49 255 49 49 255 49 49 255 49 49 255 50 50 255 50 50 255 50 50 255 51 51 255 51 51 255 51 51 255 52 52 255 52 52 255 52 52 255 53 53 255 53 53 255 53 53 255 53 53 255 54 54 255 54 54 255 54 54 255 55 55 255 55 55 255 55 55 255 56 56 255 56 56 255 56 56 255 56 56 255 57 57 255 57 57 255 57 57 255 58 58 255 58 58 255 58 58 255 58 58 255 59 59 255 59 59 255 59 59 255 59 59 255 60 60 255 60 60 255 60 60 255 60 60 255 61 61 255 61 61 255 61 61 255 61 61 255 62 62 255 62 62 255 62 62 255 62 62 255 63 63 255 63 63 255 63 63 255 63 63 255 64 64 255 64 64 255 64 64 255 64 64 255 65 65 255 65 65 255 65 65 255 65 65 255 65 65 255 66 66 255 66 66 255 66 66 255 66 66 255 66 66 255 67 67 255 67 67 255 67 67 255 67 67 255 67 67 255 67 67 255 68 68 255 68 68 255 68 68 255 68 68 255 68 68 255 69 69 255 69 69 255 69 69 255 69 69 255 69 69 255 69 69 255 69 69 255 70 70 255 70 70 255 70 70 255 70 70 255 70 70 255 70 70 255 70 70 255 71 71 255 71 71 255 71 71 255 71 71 255 71 71 255 71 71 255 71 71 255 71 71 255 71 71 255 72 72 255 72 72 255 72 72 255 72 72 255 72 72 255 72 72 255 72 72 255 72 72 255 72 72 255 72 72 255 72 72 255 72 72 255 73 73 255 73 73 255 73 73 255 73 73 255 73 73 255 73 73 255 73 73 255 73 73 255 73 73 255 73 73 255 73 73 255 73 73 255 73 73 255 73 73 255 73 73 255 73 73 255 73 73 255 73 73 255 73 73 255 73 73 255 73 73 255 73 73 255 73 73 255 73 73 255 73 73 255 73 73 255 73 73 255 73 73 255 73 73 255 73 73 255 73 73 255 73 73 255 73 73 255 73 73 255 73 73 255 73 73 255 73 73 255 
9 9 255 9 9 255 9 9 255 9 9 255 10 10 255 10 10 255 10 10 255 10 10 255 10 10 255 10 10 255 11 11 255 11 11 255 11 11 255 11 11 255 11 11 255 11 11 255 12 12 255 12 12 255 12 12 255 12 12 255 12 12 255 13 13 255 13 13 255 13 13 255 13 13 255 13 13 255 14 14 255 14 14 255 14 14 255 14 14 255 14 14 255 15 15 255 15 15 255 15 15 255 15 15 255 15 15 255 16 16 255 16 16 255 16 16 255 16 16 255 17 17 255 17 17 255 17 17 255 17 17 255 18 18 255 18 18 255 18 18 255 18 18 255 18 18 255 19 19 255 19 19 255 19 19 255 19 19 255 20 20 255 20 20 255 20 20 255 20 20 255 21 21 255 21 21 255 21 21 255 21 21 255 22 22 255 22 22 255 22 22 255 22 22 255 23 23 255 23 23 255 23 23 255 24 24 255 24 24 255 24 24 255 24 24 255 25 25 255 25 25 255 25 25 255 25 25 255 26 26 255 26 26 255 26 26 255 27 27 255 27 27 255 27 27 255 27 27 255 28 28 255 28 28 255 28 28 255 29 29 255 29 29 255 29 29 255 29 29 255 30 30 255 30 30 255 30 30 255 31 31 255 31 31 255 31 31 255 32 32 255 32 32 255 32 32 255 32 32 255 33 33 255 33 33 255 33 33 255 34 34 255 34 34 255 34 34 255 35 35 255 35 35 255 35 35 255 36 36 255 36 36 255 36 36 255 37 37 255 37 37 255 37 37 255 37 37 255 38 38 255 38 38 255 38 38 255 39 39 255 39 39 255 39 39 255 40 40 255 40 40 255 40 40 255 41 41 255 41 41 255 41 41 255 42 42 255 42 42 255 42 42 255 43 43 255 43 43 255 43 43 255 44 44 255 44 44 255 44 44 255 45 45 255 45 45 255 45 45 255 46 46 255 46 46 255 46 46 255 47 47 255 47 47 255 47 47 255 48 48 255 48 48 255 48 48 255 49 49 255 49 49 255 49 49 255 49 49 255 50 50 255 50 50 255 50 50 255 51 51 255 51 51 255 51 51 255 52 52 255 52 52 255 52 52 255 53 53 255 53 53 255 53 53 255 53 53 255 54 54 255 54 54 255 54 54 255 55 55 255 55 55 255 55 55 255 56 56 255 56 56 255 56 56 255 56 56 255 57 57 255 57 57 255 57 57 255 58 58 255 58 58 255 58 58 255 58 58 255 59 59 255 59 59 255 59 59 255 59 59 255 60 60 255 60 60 255 60 60 255 61 61 255 61 61 255 61 61 255 61 61 255 62 62 255 62 62 255 62 62 255 62 62 255 63 63 255 63 63 255 63 63 255 63 63 255 63 63 255 64 64 255 64 64 255 64 64 255 64 64 255 65 65 255 65 65 255 65 65 255 65 65 255 65 65 255 66 66 255 66 66 255 66 66 255 66 66 255 66 66 255 67 67 255 67 67 255 67 67 255 67 67 255 67 67 255 68 68 255 68 68 255 68 68 255 68 68 255 68 68 255 68 68 255 69 69 255 69 69 255 69 69 255 69 69 255 69 69 255 69 69 255 70 70 255 70 70 255 70 70 255 70 70 255 70 70 255 70 70 255 70 70 255 71 71 255 71 71 255 71 71 255 71 71 255 71 71 255 71 71 255 71 71 255 71 71 255 71 71 255 72 72 255 72 72 255 72 72 255 72 72 255 72 72 255 72 72 255 72 72 255 72 72 255 72 72 255 72 72 255 72 72 255 72 72 255 73 73 255 73 73 255 73 73 255 73 73 255 73 73 255 73 73 255 73 73 255 73 73 255 73 73 255 73 73 255 73 73 255 73 73 255 73 73 255 73 73 255 73 73 255 73 73 255 73 73 255 73 73 255 73 73 255 73 73 255 73 73 255 73 73 255 73 73 255 73 73 255 73 73 255 73 73 255 73 73 255 73 73 255 73 73 255 73 73 255 73 73 255 73 73 255 73 73 255 73 73 255 73 73 255 73 73 255 73 73 255 73 73 255 
8 8 255 9 9 255 9 9 255 9 9 255 9 9 255 9 9 255 9 9 255 10 10 255 10 10 255 10 10 255 10 10 255 10 10 255 10 10 255 11 11 255 11 11 255 11 11 255 11 11 255 11 11 255 12 12 255 12 12 255 12 12 255 12 12 255 12 12 255 13 13 255 13 13 255 13 13 255 13 13 255 13 13 255 14 14 255 14 14 255 14 14 255 14 14 255 14 14 255 15 15 255 15 15 255 15 15 255 15 15 255 16 16 255 16 16 255 16 16 255 16 16 255 16 16 255 17 17 255 17 17 255 17 17 255 17 17 255 18 18 255 18 18 255 18 18 255 18 18 255 19 19 255 19 19 255 19 19 255 19 19 255 20 20 255 20 20 255 20 20 255 20 20 255 21 21 255 21 21 255 21 21 255 21 21 255 22 22 255 22 22 255 22 22 255 22 22 255 23 23 255 23 23 255 23 23 255 23 23 255 24 24 255 24 24 255 24 24 255 25 25 255 25 25 255 25 25 255 25 25 255 26 26 255 26 26 255 26 26 255 27 27 255 27 27 255 27 27 255 27 27 255 28 28 255 28 28 255 28 28 255 29 29 255 29 29 255 29 29 255 29 29 255 30 30 255 30 30 255 30 30 255 31 31 255 31 31 255 31 31 255 32 32 255 32 32 255 32 32 255 33 33 255 33 33 255 33 33 255 33 33 255 34 34 255 34 34 255 34 34 255 35 35 255 35 35 255 35 35 255 36 36 255 36 36 255 36 36 255 37 37 255 37 37 255 37 37 255 38 38 255 38 38 255 38 38 255 39 39 255 39 39 255 39 39 255 40 40 255 40 40 255 40 40 255 41 41 255 41 41 255 41 41 255 42 42 255 42 42 255 42 42 255 43 43 255 43 43 255 43 43 255 44 44 255 44 44 255 44 44 255 45 45 255 45 45 255 45 45 255 46 46 255 46 46 255 46 46 255 47 47 255 47 47 255 47 47 255 47 47 255 48 48 255 48 48 255 48 48 255 49 49 255 49 49 255 49 49 255 50 50 255 50 50 255 50 50 255 51 51 255 51 51 255 51 51 255 52 52 255 52 52 255 52 52 255 53 53 255 53 53 255 53 53 255 53 53 255 54 54 255 54 54 255 54 54 255 55 55 255 55 55 255 55 55 255 56 56 255 56 56 255 56 56 255 56 56 255 57 57 255 57 57 255 57 57 255 58 58 255 58 58 255 58 58 255 58 58 255 59 59 255 59 59 255 59 59 255 59 59 255 60 60 255 60 60 255 60 60 255 61 61 255 61 61 255 61 61 255 61 61 255 62 62 255 62 62 255 62 62 255 62 62 255 63 63 255 63 63 255 63 63 255 63 63 255 64 64 255 64 64 255 64 64 255 64 64 255 64 64 255 65 65 255 65 65 255 65 65 255 65 65 255 65 65 255 66 66 255 66 66 255 66 66 255 66 66 255 67 67 255 67 67 255 67 67 255 67 67 255 67 67 255 67 67 255 68 68 255 68 68 255 68 68 255 68 68 255 68 68 255 69 69 255 69 69 255 69 69 255 69 69 255 69 69 255 69 69 255 69 69 255 70 70 255 70 70 255 70 70 255 70 70 255 70 70 255 70 70 255 70 70 255 71 71 255 71 71 255 71 71 255 71 71 255 71 71 255 71 71 255 71 71 255 71 71 255 72 72 255 72 72 255 72 72 255 72 72 255 72 72 255 72 72 255 72 72 255 72 72 255 72 72 255 72 72 255 72 72 255 73 73 255 73 73 255 73 73 255 73 73 255 73 73 255 73 73 255 73 73 255 73 73 255 73 73 255 73 73 255 73 73 255 73 73 255 73 73 255 73 73 255 73 73 255 73 73 255 73 73 255 73 73 255 73 73 255 73 73 255 73 73 255 73 73 255 73 73 255 73 73 255 73 73 255 73 73 255 73 73 255 73 73 255 73 73 255 73 73 255 73 73 255 73 73 255 73 73 255 73 73 255 73 73 255 73 73 255 73 73 255 73 73 255 73 73 255 73 73 255 
8 8 255 8 8 255 8 8 255 9 9 255 9 9 255 9 9 255 9 9 255 9 9 255 9 9 255 10 10 255 10 10 255 10 10 255 10 10 255 10 10 255 10 10 255 11 11 255 11 11 255 11 11 255 11 11 255 11 11 255 12 12 255 12 12 255 12 12 255 12 12 255 12 12 255 13 13 255 13 13 255 13 13 255 13 13 255 13 13 255 14 14 255 14 14 255 14 14 255 14 14 255 14 14 255 15 15 255 15 15 255 15 15 255 15 15 255 16 16 255 16 16 255 16 16 255 16 16 255 17 17 255 17 17 255 17 17 255 17 17 255 17 17 255 18 18 255 18 18 255 18 18 255 18 18 255 19 19 255 19 19 255 19 19 255 19 19 255 20 20 255 20 20 255 20 20 255 20 20 255 21 21 255 21 21 255 21 21 255 22 22 255 22 22 255 22 22 255 22 22 255 23 23 255 23 23 255 23 23 255 23 23 255 24 24 255 24 24 255 24 24 255 25 25 255 25 25 255 25 25 255 25 25 255 26 26 255 26 26 255 26 26 255 27 27 255 27 27 255 27 27 255 27 27 255 28 28 255 28 28 255 28 28 255 29 29 255 29 29 255 29 29 255 30 30 255 30 30 255 30 30 255 30 30 255 31 31 255 31 31 255 31 31 255 32 32 255 32 32 255 32 32 255 33 33 255 33 33 255 33 33 255 34 34 255 34 34 255 34 34 255 35 35 255 35 35 255 35 35 255 36 36 255 36 36 255 36 36 255 36 36 255 37 37 255 37 37 255 37 37 255 38 38 255 38 38 255 38 38 255 39 39 255 39 39 255 39 39 255 40 40 255 40 40 255 40 40 255 41 41 255 41 41 255 41 41 255 42 42 255 42 42 255 42 42 255 43 43 255 43 43 255 43 43 255 44 44 255 44 44 255 44 44 255 45 45 255 45 45 255 45 45 255 46 46 255 46 46 255 46 46 255 47 47 255 47 47 255 47 47 255 48 48 255 48 48 255 48 48 255 49 49 255 49 49 255 49 49 255 50 50 255 50 50 255 50 50 255 51 51 255 51 51 255 51 51 255 52 52 255 52 52 255 52 52 255 53 53 255 53 53 255 53 53 255 53 53 255 54 54 255 54 54 255 54 54 255 55 55 255 55 55 255 55 55 255 56 56 255 56 56 255 56 56 255 56 56 255 57 57 255 57 57 255 57 57 255 58 58 255 58 58 255 58 58 255 58 58 255 59 59 255 59 59 255 59 59 255 60 60 255 60 60 255 60 60 255 60 60 255 61 61 255 61 61 255 61 61 255 61 61 255 62 62 255 62 62 255 62 62 255 62 62 255 63 63 255 63 63 255 63 63 255 63 63 255 64 64 255 64 64 255 64 64 255 64 64 255 64 64 255 65 65 255 65 65 255 65 65 255 65 65 255 66 66 255 66 66 255 66 66 255 66 66 255 66 66 255 67 67 255 67 67 255 67 67 255 67 67 255 67 67 255 68 68 255 68 68 255 68 68 255 68 68 255 68 68 255 68 68 255 69 69 255 69 69 255 69 69 255 69 69 255 69 69 255 69 69 255 70 70 255 70 70 255 70 70 255 70 70 255 70 70 255 70 70 255 70 70 255 71 71 255 71 71 255 71 71 255 71 71 255 71 71 255 71 71 255 71 71 255 71 71 255 72 72 255 72 72 255 72 72 255 72 72 255 72 72 255 72 72 255 72 72 255 72 72 255 72 72 255 72 72 255 72 72 255 73 73 255 73 73 255 73 73 255 73 73 255 73 73 255 73 73 255 73 73 255 73 73 255 73 73 255 73 73 255 73 73 255 73 73 255 73 73 255 73 73 255 73 73 255 73 73 255 73 73 255 73 73 255 73 73 255 73 73 255 73 73 255 73 73 255 73 73 255 73 73 255 73 73 255 73 73 255 73 73 255 73 73 255 73 73 255 73 73 255 73 73 255 73 73 255 73 73 255 73 73 255 73 73 255 73 73 255 73 73 255 73 73 255 73 73 255 73 73 255 73 73 255 
8 8 255 8 8 255 8 8 255 8 8 255 8 8 255 8 8 255 9 9 255 9 9 255 9 9 255 9 9 255 9 9 255 10 10 255 10 10 255 10 10 255 10 10 255 10 10 255 10 10 255 11 11 255 11 11 255 11 11 255 11 11 255 11 11 255 12 12 255 12 12 255 12 12 255 12 12 255 12 12 255 13 13 255 13 13 255 13 13 255 13 13 255 13 13 255 14 14 255 14 14 255 14 14 255 14 14 255 15 15 255 15 15 255 15 15 255 15 15 255 15 15 255 16 16 255 16 16 255 16 16 255 16 16 255 17 17 255 17 17 255 17 17 255 17 17 255 18 18 255 18 18 255 18 18 255 18 18 255 19 19 255 19 19 255 19 19 255 19 19 255 20 20 255 20 20 255 20 20 255 20 20 255 21 21 255 21 21 255 21 21 255 21 21 255 22 22 255 22 22 255 22 22 255 23 23 255 23 23 255 23 23 255 23 23 255 24 24 255 24 24 255 24 24 255 25 25 255 25 25 255 25 25 255 25 25 255 26 26 255 26 26 255 26 26 255 27 27 255 27 27 255 27 27 255 27 27 255 28 28 255 28 28 255 28 28 255 29 29 255 29 29 255 29 29 255 30 30 255 30 30 255 30 30 255 31 31 255 31 31 255 31 31 255 31 31 255 32 32 255 32 32 255 32 32 255 33 33 255 33 33 255 33 33 255 34 34 255 34 34 255 34 34 255 35 35 255 35 35 255 35 35 255 36 36 255 36 36 255 36 36 255 37 37 255 37 37 255 37 37 255 38 38 255 38 38 255 38 38 255 39 39 255 39 39 255 39 39 255 40 40 255 40 40 255 40 40 255 41 41 255 41 41 255 41 41 255 42 42 255 42 42 255 42 42 255 43 43 255 43 43 255 43 43 255 44 44 255 44 44 255 44 44 255 45 45 255 45 45 255 45 45 255 46 46 255 46 46 255 46 46 255 47 47 255 47 47 255 47 47 255 48 48 255 48 48 255 48 48 255 49 49 255 49 49 255 49 49 255 50 50 255 50 50 255 50 50 255 51 51 255 51 51 255 51 51 255 52 52 255 52 52 255 52 52 255 52 52 255 53 53 255 53 53 255 53 53 255 54 54 255 54 54 255 54 54 255 55 55 255 55 55 255 55 55 255 56 56 255 56 56 255 56 56 255 56 56 255 57 57 255 57 57 255 57 57 255 58 58 255 58 58 255 58 58 255 58 58 255 59 59 255 59 59 255 59 59 255 60 60 255 60 60 255 60 60 255 60 60 255 61 61 255 61 61 255 61 61 255 61 61 255 62 62 255 62 62 255 62 62 255 62 62 255 63 63 255 63 63 255 63 63 255 63 63 255 64 64 255 64 64 255 64 64 255 64 64 255 65 65 255 65 65 255 65 65 255 65 65 255 65 65 255 66 66 255 66 66 255 66 66 255 66 66 255 66 66 255 67 67 255 67 67 255 67 67 255 67 67 255 67 67 255 68 68 255 68 68 255 68 68 255 68 68 255 68 68 255 69 69 255 69 69 255 69 69 255 69 69 255 69 69 255 69 69 255 69 69 255 70 70 255 70 70 255 70 70 255 70 70 255 70 70 255 70 70 255 71 71 255 71 71 255 71 71 255 71 71 255 71 71 255 71 71 255 71 71 255 71 71 255 71 71 255 72 72 255 72 72 255 72 72 255 72 72 255 72 72 255 72 72 255 72 72 255 72 72 255 72 72 255 72 72 255 73 73 255 73 73 255 73 73 255 73 73 255 73 73 255 73 73 255 73 73 255 73 73 255 73 73 255 73 73 255 73 73 255 73 73 255 73 73 255 73 73 255 73 73 255 73 73 255 73 73 255 73 73 255 73 73 255 73 73 255 73 73 255 73 73 255 73 73 255 73 73 255 74 74 255 74 74 255 74 74 255 74 74 255 73 73 255 73 73 255 73 73 255 73 73 255 73 73 255 73 73 255 73 73 255 73 73 255 73 73 255 73 73 255 73 73 255 73 73 255 73 73 255 73 73 255 
7 7 255 7 7 255 8 8 255 8 8 255 8 8 255 8 8 255 8 8 255 8 8 255 9 9 255 9 9 255 9 9 255 9 9 255 9 9 255 9 9 255 10 10 255 10 10 255 10 10 255 10 10 255 10 10 255 11 11 255 11 11 255 11 11 255 11 11 255 11 11 255 12 12 255 12 12 255 12 12 255 12 12 255 12 12 255 13 13 255 13 13 255 13 13 255 13 13 255 13 13 255 14 14 255 14 14 255 14 14 255 14 14 255 15 15 255 15 15 255 15 15 255 15 15 255 16 16 255 16 16 255 16 16 255 16 16 255 16 16 255 17 17 255 17 17 255 17 17 255 17 17 255 18 18 255 18 18 255 18 18 255 18 18 255 19 19 255 19 19 255 19 19 255 19 19 255 20 20 255 20 20 255 20 20 255 21 21 255 21 21 255 21 21 255 21 21 255 22 22 255 22 22 255 22 22 255 22 22 255 23 23 255 23 23 255 23 23 255 24 24 255 24 24 255 24 24 255 24 24 255 25 25 255 25 25 255 25 25 255 26 26 255 26 26 255 26 26 255 27 27 255 27 27 255 27 27 255 27 27 255 28 28 255 28 28 255 28 28 255 29 29 255 29 29 255 29 29 255 30 30 255 30 30 255 30 30 255 31 31 255 31 31 255 31 31 255 32 32 255 32 32 255 32 32 255 33 33 255 33 33 255 33 33 255 34 34 255 34 34 255 34 34 255 34 34 255 35 35 255 35 35 255 35 35 255 36 36 255 36 36 255 36 36 255 37 37 255 37 37 255 38 38 255 38 38 255 38 38 255 39 39 255 39 39 255 39 39 255 40 40 255 40 40 255 40 40 255 41 41 255 41 41 255 41 41 255 42 42 255 42 42 255 42 42 255 43 43 255 43 43 255 43 43 255 44 44 255 44 44 255 44 44 255 45 45 255 45 45 255 45 45 255 46 46 255 46 46 255 46 46 255 47 47 255 47 47 255 47 47 255 48 48 255 48 48 255 48 48 255 49 49 255 49 49 255 49 49 255 50 50 255 50 50 255 50 50 255 51 51 255 51 51 255 51 51 255 51 51 255 52 52 255 52 52 255 52 52 255 53 53 255 53 53 255 53 53 255 54 54 255 54 54 255 54 54 255 55 55 255 55 55 255 55 55 255 56 56 255 56 56 255 56 56 255 56 56 255 57 57 255 57 57 255 57 57 255 58 58 255 58 58 255 58 58 255 58 58 255 59 59 255 59 59 255 59 59 255 60 60 255 60 60 255 60 60 255 60 60 255 61 61 255 61 61 255 61 61 255 61 61 255 62 62 255 62 62 255 62 62 255 62 62 255 63 63 255 63 63 255 63 63 255 63 63 255 64 64 255 64 64 255 64 64 255 64 64 255 65 65 255 65 65 255 65 65 255 65 65 255 65 65 255 66 66 255 66 66 255 66 66 255 66 66 255 66 66 255 67 67 255 67 67 255 67 67 255 67 67 255 67 67 255 68 68 255 68 68 255 68 68 255 68 68 255 68 68 255 69 69 255 69 69 255 69 69 255 69 69 255 69 69 255 69 69 255 70 70 255 70 70 255 70 70 255 70 70 255 70 70 255 70 70 255 70 70 255 71 71 255 71 71 255 71 71 255 71 71 255 71 71 255 71 71 255 71 71 255 71 71 255 72 72 255 72 72 255 72 72 255 72 72 255 72 72 255 72 72 255 72 72 255 72 72 255 72 72 255 72 72 255 73 73 255 73 73 255 73 73 255 73 73 255 73 73 255 73 73 255 73 73 255 73 73 255 73 73 255 73 73 255 73 73 255 73 73 255 73 73 255 73 73 255 73 73 255 73 73 255 73 73 255 73 73 255 73 73 255 73 73 255 74 74 255 74 74 255 74 74 255 74 74 255 74 74 255 74 74 255 74 74 255 74 74 255 74 74 255 74 74 255 74 74 255 74 74 255 74 74 255 73 73 255 73 73 255 73 73 255 73 73 255 73 73 255 73 73 255 73 73 255 73 73 255 73 73 255 73 73 255 
7 7 255 7 7 255 7 7 255 7 7 255 8 8 255 8 8 255 8 8 255 8 8 255 8 8 255 8 8 255 9 9 255 9 9 255 9 9 255 9 9 255 9 9 255 9 9 255 10 10 255 10 10 255 10 10 255 10 10 255 10 10 255 11 11 255 11 11 255 11 11 255 11 11 255 11 11 255 12 12 255 12 12 255 12 12 255 12 12 255 12 12 255 13 13 255 13 13 255 13 13 255 13 13 255 14 14 255 14 14 255 14 14 255 14 14 255 14 14 255 15 15 255 15 15 255 15 15 255 15 15 255 16 16 255 16 16 255 16 16 255 16 16 255 17 17 255 17 17 255 17 17 255 17 17 255 18 18 255 18 18 255 18 18 255 18 18 255 19 19 255 19 19 255 19 19 255 19 19 255 20 20 255 20 20 255 20 20 255 21 21 255 21 21 255 21 21 255 21 21 255 22 22 255 22 22 255 22 22 255 22 22 255 23 23 255 23 23 255 23 23 255 24 24 255 24 24 255 24 24 255 24 24 255 25 25 255 25 25 255 25 25 255 26 26 255 26 26 255 26 26 255 27 27 255 27 27 255 27 27 255 28 28 255 28 28 255 28 28 255 28 28 255 29 29 255 29 29 255 29 29 255 30 30 255 30 30 255 30 30 255 31 31 255 31 31 255 31 31 255 32 32 255 32 32 255 32 32 255 33 33 255 33 33 255 33 33 255 34 34 255 34 34 255 34 34 255 35 35 255 35 35 255 35 35 255 36 36 255 36 36 255 36 36 255 37 37 255 37 37 255 37 37 255 38 38 255 38 38 255 38 38 255 39 39 255 39 39 255 39 39 255 40 40 255 40 40 255 40 40 255 41 41 255 41 41 255 41 41 255 42 42 255 42 42 255 42 42 255 43 43 255 43 43 255 43 43 255 44 44 255 44 44 255 45 45 255 45 45 255 45 45 255 46 46 255 46 46 255 46 46 255 47 47 255 47 47 255 47 47 255 48 48 255 48 48 255 48 48 255 49 49 255 49 49 255 49 49 255 49 49 255 50 50 255 50 50 255 50 50 255 51 51 255 51 51 255 51 51 255 52 52 255 52 52 255 52 52 255 53 53 255 53 53 255 53 53 255 54 54 255 54 54 255 54 54 255 55 55 255 55 55 255 55 55 255 55 55 255 56 56 255 56 56 255 56 56 255 57 57 255 57 57 255 57 57 255 58 58 255 58 58 255 58 58 255 58 58 255 59 59 255 59 59 255 59 59 255 60 60 255 60 60 255 60 60 255 60 60 255 61 61 255 61 61 255 61 61 255 61 61 255 62 62 255 62 62 255 62 62 255 62 62 255 63 63 255 63 63 255 63 63 255 63 63 255 64 64 255 64 64 255 64 64 255 64 64 255 65 65 255 65 65 255 65 65 255 65 65 255 65 65 255 66 66 255 66 66 255 66 66 255 66 66 255 67 67 255 67 67 255 67 67 255 67 67 255 67 67 255 68 68 255 68 68 255 68 68 255 68 68 255 68 68 255 68 68 255 69 69 255 69 69 255 69 69 255 69 69 255 69 69 255 69 69 255 70 70 255 70 70 255 70 70 255 70 70 255 70 70 255 70 70 255 71 71 255 71 71 255 71 71 255 71 71 255 71 71 255 71 71 255 71 71 255 71 71 255 72 72 255 72 72 255 72 72 255 72 72 255 72 72 255 72 72 255 72 72 255 72 72 255 72 72 255 72 72 255 73 73 255 73 73 255 73 73 255 73 73 255 73 73 255 73 73 255 73 73 255 73 73 255 73 73 255 73 73 255 73 73 255 73 73 255 73 73 255 73 73 255 73 73 255 73 73 255 73 73 255 73 73 255 74 74 255 74 74 255 74 74 255 74 74 255 74 74 255 74 74 255 74 74 255 74 74 255 74 74 255 74 74 255 74 74 255 74 74 255 74 74 255 74 74 255 74 74 255 74 74 255 74 74 255 74 74 255 73 73 255 73 73 255 73 73 255 73 73 255 73 73 255 73 73 255 73 73 255 73 73 255 
7 7 255 7 7 255 7 7 255 7 7 255 7 7 255 7 7 255 7 7 255 8 8 255 8 8 255 8 8 255 8 8 255 8 8 255 9 9 255 9 9 255 9 9 255 9 9 255 9 9 255 9 9 255 10 10 255 10 10 255 10 10 255 10 10 255 10 10 255 11 11 255 11 11 255 11 11 255 11 11 255 11 11 255 12 12 255 12 12 255 12 12 255 12 12 255 13 13 255 13 13 255 13 13 255 13 13 255 13 13 255 14 14 255 14 14 255 14 14 255 14 14 255 15 15 255 15 15 255 15 15 255 15 15 255 16 16 255 16 16 255 16 16 255 16 16 255 16 16 255 17 17 255 17 17 255 17 17 255 18 18 255 18 18 255 18 18 255 18 18 255 19 19 255 19 19 255 19 19 255 19 19 255 20 20 255 20 20 255 20 20 255 20 20 255 21 21 255 21 21 255 21 21 255 22 22 255 22 22 255 22 22 255 22 22 255 23 23 255 23 23 255 23 23 255 24 24 255 24 24 255 24 24 255 25 25 255 25 25 255 25 25 255 25 25 255 26 26 255 26 26 255 26 26 255 27 27 255 27 27 255 27 27 255 28 28 255 28 28 255 28 28 255 29 29 255 29 29 255 29 29 255 29 29 255 30 30 255 30 30 255 30 30 255 31 31 255 31 31 255 31 31 255 32 32 255 32 32 255 32 32 255 33 33 255 33 33 255 33 33 255 34 34 255 34 34 255 34 34 255 35 35 255 35 35 255 35 35 255 36 36 255 36 36 255 37 37 255 37 37 255 37 37 255 38 38 255 38 38 255 38 38 255 39 39 255 39 39 255 39 39 255 40 40 255 40 40 255 40 40 255 41 41 255 41 41 255 41 41 255 42 42 255 42 42 255 42 42 255 43 43 255 43 43 255 43 43 255 44 44 255 44 44 255 44 44 255 45 45 255 45 45 255 45 45 255 46 46 255 46 46 255 46 46 255 47 47 255 47 47 255 47 47 255 48 48 255 48 48 255 48 48 255 49 49 255 49 49 255 49 49 255 50 50 255 50 50 255 50 50 255 51 51 255 51 51 255 51 51 255 52 52 255 52 52 255 52 52 255 53 53 255 53 53 255 53 53 255 54 54 255 54 54 255 54 54 255 55 55 255 55 55 255 55 55 255 55 55 255 56 56 255 56 56 255 56 56 255 57 57 255 57 57 255 57 57 255 58 58 255 58 58 255 58 58 255 58 58 255 59 59 255 59 59 255 59 59 255 60 60 255 60 60 255 60 60 255 60 60 255 61 61 255 61 61 255 61 61 255 61 61 255 62 62 255 62 62 255 62 62 255 62 62 255 63 63 255 63 63 255 63 63 255 63 63 255 64 64 255 64 64 255 64 64 255 64 64 255 65 65 255 65 65 255 65 65 255 65 65 255 66 66 255 66 66 255 66 66 255 66 66 255 66 66 255 67 67 255 67 67 255 67 67 255 67 67 255 67 67 255 68 68 255 68 68 255 68 68 255 68 68 255 68 68 255 68 68 255 69 69 255 69 69 255 69 69 255 69 69 255 69 69 255 70 70 255 70 70 255 70 70 255 70 70 255 70 70 255 70 70 255 70 70 255 71 71 255 71 71 255 71 71 255 71 71 255 71 71 255 71 71 255 71 71 255 71 71 255 72 72 255 72 72 255 72 72 255 72 72 255 72 72 255 72 72 255 72 72 255 72 72 255 72 72 255 72 72 255 73 73 255 73 73 255 73 73 255 73 73 255 73 73 255 73 73 255 73 73 255 73 73 255 73 73 255 73 73 255 73 73 255 73 73 255 73 73 255 73 73 255 73 73 255 73 73 255 73 73 255 74 74 255 74 74 255 74 74 255 74 74 255 74 74 255 74 74 255 74 74 255 74 74 255 74 74 255 74 74 255 74 74 255 74 74 255 74 74 255 74 74 255 74 74 255 74 74 255 74 74 255 74 74 255 74 74 255 74 74 255 73 73 255 73 73 255 73 73 255 73 73 255 73 73 255 73 73 255 73 73 255 
6 6 255 6 6 255 6 6 255 7 7 255 7 7 255 7 7 255 7 7 255 7 7 255 7 7 255 8 8 255 8 8 255 8 8 255 8 8 255 8 8 255 9 9 255 9 9 255 9 9 255 9 9 255 9 9 255 9 9 255 10 10 255 10 10 255 10 10 255 10 10 255 10 10 255 11 11 255 11 11 255 11 11 255 11 11 255 11 11 255 12 12 255 12 12 255 12 12 255 12 12 255 13 13 255 13 13 255 13 13 255 13 13 255 13 13 255 14 14 255 14 14 255 14 14 255 14 14 255 15 15 255 15 15 255 15 15 255 15 15 255 16 16 255 16 16 255 16 16 255 16 16 255 17 17 255 17 17 255 17 17 255 17 17 255 18 18 255 18 18 255 18 18 255 18 18 255 19 19 255 19 19 255 19 19 255 20 20 255 20 20 255 20 20 255 20 20 255 21 21 255 21 21 255 21 21 255 22 22 255 22 22 255 22 22 255 22 22 255 23 23 255 23 23 255 23 23 255 24 24 255 24 24 255 24 24 255 25 25 255 25 25 255 25 25 255 25 25 255 26 26 255 26 26 255 26 26 255 27 27 255 27 27 255 27 27 255 28 28 255 28 28 255 28 28 255 29 29 255 29 29 255 29 29 255 30 30 255 30 30 255 30 30 255 31 31 255 31 31 255 31 31 255 32 32 255 32 32 255 32 32 255 33 33 255 33 33 255 33 33 255 34 34 255 34 34 255 34 34 255 35 35 255 35 35 255 35 35 255 36 36 255 36 36 255 36 36 255 37 37 255 37 37 255 37 37 255 38 38 255 38 38 255 38 38 255 39 39 255 39 39 255 39 39 255 40 40 255 40 40 255 40 40 255 41 41 255 41 41 255 42 42 255 42 42 255 42 42 255 43 43 255 43 43 255 43 43 255 44 44 255 44 44 255 44 44 255 45 45 255 45 45 255 45 45 255 46 46 255 46 46 255 46 46 255 47 47 255 47 47 255 47 47 255 48 48 255 48 48 255 48 48 255 49 49 255 49 49 255 49 49 255 50 50 255 50 50 255 50 50 255 51 51 255 51 51 255 51 51 255 52 52 255 52 52 255 52 52 255 53 53 255 53 53 255 53 53 255 54 54 255 54 54 255 54 54 255 54 54 255 55 55 255 55 55 255 55 55 255 56 56 255 56 56 255 56 56 255 57 57 255 57 57 255 57 57 255 57 57 255 58 58 255 58 58 255 58 58 255 59 59 255 59 59 255 59 59 255 59 59 255 60 60 255 60 60 255 60 60 255 61 61 255 61 61 255 61 61 255 61 61 255 62 62 255 62 62 255 62 62 255 62 62 255 63 63 255 63 63 255 63 63 255 63 63 255 64 64 255 64 64 255 64 64 255 64 64 255 65 65 255 65 65 255 65 65 255 65 65 255 66 66 255 66 66 255 66 66 255 66 66 255 66 66 255 67 67 255 67 67 255 67 67 255 67 67 255 67 67 255 68 68 255 68 68 255 68 68 255 68 68 255 68 68 255 69 69 255 69 69 255 69 69 255 69 69 255 69 69 255 69 69 255 70 70 255 70 70 255 70 70 255 70 70 255 70 70 255 70 70 255 70 70 255 71 71 255 71 71 255 71 71 255 71 71 255 71 71 255 71 71 255 71 71 255 72 72 255 72 72 255 72 72 255 72 72 255 72 72 255 72 72 255 72 72 255 72 72 255 72 72 255 72 72 255 73 73 255 73 73 255 73 73 255 73 73 255 73 73 255 73 73 255 73 73 255 73 73 255 73 73 255 73 73 255 73 73 255 73 73 255 73 73 255 73 73 255 73 73 255 73 73 255 74 74 255 74 74 255 74 74 255 74 74 255 74 74 255 74 74 255 74 74 255 74 74 255 74 74 255 74 74 255 74 74 255 74 74 255 74 74 255 74 74 255 74 74 255 74 74 255 74 74 255 74 74 255 74 74 255 74 74 255 74 74 255 74 74 255 74 74 255 73 73 255 73 73 255 73 73 255 73 73 255 73 73 255 73 73 255 
6 6 255 6 6 255 6 6 255 6 6 255 6 6 255 7 7 255 7 7 255 7 7 255 7 7 255 7 7 255 7 7 255 8 8 255 8 8 255 8 8 255 8 8 255 8 8 255 9 9 255 9 9 255 9 9 255 9 9 255 9 9 255 10 10 255 10 10 255 10 10 255 10 10 255 10 10 255 11 11 255 11 11 255 11 11 255 11 11 255 11 11 255 12 12 255 12 12 255 12 12 255 12 12 255 12 12 255 13 13 255 13 13 255 13 13 255 13 13 255 14 14 255 14 14 255 14 14 255 14 14 255 15 15 255 15 15 255 15 15 255 15 15 255 16 16 255 16 16 255 16 16 255 16 16 255 17 17 255 17 17 255 17 17 255 17 17 255 18 18 255 18 18 255 18 18 255 18 18 255 19 19 255 19 19 255 19 19 255 20 20 255 20 20 255 20 20 255 20 20 255 21 21 255 21 21 255 21 21 255 22 22 255 22 22 255 22 22 255 22 22 255 23 23 255 23 23 255 23 23 255 24 24 255 24 24 255 24 24 255 25 25 255 25 25 255 25 25 255 25 25 255 26 26 255 26 26 255 26 26 255 27 27 255 27 27 255 27 27 255 28 28 255 28 28 255 28 28 255 29 29 255 29 29 255 29 29 255 30 30 255 30 30 255 30 30 255 31 31 255 31 31 255 31 31 255 32 32 255 32 32 255 32 32 255 33 33 255 33 33 255 33 33 255 34 34 255 34 34 255 34 34 255 35 35 255 35 35 255 35 35 255 36 36 255 36 36 255 37 37 255 37 37 255 37 37 255 38 38 255 38 38 255 38 38 255 39 39 255 39 39 255 39 39 255 40 40 255 40 40 255 40 40 255 41 41 255 41 41 255 41 41 255 42 42 255 42 42 255 42 42 255 43 43 255 43 43 255 43 43 255 44 44 255 44 44 255 44 44 255 45 45 255 45 45 255 46 46 255 46 46 255 46 46 255 47 47 255 47 47 255 47 47 255 48 48 255 48 48 255 48 48 255 49 49 255 49 49 255 49 49 255 50 50 255 50 50 255 50 50 255 51 51 255 51 51 255 51 51 255 52 52 255 52 52 255 52 52 255 52 52 255 53 53 255 53 53 255 53 53 255 54 54 255 54 54 255 54 54 255 55 55 255 55 55 255 55 55 255 56 56 255 56 56 255 56 56 255 57 57 255 57 57 255 57 57 255 57 57 255 58 58 255 58 58 255 58 58 255 59 59 255 59 59 255 59 59 255 59 59 255 60 60 255 60 60 255 60 60 255 61 61 255 61 61 255 61 61 255 61 61 255 62 62 255 62 62 255 62 62 255 62 62 255 63 63 255 63 63 255 63 63 255 63 63 255 64 64 255 64 64 255 64 64 255 64 64 255 65 65 255 65 65 255 65 65 255 65 65 255 66 66 255 66 66 255 66 66 255 66 66 255 66 66 255 67 67 255 67 67 255 67 67 255 67 67 255 67 67 255 68 68 255 68 68 255 68 68 255 68 68 255 68 68 255 69 69 255 69 69 255 69 69 255 69 69 255 69 69 255 69 69 255 70 70 255 70 70 255 70 70 255 70 70 255 70 70 255 70 70 255 71 71 255 71 71 255 71 71 255 71 71 255 71 71 255 71 71 255 71 71 255 71 71 255 72 72 255 72 72 255 72 72 255 72 72 255 72 72 255 72 72 255 72 72 255 72 72 255 72 72 255 73 73 255 73 73 255 73 73 255 73 73 255 73 73 255 73 73 255 73 73 255 73 73 255 73 73 255 73 73 255 73 73 255 73 73 255 73 73 255 73 73 255 73 73 255 73 73 255 74 74 255 74 74 255 74 74 255 74 74 255 74 74 255 74 74 255 74 74 255 74 74 255 74 74 255 74 74 255 74 74 255 74 74 255 74 74 255 74 74 255 74 74 255 74 74 255 74 74 255 74 74 255 74 74 255 74 74 255 74 74 255 74 74 255 74 74 255 74 74 255 73 73 255 73 73 255 73 73 255 73 73 255 73 73 255 73 73 255 
5 5 254 6 6 254 6 6 254 6 6 254 6 6 254 6 6 254 6 6 254 7 7 254 7 7 254 7 7 254 7 7 254 7 7 254 7 7 254 8 8 254 8 8 254 8 8 254 8 8 254 8 8 254 9 9 254 9 9 254 9 9 254 9 9 254 9 9 255 10 10 255 10 10 255 10 10 255 10 10 255 10 10 255 11 11 255 11 11 255 11 11 255 11 11 255 11 11 255 12 12 255 12 12 255 12 12 255 12 12 255 13 13 255 13 13 255 13 13 255 13 13 255 14 14 255 14 14 255 14 14 255 14 14 255 14 14 255 15 15 255 15 15 255 15 15 255 15 15 255 16 16 255 16 16 255 16 16 255 17 17 255 17 17 255 17 17 255 17 17 255 18 18 255 18 18 255 18 18 255 18 18 255 19 19 255 19 19 255 19 19 255 20 20 255 20 20 255 20 20 255 20 20 255 21 21 255 21 21 255 21 21 255 22 22 255 22 22 255 22 22 255 22 22 255 23 23 255 23 23 255 23 23 255 24 24 255 24 24 255 24 24 255 25 25 255 25 25 255 25 25 255 26 26 255 26 26 255 26 26 255 27 27 255 27 27 255 27 27 255 27 27 255 28 28 255 28 28 255 28 28 255 29 29 255 29 29 255 29 29 255 30 30 255 30 30 255 30 30 255 31 31 255 31 31 255 32 32 255 32 32 255 32 32 255 33 33 255 33 33 255 33 33 255 34 34 255 34 34 255 34 34 255 35 35 255 35 35 255 35 35 255 36 36 255 36 36 255 36 36 255 37 37 255 37 37 255 37 37 255 38 38 255 38 38 255 38 38 255 39 39 255 39 39 255 39 39 255 40 40 255 40 40 255 41 41 255 41 41 255 41 41 255 42 42 255 42 42 255 42 42 255 43 43 255 43 43 255 43 43 255 44 44 255 44 44 255 44 44 255 45 45 255 45 45 255 45 45 255 46 46 255 46 46 255 46 46 255 47 47 255 47 47 255 47 47 255 48 48 255 48 48 255 48 48 255 49 49 255 49 49 255 49 49 255 50 50 255 50 50 255 50 50 255 51 51 255 51 51 255 51 51 255 52 52 255 52 52 255 52 52 255 53 53 255 53 53 255 53 53 255 54 54 255 54 54 255 54 54 255 55 55 255 55 55 255 55 55 255 56 56 255 56 56 255 56 56 255 56 56 255 57 57 255 57 57 255 57 57 255 58 58 255 58 58 255 58 58 255 59 59 255 59 59 255 59 59 255 59 59 255 60 60 255 60 60 255 60 60 255 61 61 255 61 61 255 61 61 255 61 61 255 62 62 255 62 62 255 62 62 255 62 62 255 63 63 255 63 63 255 63 63 255 63 63 255 64 64 255 64 64 255 64 64 255 64 64 255 65 65 255 65 65 255 65 65 255 65 65 255 66 66 255 66 66 255 66 66 255 66 66 255 66 66 255 67 67 255 67 67 255 67 67 255 67 67 255 67 67 255 68 68 255 68 68 255 68 68 255 68 68 255 68 68 255 69 69 255 69 69 255 69 69 255 69 69 255 69 69 255 69 69 255 70 70 255 70 70 255 70 70 255 70 70 255 70 70 255 70 70 255 71 71 255 71 71 255 71 71 255 71 71 255 71 71 255 71 71 255 71 71 255 71 71 255 72 72 255 72 72 255 72 72 255 72 72 255 72 72 255 72 72 255 72 72 255 72 72 255 72 72 255 73 73 255 73 73 255 73 73 255 73 73 255 73 73 255 73 73 255 73 73 255 73 73 255 73 73 255 73 73 255 73 73 255 73 73 255 73 73 255 73 73 255 73 73 255 74 74 255 74 74 255 74 74 255 74 74 255 74 74 255 74 74 255 74 74 255 74 74 255 74 74 255 74 74 255 74 74 255 74 74 255 74 74 255 74 74 255 74 74 255 74 74 255 74 74 255 74 74 255 74 74 255 74 74 255 74 74 255 74 74 255 74 74 255 74 74 255 74 74 255 73 73 255 73 73 255 73 73 255 73 73 255 73 73 255 73 73 255 
5 5 254 5 5 254 5 5 254 6 6 254 6 6 254 6 6 254 6 6 254 6 6 254 6 6 254 7 7 254 7 7 254 7 7 254 7 7 254 7 7 254 8 8 254 8 8 254 8 8 254 8 8 254 8 8 254 8 8 254 9 9 254 9 9 254 9 9 254 9 9 254 9 9 254 10 10 254 10 10 254 10 10 254 10 10 254 10 10 254 11 11 254 11 11 254 11 11 254 11 11 254 12 12 254 12 12 254 12 12 254 12 12 255 12 12 255 13 13 255 13 13 255 13 13 255 13 13 255 14 14 255 14 14 255 14 14 255 14 14 255 15 15 255 15 15 255 15 15 255 15 15 255 16 16 255 16 16 255 16 16 255 16 16 255 17 17 255 17 17 255 17 17 255 18 18 255 18 18 255 18 18 255 18 18 255 19 19 255 19 19 255 19 19 255 20 20 255 20 20 255 20 20 255 20 20 255 21 21 255 21 21 255 21 21 255 22 22 255 22 22 255 22 22 255 22 22 255 23 23 255 23 23 255 23 23 255 24 24 255 24 24 255 24 24 255 25 25 255 25 25 255 25 25 255 26 26 255 26 26 255 26 26 255 27 27 255 27 27 255 27 27 255 28 28 255 28 28 255 28 28 255 29 29 255 29 29 255 29 29 255 30 30 255 30 30 255 30 30 255 31 31 255 31 31 255 31 31 255 32 32 255 32 32 255 32 32 255 33 33 255 33 33 255 33 33 255 34 34 255 34 34 255 34 34 255 35 35 255 35 35 255 35 35 255 36 36 255 36 36 255 36 36 255 37 37 255 37 37 255 38 38 255 38 38 255 38 38 255 39 39 255 39 39 255 39 39 255 40 40 255 40 40 255 40 40 255 41 41 255 41 41 255 41 41 255 42 42 255 42 42 255 42 42 255 43 43 255 43 43 255 43 43 255 44 44 255 44 44 255 45 45 255 45 45 255 45 45 255 46 46 255 46 46 255 46 46 255 47 47 255 47 47 255 47 47 255 48 48 255 48 48 255 48 48 255 49 49 255 49 49 255 49 49 255 50 50 255 50 50 255 50 50 255 51 51 255 51 51 255 51 51 255 52 52 255 52 52 255 52 52 255 53 53 255 53 53 255 53 53 255 54 54 255 54 54 255 54 54 255 55 55 255 55 55 255 55 55 255 55 55 255 56 56 255 56 56 255 56 56 255 57 57 255 57 57 255 57 57 255 58 58 255 58 58 255 58 58 255 58 58 255 59 59 255 59 59 255 59 59 255 60 60 255 60 60 255 60 60 255 60 60 255 61 61 255 61 61 255 61 61 255 62 62 255 62 62 255 62 62 255 62 62 255 63 63 255 63 63 255 63 63 255 63 63 255 64 64 255 64 64 255 64 64 255 64 64 255 65 65 255 65 65 255 65 65 255 65 65 255 66 66 255 66 66 255 66 66 255 66 66 255 66 66 255 67 67 255 67 67 255 67 67 255 67 67 255 67 67 255 68 68 255 68 68 255 68 68 255 68 68 255 68 68 255 69 69 255 69 69 255 69 69 255 69 69 255 69 69 255 69 69 255 70 70 255 70 70 255 70 70 255 70 70 255 70 70 255 70 70 255 71 71 255 71 71 255 71 71 255 71 71 255 71 71 255 71 71 255 71 71 255 72 72 255 72 72 255 72 72 255 72 72 255 72 72 255 72 72 255 72 72 255 72 72 255 72 72 255 72 72 255 73 73 255 73 73 255 73 73 255 73 73 255 73 73 255 73 73 255 73 73 255 73 73 255 73 73 255 73 73 255 73 73 255 73 73 255 73 73 255 73 73 255 74 74 255 74 74 255 74 74 255 74 74 255 74 74 255 74 74 255 74 74 255 74 74 255 74 74 255 74 74 255 74 74 255 74 74 255 74 74 255 74 74 255 74 74 255 74 74 255 74 74 255 74 74 255 74 74 255 74 74 255 74 74 255 74 74 255 74 74 255 74 74 255 74 74 255 74 74 255 73 73 255 73 73 255 73 73 255 73 73 255 73 73 255 73 73 255 
5 5 253 5 5 253 5 5 253 5 5 253 6 6 253 6 6 253 6 6 253 6 6 253 6 6 253 6 6 253 6 6 253 7 7 253 7 7 253 7 7 253 7 7 253 7 7 253 8 8 253 8 8 253 8 8 253 8 8 253 8 8 253 9 9 253 9 9 253 9 9 253 9 9 253 9 9 253 10 10 253 10 10 253 10 10 254 10 10 254 10 10 254 11 11 254 11 11 254 11 11 254 11 11 254 11 11 254 12 12 254 12 12 254 12 12 254 12 12 254 13 13 254 13 13 254 13 13 254 13 13 254 14 14 254 14 14 254 14 14 255 14 14 255 15 15 255 15 15 255 15 15 255 15 15 255 16 16 255 16 16 255 16 16 255 16 16 255 17 17 255 17 17 255 17 17 255 18 18 255 18 18 255 18 18 255 18 18 255 19 19 255 19 19 255 19 19 255 20 20 255 20 20 255 20 20 255 20 20 255 21 21 255 21 21 255 21 21 255 22 22 255 22 22 255 22 22 255 23 23 255 23 23 255 23 23 255 23 23 255 24 24 255 24 24 255 24 24 255 25 25 255 25 25 255 25 25 255 26 26 255 26 26 255 26 26 255 27 27 255 27 27 255 27 27 255 28 28 255 28 28 255 28 28 255 29 29 255 29 29 255 29 29 255 30 30 255 30 30 255 30 30 255 31 31 255 31 31 255 31 31 255 32 32 255 32 32 255 32 32 255 33 33 255 33 33 255 33 33 255 34 34 255 34 34 255 35 35 255 35 35 255 35 35 255 36 36 255 36 36 255 36 36 255 37 37 255 37 37 255 37 37 255 38 38 255 38 38 255 38 38 255 39 39 255 39 39 255 39 39 255 40 40 255 40 40 255 40 40 255 41 41 255 41 41 255 42 42 255 42 42 255 42 42 255 43 43 255 43 43 255 43 43 255 44 44 255 44 44 255 44 44 255 45 45 255 45 45 255 45 45 255 46 46 255 46 46 255 46 46 255 47 47 255 47 47 255 47 47 255 48 48 255 48 48 255 49 49 255 49 49 255 49 49 255 50 50 255 50 50 255 50 50 255 51 51 255 51 51 255 51 51 255 52 52 255 52 52 255 52 52 255 53 53 255 53 53 255 53 53 255 53 53 255 54 54 255 54 54 255 54 54 255 55 55 255 55 55 255 55 55 255 56 56 255 56 56 255 56 56 255 57 57 255 57 57 255 57 57 255 58 58 255 58 58 255 58 58 255 58 58 255 59 59 255 59 59 255 59 59 255 60 60 255 60 60 255 60 60 255 60 60 255 61 61 255 61 61 255 61 61 255 62 62 255 62 62 255 62 62 255 62 62 255 63 63 255 63 63 255 63 63 255 63 63 255 64 64 255 64 64 255 64 64 255 64 64 255 65 65 255 65 65 255 65 65 255 65 65 255 66 66 255 66 66 255 66 66 255 66 66 255 66 66 255 67 67 255 67 67 255 67 67 255 67 67 255 67 67 255 68 68 255 68 68 255 68 68 255 68 68 255 68 68 255 69 69 255 69 69 255 69 69 255 69 69 255 69 69 255 69 69 255 70 70 255 70 70 255 70 70 255 70 70 255 70 70 255 70 70 255 71 71 255 71 71 255 71 71 255 71 71 255 71 71 255 71 71 255 71 71 255 72 72 255 72 72 255 72 72 255 72 72 255 72 72 255 72 72 255 72 72 255 72 72 255 72 72 255 73 73 255 73 73 255 73 73 255 73 73 255 73 73 255 73 73 255 73 73 255 73 73 255 73 73 255 73 73 255 73 73 255 73 73 255 73 73 255 73 73 255 73 73 255 74 74 255 74 74 255 74 74 255 74 74 255 74 74 255 74 74 255 74 74 255 74 74 255 74 74 255 74 74 255 74 74 255 74 74 255 74 74 255 74 74 255 74 74 255 74 74 255 74 74 255 74 74 255 74 74 255 74 74 255 74 74 255 74 74 255 74 74 255 74 74 255 74 74 255 74 74 255 73 73 255 73 73 255 73 73 255 73 73 255 73 73 255 73 73 255 
5 5 253 5 5 252 5 5 252 5 5 252 5 5 252 5 5 252 6 6 252 6 6 252 6 6 252 6 6 252 6 6 252 6 6 253 7 7 253 7 7 253 7 7 253 7 7 253 7 7 253 7 7 253 8 8 253 8 8 253 8 8 253 8 8 253 8 8 253 9 9 253 9 9 253 9 9 253 9 9 253 9 9 253 10 10 253 10 10 253 10 10 253 10 10 253 10 10 253 11 11 253 11 11 253 11 11 253 11 11 253 12 12 253 12 12 253 12 12 253 12 12 254 13 13 254 13 13 254 13 13 254 13 13 254 14 14 254 14 14 254 14 14 254 14 14 254 15 15 254 15 15 254 15 15 254 15 15 254 16 16 254 16 16 255 16 16 255 16 16 255 17 17 255 17 17 255 17 17 255 18 18 255 18 18 255 18 18 255 18 18 255 19 19 255 19 19 255 19 19 255 20 20 255 20 20 255 20 20 255 20 20 255 21 21 255 21 21 255 21 21 255 22 22 255 22 22 255 22 22 255 23 23 255 23 23 255 23 23 255 24 24 255 24 24 255 24 24 255 24 24 255 25 25 255 25 25 255 25 25 255 26 26 255 26 26 255 26 26 255 27 27 255 27 27 255 27 27 255 28 28 255 28 28 255 28 28 255 29 29 255 29 29 255 29 29 255 30 30 255 30 30 255 30 30 255 31 31 255 31 31 255 32 32 255 32 32 255 32 32 255 33 33 255 33 33 255 33 33 255 34 34 255 34 34 255 34 34 255 35 35 255 35 35 255 35 35 255 36 36 255 36 36 255 36 36 255 37 37 255 37 37 255 37 37 255 38 38 255 38 38 255 39 39 255 39 39 255 39 39 255 40 40 255 40 40 255 40 40 255 41 41 255 41 41 255 41 41 255 42 42 255 42 42 255 42 42 255 43 43 255 43 43 255 43 43 255 44 44 255 44 44 255 45 45 255 45 45 255 45 45 255 46 46 255 46 46 255 46 46 255 47 47 255 47 47 255 47 47 255 48 48 255 48 48 255 48 48 255 49 49 255 49 49 255 49 49 255 50 50 255 50 50 255 50 50 255 51 51 255 51 51 255 51 51 255 52 52 255 52 52 255 52 52 255 53 53 255 53 53 255 53 53 255 54 54 255 54 54 255 54 54 255 55 55 255 55 55 255 55 55 255 56 56 255 56 56 255 56 56 255 57 57 255 57 57 255 57 57 255 57 57 255 58 58 255 58 58 255 58 58 255 59 59 255 59 59 255 59 59 255 60 60 255 60 60 255 60 60 255 60 60 255 61 61 255 61 61 255 61 61 255 61 61 255 62 62 255 62 62 255 62 62 255 63 63 255 63 63 255 63 63 255 63 63 255 64 64 255 64 64 255 64 64 255 64 64 255 65 65 255 65 65 255 65 65 255 65 65 255 65 65 255 66 66 255 66 66 255 66 66 255 66 66 255 67 67 255 67 67 255 67 67 255 67 67 255 67 67 255 68 68 255 68 68 255 68 68 255 68 68 255 68 68 255 69 69 255 69 69 255 69 69 255 69 69 255 69 69 255 70 70 255 70 70 255 70 70 255 70 70 255 70 70 255 70 70 255 70 70 255 71 71 255 71 71 255 71 71 255 71 71 255 71 71 255 71 71 255 71 71 255 72 72 255 72 72 255 72 72 255 72 72 255 72 72 255 72 72 255 72 72 255 72 72 255 72 72 255 73 73 255 73 73 255 73 73 255 73 73 255 73 73 255 73 73 255 73 73 255 73 73 255 73 73 255 73 73 255 73 73 255 73 73 255 73 73 255 73 73 255 73 73 255 74 74 255 74 74 255 74 74 255 74 74 255 74 74 255 74 74 255 74 74 255 74 74 255 74 74 255 74 74 255 74 74 255 74 74 255 74 74 255 74 74 255 74 74 255 74 74 255 74 74 255 74 74 255 74 74 255 74 74 255 74 74 255 74 74 255 74 74 255 74 74 255 74 74 255 73 73 255 73 73 255 73 73 255 73 73 255 73 73 255 73 73 255 73 73 255 
4 4 252 5 5 252 5 5 252 5 5 252 5 5 252 5 5 252 5 5 252 5 5 252 6 6 252 6 6 252 6 6 252 6 6 252 6 6 252 6 6 252 7 7 252 7 7 252 7 7 252 7 7 252 7 7 252 8 8 252 8 8 252 8 8 252 8 8 252 8 8 252 9 9 252 9 9 252 9 9 252 9 9 252 9 9 252 10 10 252 10 10 252 10 10 252 10 10 252 10 10 253 11 11 253 11 11 253 11 11 253 11 11 253 12 12 253 12 12 253 12 12 253 12 12 253 13 13 253 13 13 253 13 13 253 13 13 253 14 14 253 14 14 253 14 14 253 14 14 254 15 15 254 15 15 254 15 15 254 15 15 254 16 16 254 16 16 254 16 16 254 16 16 254 17 17 254 17 17 254 17 17 255 18 18 255 18 18 255 18 18 255 18 18 255 19 19 255 19 19 255 19 19 255 20 20 255 20 20 255 20 20 255 20 20 255 21 21 255 21 21 255 21 21 255 22 22 255 22 22 255 22 22 255 23 23 255 23 23 255 23 23 255 24 24 255 24 24 255 24 24 255 25 25 255 25 25 255 25 25 255 26 26 255 26 26 255 26 26 255 26 26 255 27 27 255 27 27 255 27 27 255 28 28 255 28 28 255 29 29 255 29 29 255 29 29 255 30 30 255 30 30 255 30 30 255 31 31 255 31 31 255 31 31 255 32 32 255 32 32 255 32 32 255 33 33 255 33 33 255 33 33 255 34 34 255 34 34 255 34 34 255 35 35 255 35 35 255 35 35 255 36 36 255 36 36 255 37 37 255 37 37 255 37 37 255 38 38 255 38 38 255 38 38 255 39 39 255 39 39 255 39 39 255 40 40 255 40 40 255 40 40 255 41 41 255 41 41 255 42 42 255 42 42 255 42 42 255 43 43 255 43 43 255 43 43 255 44 44 255 44 44 255 44 44 255 45 45 255 45 45 255 45 45 255 46 46 255 46 46 255 46 46 255 47 47 255 47 47 255 47 47 255 48 48 255 48 48 255 49 49 255 49 49 255 49 49 255 50 50 255 50 50 255 50 50 255 51 51 255 51 51 255 51 51 255 52 52 255 52 52 255 52 52 255 53 53 255 53 53 255 53 53 255 54 54 255 54 54 255 54 54 255 55 55 255 55 55 255 55 55 255 55 55 255 56 56 255 56 56 255 56 56 255 57 57 255 57 57 255 57 57 255 58 58 255 58 58 255 58 58 255 59 59 255 59 59 255 59 59 255 59 59 255 60 60 255 60 60 255 60 60 255 61 61 255 61 61 255 61 61 255 61 61 255 62 62 255 62 62 255 62 62 255 62 62 255 63 63 255 63 63 255 63 63 255 64 64 255 64 64 255 64 64 255 64 64 255 65 65 255 65 65 255 65 65 255 65 65 255 65 65 255 66 66 255 66 66 255 66 66 255 66 66 255 67 67 255 67 67 255 67 67 255 67 67 255 67 67 255 68 68 255 68 68 255 68 68 255 68 68 255 68 68 255 69 69 255 69 69 255 69 69 255 69 69 255 69 69 255 69 69 255 70 70 255 70 70 255 70 70 255 70 70 255 70 70 255 70 70 255 71 71 255 71 71 255 71 71 255 71 71 255 71 71 255 71 71 255 71 71 255 72 72 255 72 72 255 72 72 255 72 72 255 72 72 255 72 72 255 72 72 255 72 72 255 72 72 255 73 73 255 73 73 255 73 73 255 73 73 255 73 73 255 73 73 255 73 73 255 73 73 255 73 73 255 73 73 255 73 73 255 73 73 255 73 73 255 73 73 255 73 73 255 74 74 255 74 74 255 74 74 255 74 74 255 74 74 255 74 74 255 74 74 255 74 74 255 74 74 255 74 74 255 74 74 255 74 74 255 74 74 255 74 74 255 74 74 255 74 74 255 74 74 255 74 74 255 74 74 255 74 74 255 74 74 255 74 74 255 74 74 255 74 74 255 74 74 255 73 73 255 73 73 255 73 73 255 73 73 255 73 73 255 73 73 255 73 73 255 
4 4 251 4 4 251 4 4 251 5 5 251 5 5 251 5 5 251 5 5 251 5 5 251 5 5 251 6 6 251 6 6 251 6 6 251 6 6 251 6 6 251 6 6 251 7 7 251 7 7 251 7 7 251 7 7 251 7 7 251 7 7 251 8 8 251 8 8 252 8 8 252 8 8 252 8 8 252 9 9 252 9 9 252 9 9 252 9 9 252 9 9 252 10 10 252 10 10 252 10 10 252 10 10 252 11 11 252 11 11 252 11 11 252 11 11 252 12 12 252 12 12 252 12 12 252 12 12 252 12 12 253 13 13 253 13 13 253 13 13 253 13 13 253 14 14 253 14 14 253 14 14 253 15 15 253 15 15 253 15 15 253 15 15 253 16 16 253 16 16 254 16 16 254 16 16 254 17 17 254 17 17 254 17 17 254 18 18 254 18 18 254 18 18 254 18 18 254 19 19 255 19 19 255 19 19 255 20 20 255 20 20 255 20 20 255 20 20 255 21 21 255 21 21 255 21 21 255 22 22 255 22 22 255 22 22 255 23 23 255 23 23 255 23 23 255 24 24 255 24 24 255 24 24 255 25 25 255 25 25 255 25 25 255 26 26 255 26 26 255 26 26 255 27 27 255 27 27 255 27 27 255 28 28 255 28 28 255 28 28 255 29 29 255 29 29 255 29 29 255 30 30 255 30 30 255 30 30 255 31 31 255 31 31 255 31 31 255 32 32 255 32 32 255 32 32 255 33 33 255 33 33 255 33 33 255 34 34 255 34 34 255 34 34 255 35 35 255 35 35 255 36 36 255 36 36 255 36 36 255 37 37 255 37 37 255 37 37 255 38 38 255 38 38 255 38 38 255 39 39 255 39 39 255 39 39 255 40 40 255 40 40 255 41 41 255 41 41 255 41 41 255 42 42 255 42 42 255 42 42 255 43 43 255 43 43 255 43 43 255 44 44 255 44 44 255 44 44 255 45 45 255 45 45 255 46 46 255 46 46 255 46 46 255 47 47 255 47 47 255 47 47 255 48 48 255 48 48 255 48 48 255 49 49 255 49 49 255 49 49 255 50 50 255 50 50 255 50 50 255 51 51 255 51 51 255 51 51 255 52 52 255 52 52 255 52 52 255 53 53 255 53 53 255 53 53 255 54 54 255 54 54 255 54 54 255 55 55 255 55 55 255 55 55 255 56 56 255 56 56 255 56 56 255 57 57 255 57 57 255 57 57 255 58 58 255 58 58 255 58 58 255 58 58 255 59 59 255 59 59 255 59 59 255 60 60 255 60 60 255 60 60 255 60 60 255 61 61 255 61 61 255 61 61 255 62 62 255 62 62 255 62 62 255 62 62 255 63 63 255 63 63 255 63 63 255 63 63 255 64 64 255 64 64 255 64 64 255 64 64 255 65 65 255 65 65 255 65 65 255 65 65 255 66 66 255 66 66 255 66 66 255 66 66 255 67 67 255 67 67 255 67 67 255 67 67 255 67 67 255 68 68 255 68 68 255 68 68 255 68 68 255 68 68 255 69 69 255 69 69 255 69 69 255 69 69 255 69 69 255 69 69 255 70 70 255 70 70 255 70 70 255 70 70 255 70 70 255 70 70 255 71 71 255 71 71 255 71 71 255 71 71 255 71 71 255 71 71 255 71 71 255 72 72 255 72 72 255 72 72 255 72 72 255 72 72 255 72 72 255 72 72 255 72 72 255 72 72 255 73 73 255 73 73 255 73 73 255 73 73 255 73 73 255 73 73 255 73 73 255 73 73 255 73 73 255 73 73 255 73 73 255 73 73 255 73 73 255 73 73 255 73 73 255 74 74 255 74 74 255 74 74 255 74 74 255 74 74 255 74 74 255 74 74 255 74 74 255 74 74 255 74 74 255 74 74 255 74 74 255 74 74 255 74 74 255 74 74 255 74 74 255 74 74 255 74 74 255 74 74 255 74 74 255 74 74 255 74 74 255 74 74 255 74 74 255 73 73 255 73 73 255 73 73 255 73 73 255 73 73 255 73 73 255 73 73 255 73 73 255 
4 4 251 4 4 251 4 4 251 4 4 251 4 4 251 5 5 251 5 5 251 5 5 251 5 5 251 5 5 251 5 5 251 6 6 251 6 6 251 6 6 251 6 6 251 6 6 251 6 6 251 7 7 251 7 7 251 7 7 251 7 7 251 7 7 251 8 8 251 8 8 251 8 8 251 8 8 251 8 8 251 9 9 251 9 9 251 9 9 251 9 9 251 9 9 251 10 10 251 10 10 251 10 10 251 10 10 251 11 11 251 11 11 252 11 11 252 11 11 252 11 11 252 12 12 252 12 12 252 12 12 252 12 12 252 13 13 252 13 13 252 13 13 252 13 13 252 14 14 252 14 14 252 14 14 252 14 14 253 15 15 253 15 15 253 15 15 253 16 16 253 16 16 253 16 16 253 16 16 253 17 17 253 17 17 253 17 17 253 18 18 254 18 18 254 18 18 254 18 18 254 19 19 254 19 19 254 19 19 254 20 20 254 20 20 254 20 20 255 20 20 255 21 21 255 21 21 255 21 21 255 22 22 255 22 22 255 22 22 255 23 23 255 23 23 255 23 23 255 24 24 255 24 24 255 24 24 255 25 25 255 25 25 255 25 25 255 26 26 255 26 26 255 26 26 255 27 27 255 27 27 255 27 27 255 28 28 255 28 28 255 28 28 255 29 29 255 29 29 255 29 29 255 30 30 255 30 30 255 30 30 255 31 31 255 31 31 255 31 31 255 32 32 255 32 32 255 32 32 255 33 33 255 33 33 255 34 34 255 34 34 255 34 34 255 35 35 255 35 35 255 35 35 255 36 36 255 36 36 255 36 36 255 37 37 255 37 37 255 37 37 255 38 38 255 38 38 255 39 39 255 39 39 255 39 39 255 40 40 255 40 40 255 40 40 255 41 41 255 41 41 255 41 41 255 42 42 255 42 42 255 42 42 255 43 43 255 43 43 255 44 44 255 44 44 255 44 44 255 45 45 255 45 45 255 45 45 255 46 46 255 46 46 255 46 46 255 47 47 255 47 47 255 47 47 255 48 48 255 48 48 255 49 49 255 49 49 255 49 49 255 50 50 255 50 50 255 50 50 255 51 51 255 51 51 255 51 51 255 52 52 255 52 52 255 52 52 255 53 53 255 53 53 255 53 53 255 54 54 255 54 54 255 54 54 255 55 55 255 55 55 255 55 55 255 56 56 255 56 56 255 56 56 255 57 57 255 57 57 255 57 57 255 57 57 255 58 58 255 58 58 255 58 58 255 59 59 255 59 59 255 59 59 255 60 60 255 60 60 255 60 60 255 60 60 255 61 61 255 61 61 255 61 61 255 62 62 255 62 62 255 62 62 255 62 62 255 63 63 255 63 63 255 63 63 255 63 63 255 64 64 255 64 64 255 64 64 255 64 64 255 65 65 255 65 65 255 65 65 255 65 65 255 66 66 255 66 66 255 66 66 255 66 66 255 66 66 255 67 67 255 67 67 255 67 67 255 67 67 255 68 68 255 68 68 255 68 68 255 68 68 255 68 68 255 69 69 255 69 69 255 69 69 255 69 69 255 69 69 255 69 69 255 70 70 255 70 70 255 70 70 255 70 70 255 70 70 255 70 70 255 71 71 255 71 71 255 71 71 255 71 71 255 71 71 255 71 71 255 71 71 255 72 72 255 72 72 255 72 72 255 72 72 255 72 72 255 72 72 255 72 72 255 72 72 255 72 72 255 73 73 255 73 73 255 73 73 255 73 73 255 73 73 255 73 73 255 73 73 255 73 73 255 73 73 255 73 73 255 73 73 255 73 73 255 73 73 255 73 73 255 73 73 255 73 73 255 74 74 255 74 74 255 74 74 255 74 74 255 74 74 255 74 74 255 74 74 255 74 74 255 74 74 255 74 74 255 74 74 255 74 74 255 74 74 255 74 74 255 74 74 255 74 74 255 74 74 255 74 74 255 74 74 255 74 74 255 74 74 255 73 73 255 73 73 255 73 73 255 73 73 255 73 73 255 73 73 255 73 73 255 73 73 255 73 73 255 73 73 255 
4 4 250 4 4 250 4 4 250 4 4 250 4 4 250 4 4 250 5 5 250 5 5 250 5 5 250 5 5 250 5 5 250 5 5 250 6 6 250 6 6 250 6 6 250 6 6 250 6 6 250 6 6 250 7 7 250 7 7 250 7 7 250 7 7 250 7 7 250 8 8 250 8 8 250 8 8 250 8 8 250 8 8 250 9 9 250 9 9 251 9 9 251 9 9 251 9 9 251 10 10 251 10 10 251 10 10 251 10 10 251 11 11 251 11 11 251 11 11 251 11 11 251 11 11 251 12 12 251 12 12 251 12 12 251 12 12 251 13 13 251 13 13 252 13 13 252 13 13 252 14 14 252 14 14 252 14 14 252 14 14 252 15 15 252 15 15 252 15 15 252 16 16 252 16 16 252 16 16 253 16 16 253 17 17 253 17 17 253 17 17 253 18 18 253 18 18 253 18 18 253 18 18 253 19 19 253 19 19 254 19 19 254 20 20 254 20 20 254 20 20 254 20 20 254 21 21 254 21 21 254 21 21 254 22 22 255 22 22 255 22 22 255 23 23 255 23 23 255 23 23 255 24 24 255 24 24 255 24 24 255 25 25 255 25 25 255 25 25 255 26 26 255 26 26 255 26 26 255 27 27 255 27 27 255 27 27 255 28 28 255 28 28 255 28 28 255 29 29 255 29 29 255 29 29 255 30 30 255 30 30 255 30 30 255 31 31 255 31 31 255 31 31 255 32 32 255 32 32 255 33 33 255 33 33 255 33 33 255 34 34 255 34 34 255 34 34 255 35 35 255 35 35 255 35 35 255 36 36 255 36 36 255 36 36 255 37 37 255 37 37 255 38 38 255 38 38 255 38 38 255 39 39 255 39 39 255 39 39 255 40 40 255 40 40 255 40 40 255 41 41 255 41 41 255 42 42 255 42 42 255 42 42 255 43 43 255 43 43 255 43 43 255 44 44 255 44 44 255 44 44 255 45 45 255 45 45 255 45 45 255 46 46 255 46 46 255 47 47 255 47 47 255 47 47 255 48 48 255 48 48 255 48 48 255 49 49 255 49 49 255 49 49 255 50 50 255 50 50 255 50 50 255 51 51 255 51 51 255 51 51 255 52 52 255 52 52 255 52 52 255 53 53 255 53 53 255 53 53 255 54 54 255 54 54 255 54 54 255 55 55 255 55 55 255 55 55 255 56 56 255 56 56 255 56 56 255 57 57 255 57 57 255 57 57 255 58 58 255 58 58 255 58 58 255 59 59 255 59 59 255 59 59 255 59 59 255 60 60 255 60 60 255 60 60 255 61 61 255 61 61 255 61 61 255 61 61 255 62 62 255 62 62 255 62 62 255 63 63 255 63 63 255 63 63 255 63 63 255 64 64 255 64 64 255 64 64 255 64 64 255 65 65 255 65 65 255 65 65 255 65 65 255 66 66 255 66 66 255 66 66 255 66 66 255 66 66 255 67 67 255 67 67 255 67 67 255 67 67 255 68 68 255 68 68 255 68 68 255 68 68 255 68 68 255 68 68 255 69 69 255 69 69 255 69 69 255 69 69 255 69 69 255 70 70 255 70 70 255 70 70 255 70 70 255 70 70 255 70 70 255 71 71 255 71 71 255 71 71 255 71 71 255 71 71 255 71 71 255 71 71 255 71 71 255 72 72 255 72 72 255 72 72 255 72 72 255 72 72 255 72 72 255 72 72 255 72 72 255 72 72 255 73 73 255 73 73 255 73 73 255 73 73 255 73 73 255 73 73 255 73 73 255 73 73 255 73 73 255 73 73 255 73 73 255 73 73 255 73 73 255 73 73 255 73 73 255 73 73 255 74 74 255 74 74 255 74 74 255 74 74 255 74 74 255 74 74 255 74 74 255 74 74 255 74 74 255 74 74 255 74 74 255 74 74 255 74 74 255 74 74 255 74 74 255 74 74 255 74 74 255 74 74 255 73 73 255 73 73 255 73 73 255 73 73 255 73 73 255 73 73 255 73 73 255 73 73 255 73 73 255 73 73 255 73 73 255 73 73 255 
3 3 250 4 4 250 4 4 250 4 4 250 4 4 250 4 4 250 4 4 250 5 5 250 5 5 250 5 5 250 5 5 250 5 5 250 5 5 250 5 5 250 6 6 250 6 6 250 6 6 250 6 6 250 6 6 250 7 7 250 7 7 250 7 7 250 7 7 250 7 7 250 7 7 250 8 8 250 8 8 250 8 8 250 8 8 250 8 8 250 9 9 250 9 9 250 9 9 250 9 9 250 10 10 250 10 10 250 10 10 250 10 10 250 10 10 250 11 11 250 11 11 250 11 11 250 11 11 251 12 12 251 12 12 251 12 12 251 12 12 251 13 13 251 13 13 251 13 13 251 13 13 251 14 14 251 14 14 251 14 14 251 14 14 251 15 15 251 15 15 252 15 15 252 16 16 252 16 16 252 16 16 252 16 16 252 17 17 252 17 17 252 17 17 252 17 17 252 18 18 253 18 18 253 18 18 253 19 19 253 19 19 253 19 19 253 20 20 253 20 20 253 20 20 253 20 20 254 21 21 254 21 21 254 21 21 254 22 22 254 22 22 254 22 22 254 23 23 254 23 23 255 23 23 255 24 24 255 24 24 255 24 24 255 25 25 255 25 25 255 25 25 255 26 26 255 26 26 255 26 26 255 27 27 255 27 27 255 27 27 255 28 28 255 28 28 255 28 28 255 29 29 255 29 29 255 29 29 255 30 30 255 30 30 255 30 30 255 31 31 255 31 31 255 32 32 255 32 32 255 32 32 255 33 33 255 33 33 255 33 33 255 34 34 255 34 34 255 34 34 255 35 35 255 35 35 255 35 35 255 36 36 255 36 36 255 37 37 255 37 37 255 37 37 255 38 38 255 38 38 255 38 38 255 39 39 255 39 39 255 39 39 255 40 40 255 40 40 255 41 41 255 41 41 255 41 41 255 42 42 255 42 42 255 42 42 255 43 43 255 43 43 255 43 43 255 44 44 255 44 44 255 45 45 255 45 45 255 45 45 255 46 46 255 46 46 255 46 46 255 47 47 255 47 47 255 47 47 255 48 48 255 48 48 255 48 48 255 49 49 255 49 49 255 50 50 255 50 50 255 50 50 255 51 51 255 51 51 255 51 51 255 52 52 255 52 52 255 52 52 255 53 53 255 53 53 255 53 53 255 54 54 255 54 54 255 54 54 255 55 55 255 55 55 255 55 55 255 56 56 255 56 56 255 56 56 255 57 57 255 57 57 255 57 57 255 57 57 255 58 58 255 58 58 255 58 58 255 59 59 255 59 59 255 59 59 255 60 60 255 60 60 255 60 60 255 60 60 255 61 61 255 61 61 255 61 61 255 62 62 255 62 62 255 62 62 255 62 62 255 63 63 255 63 63 255 63 63 255 63 63 255 64 64 255 64 64 255 64 64 255 64 64 255 65 65 255 65 65 255 65 65 255 65 65 255 66 66 255 66 66 255 66 66 255 66 66 255 67 67 255 67 67 255 67 67 255 67 67 255 67 67 255 68 68 255 68 68 255 68 68 255 68 68 255 68 68 255 69 69 255 69 69 255 69 69 255 69 69 255 69 69 255 70 70 255 70 70 255 70 70 255 70 70 255 70 70 255 70 70 255 70 70 255 71 71 255 71 71 255 71 71 255 71 71 255 71 71 255 71 71 255 71 71 255 72 72 255 72 72 255 72 72 255 72 72 255 72 72 255 72 72 255 72 72 255 72 72 255 72 72 255 73 73 255 73 73 255 73 73 255 73 73 255 73 73 255 73 73 255 73 73 255 73 73 255 73 73 255 73 73 255 73 73 255 73 73 255 73 73 255 73 73 255 73 73 255 73 73 255 73 73 255 74 74 255 74 74 255 74 74 255 74 74 255 74 74 255 74 74 255 74 74 255 74 74 255 74 74 255 74 74 255 74 74 255 74 74 255 74 74 255 74 74 255 74 74 255 73 73 255 73 73 255 73 73 255 73 73 255 73 73 255 73 73 255 73 73 255 73 73 255 73 73 255 73 73 255 73 73 255 73 73 255 73 73 255 73 73 255 
3 3 249 3 3 249 4 4 249 4 4 249 4 4 249 4 4 249 4 4 249 4 4 249 4 4 249 5 5 249 5 5 249 5 5 249 5 5 249 5 5 249 5 5 249 6 6 249 6 6 249 6 6 249 6 6 249 6 6 249 6 6 249 7 7 249 7 7 249 7 7 249 7 7 249 7 7 249 8 8 249 8 8 249 8 8 249 8 8 249 8 8 249 9 9 249 9 9 249 9 9 249 9 9 249 9 9 249 10 10 249 10 10 250 10 10 250 10 10 250 11 11 250 11 11 250 11 11 250 11 11 250 12 12 250 12 12 250 12 12 250 12 12 250 13 13 250 13 13 250 13 13 250 13 13 250 14 14 251 14 14 251 14 14 251 14 14 251 15 15 251 15 15 251 15 15 251 15 15 251 16 16 251 16 16 251 16 16 251 17 17 251 17 17 252 17 17 252 17 17 252 18 18 252 18 18 252 18 18 252 19 19 252 19 19 252 19 19 252 20 20 253 20 20 253 20 20 253 20 20 253 21 21 253 21 21 253 21 21 253 22 22 253 22 22 254 22 22 254 23 23 254 23 23 254 23 23 254 24 24 254 24 24 254 24 24 254 25 25 255 25 25 255 25 25 255 26 26 255 26 26 255 26 26 255 27 27 255 27 27 255 27 27 255 28 28 255 28 28 255 28 28 255 29 29 255 29 29 255 29 29 255 30 30 255 30 30 255 31 31 255 31 31 255 31 31 255 32 32 255 32 32 255 32 32 255 33 33 255 33 33 255 33 33 255 34 34 255 34 34 255 34 34 255 35 35 255 35 35 255 36 36 255 36 36 255 36 36 255 37 37 255 37 37 255 37 37 255 38 38 255 38 38 255 38 38 255 39 39 255 39 39 255 40 40 255 40 40 255 40 40 255 41 41 255 41 41 255 41 41 255 42 42 255 42 42 255 42 42 255 43 43 255 43 43 255 44 44 255 44 44 255 44 44 255 45 45 255 45 45 255 45 45 255 46 46 255 46 46 255 46 46 255 47 47 255 47 47 255 48 48 255 48 48 255 48 48 255 49 49 255 49 49 255 49 49 255 50 50 255 50 50 255 50 50 255 51 51 255 51 51 255 51 51 255 52 52 255 52 52 255 52 52 255 53 53 255 53 53 255 53 53 255 54 54 255 54 54 255 54 54 255 55 55 255 55 55 255 55 55 255 56 56 255 56 56 255 56 56 255 57 57 255 57 57 255 57 57 255 58 58 255 58 58 255 58 58 255 59 59 255 59 59 255 59 59 255 59 59 255 60 60 255 60 60 255 60 60 255 61 61 255 61 61 255 61 61 255 61 61 255 62 62 255 62 62 255 62 62 255 63 63 255 63 63 255 63 63 255 63 63 255 64 64 255 64 64 255 64 64 255 64 64 255 65 65 255 65 65 255 65 65 255 65 65 255 66 66 255 66 66 255 66 66 255 66 66 255 66 66 255 67 67 255 67 67 255 67 67 255 67 67 255 68 68 255 68 68 255 68 68 255 68 68 255 68 68 255 69 69 255 69 69 255 69 69 255 69 69 255 69 69 255 69 69 255 70 70 255 70 70 255 70 70 255 70 70 255 70 70 255 70 70 255 71 71 255 71 71 255 71 71 255 71 71 255 71 71 255 71 71 255 71 71 255 72 72 255 72 72 255 72 72 255 72 72 255 72 72 255 72 72 255 72 72 255 72 72 255 72 72 255 72 72 255 73 73 255 73 73 255 73 73 255 73 73 255 73 73 255 73 73 255 73 73 255 73 73 255 73 73 255 73 73 255 73 73 255 73 73 255 73 73 255 73 73 255 73 73 255 73 73 255 73 73 255 73 73 255 73 73 255 73 73 255 74 74 255 74 74 255 74 74 255 74 74 255 74 74 255 74 74 255 74 74 255 73 73 255 73 73 255 73 73 255 73 73 255 73 73 255 73 73 255 73 73 255 73 73 255 73 73 255 73 73 255 73 73 255 73 73 255 73 73 255 73 73 255 73 73 255 73 73 255 73 73 255 73 73 255 
3 3 248 3 3 248 3 3 248 3 3 248 4 4 248 4 4 248 4 4 248 4 4 248 4 4 248 4 4 248 5 5 248 5 5 248 5 5 248 5 5 248 5 5 248 5 5 248 5 5 248 6 6 248 6 6 248 6 6 248 6 6 248 6 6 248 7 7 248 7 7 248 7 7 248 7 7 248 7 7 248 8 8 248 8 8 248 8 8 249 8 8 249 8 8 249 9 9 249 9 9 249 9 9 249 9 9 249 9 9 249 10 10 249 10 10 249 10 10 249 10 10 249 11 11 249 11 11 249 11 11 249 11 11 249 12 12 249 12 12 249 12 12 249 12 12 249 12 12 250 13 13 250 13 13 250 13 13 250 14 14 250 14 14 250 14 14 250 14 14 250 15 15 250 15 15 250 15 15 250 15 15 250 16 16 251 16 16 251 16 16 251 17 17 251 17 17 251 17 17 251 17 17 251 18 18 251 18 18 251 18 18 251 19 19 252 19 19 252 19 19 252 20 20 252 20 20 252 20 20 252 20 20 252 21 21 252 21 21 253 21 21 253 22 22 253 22 22 253 22 22 253 23 23 253 23 23 253 23 23 253 24 24 254 24 24 254 24 24 254 25 25 254 25 25 254 25 25 254 26 26 254 26 26 255 26 26 255 27 27 255 27 27 255 27 27 255 28 28 255 28 28 255 28 28 255 29 29 255 29 29 255 29 29 255 30 30 255 30 30 255 31 31 255 31 31 255 31 31 255 32 32 255 32 32 255 32 32 255 33 33 255 33 33 255 33 33 255 34 34 255 34 34 255 34 34 255 35 35 255 35 35 255 36 36 255 36 36 255 36 36 255 37 37 255 37 37 255 37 37 255 38 38 255 38 38 255 39 39 255 39 39 255 39 39 255 40 40 255 40 40 255 40 40 255 41 41 255 41 41 255 41 41 255 42 42 255 42 42 255 43 43 255 43 43 255 43 43 255 44 44 255 44 44 255 44 44 255 45 45 255 45 45 255 45 45 255 46 46 255 46 46 255 47 47 255 47 47 255 47 47 255 48 48 255 48 48 255 48 48 255 49 49 255 49 49 255 49 49 255 50 50 255 50 50 255 50 50 255 51 51 255 51 51 255 52 52 255 52 52 255 52 52 255 53 53 255 53 53 255 53 53 255 54 54 255 54 54 255 54 54 255 55 55 255 55 55 255 55 55 255 56 56 255 56 56 255 56 56 255 56 56 255 57 57 255 57 57 255 57 57 255 58 58 255 58 58 255 58 58 255 59 59 255 59 59 255 59 59 255 60 60 255 60 60 255 60 60 255 60 60 255 61 61 255 61 61 255 61 61 255 62 62 255 62 62 255 62 62 255 62 62 255 63 63 255 63 63 255 63 63 255 63 63 255 64 64 255 64 64 255 64 64 255 64 64 255 65 65 255 65 65 255 65 65 255 65 65 255 66 66 255 66 66 255 66 66 255 66 66 255 67 67 255 67 67 255 67 67 255 67 67 255 67 67 255 68 68 255 68 68 255 68 68 255 68 68 255 68 68 255 69 69 255 69 69 255 69 69 255 69 69 255 69 69 255 70 70 255 70 70 255 70 70 255 70 70 255 70 70 255 70 70 255 70 70 255 71 71 255 71 71 255 71 71 255 71 71 255 71 71 255 71 71 255 71 71 255 72 72 255 72 72 255 72 72 255 72 72 255 72 72 255 72 72 255 72 72 255 72 72 255 72 72 255 72 72 255 73 73 255 73 73 255 73 73 255 73 73 255 73 73 255 73 73 255 73 73 255 73 73 255 73 73 255 73 73 255 73 73 255 73 73 255 73 73 255 73 73 255 73 73 255 73 73 255 73 73 255 73 73 255 73 73 255 73 73 255 73 73 255 73 73 255 73 73 255 73 73 255 73 73 255 73 73 255 73 73 255 73 73 255 73 73 255 73 73 255 73 73 255 73 73 255 73 73 255 73 73 255 73 73 255 73 73 255 73 73 255 73 73 255 73 73 255 73 73 255 73 73 255 73 73 255 73 73 255 73 73 255 
3 3 248 3 3 248 3 3 248 3 3 248 3 3 248 4 4 248 4 4 248 4 4 248 4 4 248 4 4 248 4 4 248 4 4 248 5 5 248 5 5 248 5 5 248 5 5 248 5 5 248 5 5 248 6 6 248 6 6 248 6 6 248 6 6 248 6 6 248 6 6 248 7 7 248 7 7 248 7 7 248 7 7 248 7 7 248 8 8 248 8 8 248 8 8 248 8 8 248 8 8 248 9 9 248 9 9 248 9 9 248 9 9 248 10 10 248 10 10 248 10 10 248 10 10 248 10 10 248 11 11 248 11 11 248 11 11 249 11 11 249 12 12 249 12 12 249 12 12 249 12 12 249 13 13 249 13 13 249 13 13 249 13 13 249 14 14 249 14 14 249 14 14 249 15 15 250 15 15 250 15 15 250 15 15 250 16 16 250 16 16 250 16 16 250 16 16 250 17 17 250 17 17 250 17 17 250 18 18 251 18 18 251 18 18 251 19 19 251 19 19 251 19 19 251 19 19 251 20 20 251 20 20 251 20 20 252 21 21 252 21 21 252 21 21 252 22 22 252 22 22 252 22 22 252 23 23 252 23 23 253 23 23 253 24 24 253 24 24 253 24 24 253 25 25 253 25 25 253 25 25 254 26 26 254 26 26 254 26 26 254 27 27 254 27 27 254 27 27 254 28 28 255 28 28 255 28 28 255 29 29 255 29 29 255 29 29 255 30 30 255 30 30 255 31 31 255 31 31 255 31 31 255 32 32 255 32 32 255 32 32 255 33 33 255 33 33 255 33 33 255 34 34 255 34 34 255 35 35 255 35 35 255 35 35 255 36 36 255 36 36 255 36 36 255 37 37 255 37 37 255 37 37 255 38 38 255 38 38 255 39 39 255 39 39 255 39 39 255 40 40 255 40 40 255 40 40 255 41 41 255 41 41 255 42 42 255 42 42 255 42 42 255 43 43 255 43 43 255 43 43 255 44 44 255 44 44 255 44 44 255 45 45 255 45 45 255 46 46 255 46 46 255 46 46 255 47 47 255 47 47 255 47 47 255 48 48 255 48 48 255 48 48 255 49 49 255 49 49 255 50 50 255 50 50 255 50 50 255 51 51 255 51 51 255 51 51 255 52 52 255 52 52 255 52 52 255 53 53 255 53 53 255 53 53 255 54 54 255 54 54 255 54 54 255 55 55 255 55 55 255 55 55 255 56 56 255 56 56 255 56 56 255 57 57 255 57 57 255 57 57 255 58 58 255 58 58 255 58 58 255 58 58 255 59 59 255 59 59 255 59 59 255 60 60 255 60 60 255 60 60 255 61 61 255 61 61 255 61 61 255 61 61 255 62 62 255 62 62 255 62 62 255 63 63 255 63 63 255 63 63 255 63 63 255 64 64 255 64 64 255 64 64 255 64 64 255 65 65 255 65 65 255 65 65 255 65 65 255 66 66 255 66 66 255 66 66 255 66 66 255 66 66 255 67 67 255 67 67 255 67 67 255 67 67 255 68 68 255 68 68 255 68 68 255 68 68 255 68 68 255 69 69 255 69 69 255 69 69 255 69 69 255 69 69 255 69 69 255 70 70 255 70 70 255 70 70 255 70 70 255 70 70 255 70 70 255 71 71 255 71 71 255 71 71 255 71 71 255 71 71 255 71 71 255 71 71 255 71 71 255 72 72 255 72 72 255 72 72 255 72 72 255 72 72 255 72 72 255 72 72 255 72 72 255 72 72 255 72 72 255 73 73 255 73 73 255 73 73 255 73 73 255 73 73 255 73 73 255 73 73 255 73 73 255 73 73 255 73 73 255 73 73 255 73 73 255 73 73 255 73 73 255 73 73 255 73 73 255 73 73 255 73 73 255 73 73 255 73 73 255 73 73 255 73 73 255 73 73 255 73 73 255 73 73 255 73 73 255 73 73 255 73 73 255 73 73 255 73 73 255 73 73 255 73 73 255 73 73 255 73 73 255 73 73 255 73 73 255 73 73 255 73 73 255 73 73 255 73 73 255 73 73 255 73 73 255 72 72 255 
3 3 247 3 3 247 3 3 247 3 3 247 3 3 247 3 3 247 3 3 247 4 4 247 4 4 247 4 4 247 4 4 247 4 4 247 4 4 247 4 4 247 5 5 247 5 5 247 5 5 247 5 5 247 5 5 247 5 5 247 6 6 247 6 6 247 6 6 247 6 6 247 6 6 247 7 7 247 7 7 247 7 7 247 7 7 247 7 7 247 8 8 247 8 8 247 8 8 247 8 8 247 8 8 247 9 9 247 9 9 247 9 9 247 9 9 247 9 9 247 10 10 247 10 10 248 10 10 248 10 10 248 11 11 248 11 11 248 11 11 248 11 11 248 12 12 248 12 12 248 12 12 248 12 12 248 13 13 248 13 13 248 13 13 248 13 13 248 14 14 249 14 14 249 14 14 249 14 14 249 15 15 249 15 15 249 15 15 249 16 16 249 16 16 249 16 16 249 16 16 249 17 17 250 17 17 250 17 17 250 18 18 250 18 18 250 18 18 250 18 18 250 19 19 250 19 19 250 19 19 251 20 20 251 20 20 251 20 20 251 21 21 251 21 21 251 21 21 251 22 22 251 22 22 252 22 22 252 23 23 252 23 23 252 23 23 252 24 24 252 24 24 252 24 24 252 25 25 253 25 25 253 25 25 253 26 26 253 26 26 253 26 26 253 27 27 253 27 27 254 27 27 254 28 28 254 28 28 254 28 28 254 29 29 254 29 29 255 29 29 255 30 30 255 30 30 255 31 31 255 31 31 255 31 31 255 32 32 255 32 32 255 32 32 255 33 33 255 33 33 255 33 33 255 34 34 255 34 34 255 35 35 255 35 35 255 35 35 255 36 36 255 36 36 255 36 36 255 37 37 255 37 37 255 38 38 255 38 38 255 38 38 255 39 39 255 39 39 255 39 39 255 40 40 255 40 40 255 40 40 255 41 41 255 41 41 255 42 42 255 42 42 255 42 42 255 43 43 255 43 43 255 43 43 255 44 44 255 44 44 255 45 45 255 45 45 255 45 45 255 46 46 255 46 46 255 46 46 255 47 47 255 47 47 255 47 47 255 48 48 255 48 48 255 49 49 255 49 49 255 49 49 255 50 50 255 50 50 255 50 50 255 51 51 255 51 51 255 51 51 255 52 52 255 52 52 255 52 52 255 53 53 255 53 53 255 53 53 255 54 54 255 54 54 255 54 54 255 55 55 255 55 55 255 55 55 255 56 56 255 56 56 255 56 56 255 57 57 255 57 57 255 57 57 255 58 58 255 58 58 255 58 58 255 59 59 255 59 59 255 59 59 255 60 60 255 60 60 255 60 60 255 60 60 255 61 61 255 61 61 255 61 61 255 62 62 255 62 62 255 62 62 255 62 62 255 63 63 255 63 63 255 63 63 255 63 63 255 64 64 255 64 64 255 64 64 255 64 64 255 65 65 255 65 65 255 65 65 255 65 65 255 66 66 255 66 66 255 66 66 255 66 66 255 67 67 255 67 67 255 67 67 255 67 67 255 67 67 255 68 68 255 68 68 255 68 68 255 68 68 255 68 68 255 69 69 255 69 69 255 69 69 255 69 69 255 69 69 255 70 70 255 70 70 255 70 70 255 70 70 255 70 70 255 70 70 255 70 70 255 71 71 255 71 71 255 71 71 255 71 71 255 71 71 255 71 71 255 71 71 255 72 72 255 72 72 255 72 72 255 72 72 255 72 72 255 72 72 255 72 72 255 72 72 255 72 72 255 72 72 255 72 72 255 73 73 255 73 73 255 73 73 255 73 73 255 73 73 255 73 73 255 73 73 255 73 73 255 73 73 255 73 73 255 73 73 255 73 73 255 73 73 255 73 73 255 73 73 255 73 73 255 73 73 255 73 73 255 73 73 255 73 73 255 73 73 255 73 73 255 73 73 255 73 73 255 73 73 255 73 73 255 73 73 255 73 73 255 73 73 255 73 73 255 73 73 255 73 73 255 73 73 255 73 73 255 73 73 255 73 73 255 73 73 255 73 73 255 72 72 255 72 72 255 72 72 255 72 72 255 
2 2 246 3 3 246 3 3 246 3 3 246 3 3 246 3 3 246 3 3 246 3 3 246 4 4 246 4 4 246 4 4 246 4 4 246 4 4 246 4 4 246 4 4 246 5 5 246 5 5 246 5 5 246 5 5 246 5 5 246 5 5 246 6 6 246 6 6 246 6 6 246 6 6 246 6 6 246 6 6 246 7 7 246 7 7 246 7 7 246 7 7 246 7 7 246 8 8 246 8 8 246 8 8 246 8 8 246 8 8 246 9 9 247 9 9 247 9 9 247 9 9 247 10 10 247 10 10 247 10 10 247 10 10 247 11 11 247 11 11 247 11 11 247 11 11 247 11 11 247 12 12 247 12 12 247 12 12 247 12 12 247 13 13 248 13 13 248 13 13 248 14 14 248 14 14 248 14 14 248 14 14 248 15 15 248 15 15 248 15 15 248 15 15 248 16 16 249 16 16 249 16 16 249 17 17 249 17 17 249 17 17 249 18 18 249 18 18 249 18 18 249 18 18 249 19 19 250 19 19 250 19 19 250 20 20 250 20 20 250 20 20 250 21 21 250 21 21 250 21 21 251 22 22 251 22 22 251 22 22 251 23 23 251 23 23 251 23 23 251 24 24 251 24 24 252 24 24 252 25 25 252 25 25 252 25 25 252 26 26 252 26 26 252 26 26 253 27 27 253 27 27 253 27 27 253 28 28 253 28 28 253 28 28 254 29 29 254 29 29 254 29 29 254 30 30 254 30 30 254 31 31 254 31 31 255 31 31 255 32 32 255 32 32 255 32 32 255 33 33 255 33 33 255 33 33 255 34 34 255 34 34 255 35 35 255 35 35 255 35 35 255 36 36 255 36 36 255 36 36 255 37 37 255 37 37 255 38 38 255 38 38 255 38 38 255 39 39 255 39 39 255 39 39 255 40 40 255 40 40 255 41 41 255 41 41 255 41 41 255 42 42 255 42 42 255 42 42 255 43 43 255 43 43 255 43 43 255 44 44 255 44 44 255 45 45 255 45 45 255 45 45 255 46 46 255 46 46 255 46 46 255 47 47 255 47 47 255 48 48 255 48 48 255 48 48 255 49 49 255 49 49 255 49 49 255 50 50 255 50 50 255 50 50 255 51 51 255 51 51 255 51 51 255 52 52 255 52 52 255 52 52 255 53 53 255 53 53 255 54 54 255 54 54 255 54 54 255 55 55 255 55 55 255 55 55 255 56 56 255 56 56 255 56 56 255 57 57 255 57 57 255 57 57 255 57 57 255 58 58 255 58 58 255 58 58 255 59 59 255 59 59 255 59 59 255 60 60 255 60 60 255 60 60 255 60 60 255 61 61 255 61 61 255 61 61 255 62 62 255 62 62 255 62 62 255 62 62 255 63 63 255 63 63 255 63 63 255 64 64 255 64 64 255 64 64 255 64 64 255 65 65 255 65 65 255 65 65 255 65 65 255 66 66 255 66 66 255 66 66 255 66 66 255 66 66 255 67 67 255 67 67 255 67 67 255 67 67 255 68 68 255 68 68 255 68 68 255 68 68 255 68 68 255 68 68 255 69 69 255 69 69 255 69 69 255 69 69 255 69 69 255 70 70 255 70 70 255 70 70 255 70 70 255 70 70 255 70 70 255 70 70 255 71 71 255 71 71 255 71 71 255 71 71 255 71 71 255 71 71 255 71 71 255 72 72 255 72 72 255 72 72 255 72 72 255 72 72 255 72 72 255 72 72 255 72 72 255 72 72 255 72 72 255 72 72 255 72 72 255 73 73 255 73 73 255 73 73 255 73 73 255 73 73 255 73 73 255 73 73 255 73 73 255 73 73 255 73 73 255 73 73 255 73 73 255 73 73 255 73 73 255 73 73 255 73 73 255 73 73 255 73 73 255 73 73 255 73 73 255 73 73 255 73 73 255 73 73 255 73 73 255 73 73 255 73 73 255 73 73 255 73 73 255 73 73 255 73 73 255 73 73 255 73 73 255 73 73 255 73 73 255 72 72 255 72 72 255 72 72 255 72 72 255 72 72 255 72 72 255 
2 2 246 2 2 245 3 3 245 3 3 245 3 3 245 3 3 245 3 3 245 3 3 245 3 3 245 3 3 245 4 4 245 4 4 245 4 4 245 4 4 245 4 4 245 4 4 245 4 4 245 5 5 245 5 5 245 5 5 245 5 5 245 5 5 245 5 5 245 6 6 245 6 6 245 6 6 245 6 6 245 6 6 245 7 7 245 7 7 245 7 7 245 7 7 245 7 7 246 8 8 246 8 8 246 8 8 246 8 8 246 8 8 246 9 9 246 9 9 246 9 9 246 9 9 246 9 9 246 10 10 246 10 10 246 10 10 246 10 10 246 11 11 246 11 11 246 11 11 246 11 11 246 12 12 246 12 12 247 12 12 247 12 12 247 13 13 247 13 13 247 13 13 247 13 13 247 14 14 247 14 14 247 14 14 247 15 15 247 15 15 247 15 15 248 15 15 248 16 16 248 16 16 248 16 16 248 17 17 248 17 17 248 17 17 248 17 17 248 18 18 248 18 18 249 18 18 249 19 19 249 19 19 249 19 19 249 20 20 249 20 20 249 20 20 249 21 21 250 21 21 250 21 21 250 21 21 250 22 22 250 22 22 250 22 22 250 23 23 250 23 23 251 23 23 251 24 24 251 24 24 251 24 24 251 25 25 251 25 25 251 26 26 252 26 26 252 26 26 252 27 27 252 27 27 252 27 27 252 28 28 253 28 28 253 28 28 253 29 29 253 29 29 253 29 29 253 30 30 253 30 30 254 30 30 254 31 31 254 31 31 254 32 32 254 32 32 254 32 32 255 33 33 255 33 33 255 33 33 255 34 34 255 34 34 255 35 35 255 35 35 255 35 35 255 36 36 255 36 36 255 36 36 255 37 37 255 37 37 255 38 38 255 38 38 255 38 38 255 39 39 255 39 39 255 39 39 255 40 40 255 40 40 255 41 41 255 41 41 255 41 41 255 42 42 255 42 42 255 42 42 255 43 43 255 43 43 255 44 44 255 44 44 255 44 44 255 45 45 255 45 45 255 45 45 255 46 46 255 46 46 255 46 46 255 47 47 255 47 47 255 48 48 255 48 48 255 48 48 255 49 49 255 49 49 255 49 49 255 50 50 255 50 50 255 50 50 255 51 51 255 51 51 255 52 52 255 52 52 255 52 52 255 53 53 255 53 53 255 53 53 255 54 54 255 54 54 255 54 54 255 55 55 255 55 55 255 55 55 255 56 56 255 56 56 255 56 56 255 57 57 255 57 57 255 57 57 255 58 58 255 58 58 255 58 58 255 58 58 255 59 59 255 59 59 255 59 59 255 60 60 255 60 60 255 60 60 255 61 61 255 61 61 255 61 61 255 61 61 255 62 62 255 62 62 255 62 62 255 63 63 255 63 63 255 63 63 255 63 63 255 64 64 255 64 64 255 64 64 255 64 64 255 65 65 255 65 65 255 65 65 255 65 65 255 66 66 255 66 66 255 66 66 255 66 66 255 67 67 255 67 67 255 67 67 255 67 67 255 67 67 255 68 68 255 68 68 255 68 68 255 68 68 255 68 68 255 69 69 255 69 69 255 69 69 255 69 69 255 69 69 255 69 69 255 70 70 255 70 70 255 70 70 255 70 70 255 70 70 255 70 70 255 70 70 255 71 71 255 71 71 255 71 71 255 71 71 255 71 71 255 71 71 255 71 71 255 71 71 255 72 72 255 72 72 255 72 72 255 72 72 255 72 72 255 72 72 255 72 72 255 72 72 255 72 72 255 72 72 255 72 72 255 72 72 255 73 73 255 73 73 255 73 73 255 73 73 255 73 73 255 73 73 255 73 73 255 73 73 255 73 73 255 73 73 255 73 73 255 73 73 255 73 73 255 73 73 255 73 73 255 73 73 255 73 73 255 73 73 255 73 73 255 73 73 255 73 73 255 73 73 255 73 73 255 73 73 255 73 73 255 73 73 255 73 73 255 73 73 255 73 73 255 72 72 255 72 72 255 72 72 255 72 72 255 72 72 255 72 72 255 72 72 255 72 72 255 72 72 255 
2 2 245 2 2 245 2 2 245 2 2 245 3 3 245 3 3 245 3 3 245 3 3 245 3 3 245 3 3 245 3 3 245 3 3 245 4 4 244 4 4 244 4 4 244 4 4 244 4 4 244 4 4 244 5 5 244 5 5 244 5 5 244 5 5 244 5 5 244 5 5 245 6 6 245 6 6 245 6 6 245 6 6 245 6 6 245 6 6 245 7 7 245 7 7 245 7 7 245 7 7 245 7 7 245 8 8 245 8 8 245 8 8 245 8 8 245 8 8 245 9 9 245 9 9 245 9 9 245 9 9 245 10 10 245 10 10 245 10 10 245 10 10 245 11 11 245 11 11 245 11 11 246 11 11 246 12 12 246 12 12 246 12 12 246 12 12 246 13 13 246 13 13 246 13 13 246 13 13 246 14 14 246 14 14 246 14 14 246 14 14 247 15 15 247 15 15 247 15 15 247 16 16 247 16 16 247 16 16 247 16 16 247 17 17 247 17 17 247 17 17 248 18 18 248 18 18 248 18 18 248 19 19 248 19 19 248 19 19 248 19 19 248 20 20 249 20 20 249 20 20 249 21 21 249 21 21 249 21 21 249 22 22 249 22 22 249 22 22 250 23 23 250 23 23 250 23 23 250 24 24 250 24 24 250 24 24 250 25 25 251 25 25 251 25 25 251 26 26 251 26 26 251 27 27 251 27 27 251 27 27 252 28 28 252 28 28 252 28 28 252 29 29 252 29 29 252 29 29 253 30 30 253 30 30 253 30 30 253 31 31 253 31 31 253 32 32 253 32 32 254 32 32 254 33 33 254 33 33 254 33 33 254 34 34 254 34 34 255 35 35 255 35 35 255 35 35 255 36 36 255 36 36 255 36 36 255 37 37 255 37 37 255 38 38 255 38 38 255 38 38 255 39 39 255 39 39 255 39 39 255 40 40 255 40 40 255 41 41 255 41 41 255 41 41 255 42 42 255 42 42 255 42 42 255 43 43 255 43 43 255 44 44 255 44 44 255 44 44 255 45 45 255 45 45 255 45 45 255 46 46 255 46 46 255 47 47 255 47 47 255 47 47 255 48 48 255 48 48 255 48 48 255 49 49 255 49 49 255 49 49 255 50 50 255 50 50 255 51 51 255 51 51 255 51 51 255 52 52 255 52 52 255 52 52 255 53 53 255 53 53 255 53 53 255 54 54 255 54 54 255 54 54 255 55 55 255 55 55 255 55 55 255 56 56 255 56 56 255 56 56 255 57 57 255 57 57 255 57 57 255 58 58 255 58 58 255 58 58 255 59 59 255 59 59 255 59 59 255 59 59 255 60 60 255 60 60 255 60 60 255 61 61 255 61 61 255 61 61 255 62 62 255 62 62 255 62 62 255 62 62 255 63 63 255 63 63 255 63 63 255 63 63 255 64 64 255 64 64 255 64 64 255 64 64 255 65 65 255 65 65 255 65 65 255 65 65 255 66 66 255 66 66 255 66 66 255 66 66 255 67 67 255 67 67 255 67 67 255 67 67 255 67 67 255 68 68 255 68 68 255 68 68 255 68 68 255 68 68 255 69 69 255 69 69 255 69 69 255 69 69 255 69 69 255 69 69 255 70 70 255 70 70 255 70 70 255 70 70 255 70 70 255 70 70 255 70 70 255 71 71 255 71 71 255 71 71 255 71 71 255 71 71 255 71 71 255 71 71 255 71 71 255 72 72 255 72 72 255 72 72 255 72 72 255 72 72 255 72 72 255 72 72 255 72 72 255 72 72 255 72 72 255 72 72 255 72 72 255 72 72 255 73 73 255 73 73 255 73 73 255 73 73 255 73 73 255 73 73 255 73 73 255 73 73 255 73 73 255 73 73 255 73 73 255 73 73 255 73 73 255 73 73 255 73 73 255 73 73 255 73 73 255 73 73 255 73 73 255 73 73 255 73 73 255 73 73 255 73 73 255 72 72 255 72 72 255 72 72 255 72 72 255 72 72 255 72 72 255 72 72 255 72 72 255 72 72 255 72 72 255 72 72 255 72 72 255 72 72 255 
2 2 244 2 2 244 2 2 244 2 2 244 2 2 244 2 2 244 3 3 244 3 3 244 3 3 244 3 3 244 3 3 244 3 3 244 3 3 244 3 3 244 4 4 244 4 4 244 4 4 244 4 4 244 4 4 244 4 4 244 5 5 244 5 5 244 5 5 244 5 5 244 5 5 244 5 5 244 6 6 244 6 6 244 6 6 244 6 6 244 6 6 244 7 7 244 7 7 244 7 7 244 7 7 244 7 7 244 8 8 244 8 8 244 8 8 244 8 8 244 8 8 244 9 9 244 9 9 244 9 9 244 9 9 244 9 9 244 10 10 244 10 10 244 10 10 245 10 10 245 11 11 245 11 11 245 11 11 245 11 11 245 12 12 245 12 12 245 12 12 245 12 12 245 13 13 245 13 13 245 13 13 245 13 13 245 14 14 246 14 14 246 14 14 246 15 15 246 15 15 246 15 15 246 15 15 246 16 16 246 16 16 246 16 16 246 17 17 247 17 17 247 17 17 247 18 18 247 18 18 247 18 18 247 18 18 247 19 19 247 19 19 247 19 19 248 20 20 248 20 20 248 20 20 248 21 21 248 21 21 248 21 21 248 22 22 248 22 22 249 22 22 249 23 23 249 23 23 249 23 23 249 24 24 249 24 24 249 24 24 250 25 25 250 25 25 250 25 25 250 26 26 250 26 26 250 26 26 250 27 27 251 27 27 251 27 27 251 28 28 251 28 28 251 29 29 251 29 29 252 29 29 252 30 30 252 30 30 252 30 30 252 31 31 252 31 31 253 31 31 253 32 32 253 32 32 253 33 33 253 33 33 253 33 33 254 34 34 254 34 34 254 34 34 254 35 35 254 35 35 254 36 36 255 36 36 255 36 36 255 37 37 255 37 37 255 37 37 255 38 38 255 38 38 255 39 39 255 39 39 255 39 39 255 40 40 255 40 40 255 41 41 255 41 41 255 41 41 255 42 42 255 42 42 255 42 42 255 43 43 255 43 43 255 44 44 255 44 44 255 44 44 255 45 45 255 45 45 255 45 45 255 46 46 255 46 46 255 47 47 255 47 47 255 47 47 255 48 48 255 48 48 255 48 48 255 49 49 255 49 49 255 49 49 255 50 50 255 50 50 255 51 51 255 51 51 255 51 51 255 52 52 255 52 52 255 52 52 255 53 53 255 53 53 255 53 53 255 54 54 255 54 54 255 54 54 255 55 55 255 55 55 255 55 55 255 56 56 255 56 56 255 56 56 255 57 57 255 57 57 255 57 57 255 58 58 255 58 58 255 58 58 255 59 59 255 59 59 255 59 59 255 59 59 255 60 60 255 60 60 255 60 60 255 61 61 255 61 61 255 61 61 255 62 62 255 62 62 255 62 62 255 62 62 255 63 63 255 63 63 255 63 63 255 63 63 255 64 64 255 64 64 255 64 64 255 64 64 255 65 65 255 65 65 255 65 65 255 65 65 255 66 66 255 66 66 255 66 66 255 66 66 255 67 67 255 67 67 255 67 67 255 67 67 255 67 67 255 68 68 255 68 68 255 68 68 255 68 68 255 68 68 255 69 69 255 69 69 255 69 69 255 69 69 255 69 69 255 69 69 255 70 70 255 70 70 255 70 70 255 70 70 255 70 70 255 70 70 255 70 70 255 71 71 255 71 71 255 71 71 255 71 71 255 71 71 255 71 71 255 71 71 255 71 71 255 71 71 255 72 72 255 72 72 255 72 72 255 72 72 255 72 72 255 72 72 255 72 72 255 72 72 255 72 72 255 72 72 255 72 72 255 72 72 255 72 72 255 72 72 255 72 72 255 72 72 255 73 73 255 73 73 255 73 73 255 73 73 255 73 73 255 73 73 255 73 73 255 73 73 255 73 73 255 73 73 255 73 73 255 73 73 255 73 73 255 72 72 255 72 72 255 72 72 255 72 72 255 72 72 255 72 72 255 72 72 255 72 72 255 72 72 255 72 72 255 72 72 255 72 72 255 72 72 255 72 72 255 72 72 255 72 72 255 71 71 255 71 71 255 
2 2 243 2 2 243 2 2 243 2 2 243 2 2 243 2 2 243 2 2 243 2 2 243 3 3 243 3 3 243 3 3 243 3 3 243 3 3 243 3 3 243 3 3 243 4 4 243 4 4 243 4 4 243 4 4 243 4 4 243 4 4 243 4 4 243 5 5 243 5 5 243 5 5 243 5 5 243 5 5 243 5 5 243 6 6 243 6 6 243 6 6 243 6 6 243 6 6 243 7 7 243 7 7 243 7 7 243 7 7 243 7 7 243 8 8 243 8 8 243 8 8 243 8 8 243 8 8 243 9 9 243 9 9 243 9 9 243 9 9 243 10 10 244 10 10 244 10 10 244 10 10 244 11 11 244 11 11 244 11 11 244 11 11 244 12 12 244 12 12 244 12 12 244 12 12 244 13 13 244 13 13 244 13 13 244 13 13 245 14 14 245 14 14 245 14 14 245 14 14 245 15 15 245 15 15 245 15 15 245 16 16 245 16 16 245 16 16 246 16 16 246 17 17 246 17 17 246 17 17 246 18 18 246 18 18 246 18 18 246 19 19 246 19 19 247 19 19 247 20 20 247 20 20 247 20 20 247 21 21 247 21 21 247 21 21 247 22 22 248 22 22 248 22 22 248 23 23 248 23 23 248 23 23 248 24 24 248 24 24 249 24 24 249 25 25 249 25 25 249 25 25 249 26 26 249 26 26 249 26 26 250 27 27 250 27 27 250 27 27 250 28 28 250 28 28 250 28 28 251 29 29 251 29 29 251 30 30 251 30 30 251 30 30 251 31 31 252 31 31 252 31 31 252 32 32 252 32 32 252 33 33 252 33 33 253 33 33 253 34 34 253 34 34 253 34 34 253 35 35 253 35 35 254 36 36 254 36 36 254 36 36 254 37 37 254 37 37 254 37 37 255 38 38 255 38 38 255 39 39 255 39 39 255 39 39 255 40 40 255 40 40 255 40 40 255 41 41 255 41 41 255 42 42 255 42 42 255 42 42 255 43 43 255 43 43 255 44 44 255 44 44 255 44 44 255 45 45 255 45 45 255 45 45 255 46 46 255 46 46 255 47 47 255 47 47 255 47 47 255 48 48 255 48 48 255 48 48 255 49 49 255 49 49 255 49 49 255 50 50 255 50 50 255 51 51 255 51 51 255 51 51 255 52 52 255 52 52 255 52 52 255 53 53 255 53 53 255 53 53 255 54 54 255 54 54 255 54 54 255 55 55 255 55 55 255 55 55 255 56 56 255 56 56 255 56 56 255 57 57 255 57 57 255 57 57 255 58 58 255 58 58 255 58 58 255 59 59 255 59 59 255 59 59 255 60 60 255 60 60 255 60 60 255 60 60 255 61 61 255 61 61 255 61 61 255 62 62 255 62 62 255 62 62 255 62 62 255 63 63 255 63 63 255 63 63 255 63 63 255 64 64 255 64 64 255 64 64 255 64 64 255 65 65 255 65 65 255 65 65 255 65 65 255 66 66 255 66 66 255 66 66 255 66 66 255 67 67 255 67 67 255 67 67 255 67 67 255 67 67 255 68 68 255 68 68 255 68 68 255 68 68 255 68 68 255 69 69 255 69 69 255 69 69 255 69 69 255 69 69 255 69 69 255 70 70 255 70 70 255 70 70 255 70 70 255 70 70 255 70 70 255 70 70 255 71 71 255 71 71 255 71 71 255 71 71 255 71 71 255 71 71 255 71 71 255 71 71 255 71 71 255 71 71 255 72 72 255 72 72 255 72 72 255 72 72 255 72 72 255 72 72 255 72 72 255 72 72 255 72 72 255 72 72 255 72 72 255 72 72 255 72 72 255 72 72 255 72 72 255 72 72 255 72 72 255 72 72 255 72 72 255 72 72 255 72 72 255 72 72 255 72 72 255 72 72 255 72 72 255 72 72 255 72 72 255 72 72 255 72 72 255 72 72 255 72 72 255 72 72 255 72 72 255 72 72 255 72 72 255 72 72 255 72 72 255 72 72 255 72 72 255 72 72 255 71 71 255 71 71 255 71 71 255 71 71 255 71 71 254 
1 1 242 2 2 242 2 2 242 2 2 242 2 2 242 2 2 242 2 2 242 2 2 242 2 2 242 2 2 242 3 3 242 3 3 242 3 3 242 3 3 242 3 3 242 3 3 242 3 3 242 4 4 242 4 4 242 4 4 242 4 4 242 4 4 242 4 4 242 4 4 242 5 5 242 5 5 242 5 5 242 5 5 242 5 5 242 5 5 242 6 6 242 6 6 242 6 6 242 6 6 242 6 6 242 7 7 242 7 7 242 7 7 242 7 7 242 7 7 242 8 8 242 8 8 242 8 8 242 8 8 242 9 9 242 9 9 242 9 9 242 9 9 243 9 9 243 10 10 243 10 10 243 10 10 243 10 10 243 11 11 243 11 11 243 11 11 243 11 11 243 12 12 243 12 12 243 12 12 243 12 12 243 13 13 243 13 13 244 13 13 244 13 13 244 14 14 244 14 14 244 14 14 244 15 15 244 15 15 244 15 15 244 15 15 244 16 16 245 16 16 245 16 16 245 17 17 245 17 17 245 17 17 245 18 18 245 18 18 245 18 18 245 18 18 246 19 19 246 19 19 246 19 19 246 20 20 246 20 20 246 20 20 246 21 21 246 21 21 247 21 21 247 22 22 247 22 22 247 22 22 247 23 23 247 23 23 247 23 23 248 24 24 248 24 24 248 24 24 248 25 25 248 25 25 248 26 26 248 26 26 249 26 26 249 27 27 249 27 27 249 27 27 249 28 28 249 28 28 250 28 28 250 29 29 250 29 29 250 29 29 250 30 30 250 30 30 250 31 31 251 31 31 251 31 31 251 32 32 251 32 32 251 32 32 251 33 33 252 33 33 252 34 34 252 34 34 252 34 34 252 35 35 253 35 35 253 35 35 253 36 36 253 36 36 253 37 37 253 37 37 254 37 37 254 38 38 254 38 38 254 39 39 254 39 39 254 39 39 255 40 40 255 40 40 255 40 40 255 41 41 255 41 41 255 42 42 255 42 42 255 42 42 255 43 43 255 43 43 255 43 43 255 44 44 255 44 44 255 45 45 255 45 45 255 45 45 255 46 46 255 46 46 255 47 47 255 47 47 255 47 47 255 48 48 255 48 48 255 48 48 255 49 49 255 49 49 255 49 49 255 50 50 255 50 50 255 51 51 255 51 51 255 51 51 255 52 52 255 52 52 255 52 52 255 53 53 255 53 53 255 53 53 255 54 54 255 54 54 255 54 54 255 55 55 255 55 55 255 55 55 255 56 56 255 56 56 255 56 56 255 57 57 255 57 57 255 57 57 255 58 58 255 58 58 255 58 58 255 59 59 255 59 59 255 59 59 255 60 60 255 60 60 255 60 60 255 60 60 255 61 61 255 61 61 255 61 61 255 62 62 255 62 62 255 62 62 255 62 62 255 63 63 255 63 63 255 63 63 255 63 63 255 64 64 255 64 64 255 64 64 255 64 64 255 65 65 255 65 65 255 65 65 255 65 65 255 66 66 255 66 66 255 66 66 255 66 66 255 67 67 255 67 67 255 67 67 255 67 67 255 67 67 255 68 68 255 68 68 255 68 68 255 68 68 255 68 68 255 68 68 255 69 69 255 69 69 255 69 69 255 69 69 255 69 69 255 69 69 255 70 70 255 70 70 255 70 70 255 70 70 255 70 70 255 70 70 255 70 70 255 71 71 255 71 71 255 71 71 255 71 71 255 71 71 255 71 71 255 71 71 255 71 71 255 71 71 255 71 71 255 71 71 255 72 72 255 72 72 255 72 72 255 72 72 255 72 72 255 72 72 255 72 72 255 72 72 255 72 72 255 72 72 255 72 72 255 72 72 255 72 72 255 72 72 255 72 72 255 72 72 255 72 72 255 72 72 255 72 72 255 72 72 255 72 72 255 72 72 255 72 72 255 72 72 255 72 72 255 72 72 255 72 72 255 72 72 255 72 72 255 72 72 255 72 72 255 72 72 255 72 72 255 72 72 255 71 71 255 71 71 255 71 71 255 71 71 255 71 71 254 71 71 254 71 71 254 71 71 253 
1 1 241 1 1 241 1 1 241 2 2 241 2 2 241 2 2 241 2 2 241 2 2 241 2 2 241 2 2 241 2 2 241 2 2 241 3 3 241 3 3 241 3 3 241 3 3 241 3 3 241 3 3 241 3 3 241 4 4 241 4 4 241 4 4 241 4 4 241 4 4 241 4 4 241 4 4 241 5 5 241 5 5 241 5 5 241 5 5 241 5 5 241 6 6 241 6 6 241 6 6 241 6 6 241 6 6 241 6 6 241 7 7 241 7 7 241 7 7 241 7 7 241 7 7 241 8 8 241 8 8 241 8 8 241 8 8 241 9 9 241 9 9 242 9 9 242 9 9 242 9 9 242 10 10 242 10 10 242 10 10 242 10 10 242 11 11 242 11 11 242 11 11 242 11 11 242 12 12 242 12 12 242 12 12 242 12 12 243 13 13 243 13 13 243 13 13 243 14 14 243 14 14 243 14 14 243 14 14 243 15 15 243 15 15 243 15 15 243 16 16 244 16 16 244 16 16 244 16 16 244 17 17 244 17 17 244 17 17 244 18 18 244 18 18 244 18 18 245 19 19 245 19 19 245 19 19 245 20 20 245 20 20 245 20 20 245 21 21 245 21 21 246 21 21 246 22 22 246 22 22 246 22 22 246 23 23 246 23 23 246 23 23 247 24 24 247 24 24 247 24 24 247 25 25 247 25 25 247 25 25 247 26 26 248 26 26 248 26 26 248 27 27 248 27 27 248 28 28 248 28 28 249 28 28 249 29 29 249 29 29 249 29 29 249 30 30 249 30 30 250 30 30 250 31 31 250 31 31 250 32 32 250 32 32 250 32 32 251 33 33 251 33 33 251 33 33 251 34 34 251 34 34 251 35 35 252 35 35 252 35 35 252 36 36 252 36 36 252 37 37 252 37 37 253 37 37 253 38 38 253 38 38 253 38 38 253 39 39 254 39 39 254 40 40 254 40 40 254 40 40 254 41 41 254 41 41 255 42 42 255 42 42 255 42 42 255 43 43 255 43 43 255 43 43 255 44 44 255 44 44 255 45 45 255 45 45 255 45 45 255 46 46 255 46 46 255 46 46 255 47 47 255 47 47 255 48 48 255 48 48 255 48 48 255 49 49 255 49 49 255 49 49 255 50 50 255 50 50 255 51 51 255 51 51 255 51 51 255 52 52 255 52 52 255 52 52 255 53 53 255 53 53 255 53 53 255 54 54 255 54 54 255 54 54 255 55 55 255 55 55 255 55 55 255 56 56 255 56 56 255 56 56 255 57 57 255 57 57 255 57 57 255 58 58 255 58 58 255 58 58 255 59 59 255 59 59 255 59 59 255 60 60 255 60 60 255 60 60 255 60 60 255 61 61 255 61 61 255 61 61 255 62 62 255 62 62 255 62 62 255 62 62 255 63 63 255 63 63 255 63 63 255 63 63 255 64 64 255 64 64 255 64 64 255 64 64 255 65 65 255 65 65 255 65 65 255 65 65 255 66 66 255 66 66 255 66 66 255 66 66 255 66 66 255 67 67 255 67 67 255 67 67 255 67 67 255 67 67 255 68 68 255 68 68 255 68 68 255 68 68 255 68 68 255 69 69 255 69 69 255 69 69 255 69 69 255 69 69 255 69 69 255 70 70 255 70 70 255 70 70 255 70 70 255 70 70 255 70 70 255 70 70 255 70 70 255 71 71 255 71 71 255 71 71 255 71 71 255 71 71 255 71 71 255 71 71 255 71 71 255 71 71 255 71 71 255 71 71 255 71 71 255 72 72 255 72 72 255 72 72 255 72 72 255 72 72 255 72 72 255 72 72 255 72 72 255 72 72 255 72 72 255 72 72 255 72 72 255 72 72 255 72 72 255 72 72 255 72 72 255 72 72 255 72 72 255 72 72 255 72 72 255 72 72 255 72 72 255 72 72 255 72 72 255 72 72 255 72 72 255 71 71 255 71 71 255 71 71 255 71 71 255 71 71 255 71 71 254 71 71 254 71 71 254 71 71 254 71 71 253 71 71 253 71 71 253 70 70 252 
1 1 241 1 1 240 1 1 240 1 1 240 1 1 240 2 2 240 2 2 240 2 2 240 2 2 240 2 2 240 2 2 240 2 2 240 2 2 240 2 2 240 3 3 240 3 3 240 3 3 240 3 3 240 3 3 240 3 3 240 3 3 240 4 4 240 4 4 240 4 4 240 4 4 240 4 4 240 4 4 240 5 5 240 5 5 240 5 5 240 5 5 240 5 5 240 5 5 240 6 6 240 6 6 240 6 6 240 6 6 240 6 6 240 7 7 240 7 7 240 7 7 240 7 7 240 7 7 240 8 8 240 8 8 240 8 8 240 8 8 240 8 8 240 9 9 241 9 9 241 9 9 241 9 9 241 10 10 241 10 10 241 10 10 241 10 10 241 11 11 241 11 11 241 11 11 241 11 11 241 12 12 241 12 12 241 12 12 241 12 12 242 13 13 242 13 13 242 13 13 242 13 13 242 14 14 242 14 14 242 14 14 242 15 15 242 15 15 242 15 15 242 15 15 243 16 16 243 16 16 243 16 16 243 17 17 243 17 17 243 17 17 243 18 18 243 18 18 243 18 18 244 18 18 244 19 19 244 19 19 244 19 19 244 20 20 244 20 20 244 20 20 244 21 21 245 21 21 245 21 21 245 22 22 245 22 22 245 22 22 245 23 23 245 23 23 246 23 23 246 24 24 246 24 24 246 25 25 246 25 25 246 25 25 246 26 26 247 26 26 247 26 26 247 27 27 247 27 27 247 27 27 247 28 28 248 28 28 248 28 28 248 29 29 248 29 29 248 30 30 248 30 30 249 30 30 249 31 31 249 31 31 249 31 31 249 32 32 249 32 32 250 33 33 250 33 33 250 33 33 250 34 34 250 34 34 250 35 35 251 35 35 251 35 35 251 36 36 251 36 36 251 36 36 252 37 37 252 37 37 252 38 38 252 38 38 252 38 38 252 39 39 253 39 39 253 40 40 253 40 40 253 40 40 253 41 41 253 41 41 254 41 41 254 42 42 254 42 42 254 43 43 254 43 43 255 43 43 255 44 44 255 44 44 255 44 44 255 45 45 255 45 45 255 46 46 255 46 46 255 46 46 255 47 47 255 47 47 255 48 48 255 48 48 255 48 48 255 49 49 255 49 49 255 49 49 255 50 50 255 50 50 255 50 50 255 51 51 255 51 51 255 52 52 255 52 52 255 52 52 255 53 53 255 53 53 255 53 53 255 54 54 255 54 54 255 54 54 255 55 55 255 55 55 255 55 55 255 56 56 255 56 56 255 56 56 255 57 57 255 57 57 255 57 57 255 58 58 255 58 58 255 58 58 255 59 59 255 59 59 255 59 59 255 59 59 255 60 60 255 60 60 255 60 60 255 61 61 255 61 61 255 61 61 255 62 62 255 62 62 255 62 62 255 62 62 255 63 63 255 63 63 255 63 63 255 63 63 255 64 64 255 64 64 255 64 64 255 64 64 255 65 65 255 65 65 255 65 65 255 65 65 255 66 66 255 66 66 255 66 66 255 66 66 255 66 66 255 67 67 255 67 67 255 67 67 255 67 67 255 67 67 255 68 68 255 68 68 255 68 68 255 68 68 255 68 68 255 68 68 255 69 69 255 69 69 255 69 69 255 69 69 255 69 69 255 69 69 255 70 70 255 70 70 255 70 70 255 70 70 255 70 70 255 70 70 255 70 70 255 70 70 255 70 70 255 71 71 255 71 71 255 71 71 255 71 71 255 71 71 255 71 71 255 71 71 255 71 71 255 71 71 255 71 71 255 71 71 255 71 71 255 71 71 255 71 71 255 71 71 255 72 72 255 72 72 255 72 72 255 72 72 255 72 72 255 72 72 255 72 72 255 72 72 255 72 72 255 72 72 255 72 72 255 72 72 255 72 72 255 71 71 255 71 71 255 71 71 255 71 71 255 71 71 255 71 71 255 71 71 255 71 71 255 71 71 254 71 71 254 71 71 254 71 71 254 71 71 253 71 71 253 71 71 253 71 71 253 70 70 252 70 70 252 70 70 252 70 70 251 
1 1 240 1 1 240 1 1 239 1 1 239 1 1 239 1 1 239 1 1 239 2 2 239 2 2 239 2 2 239 2 2 239 2 2 239 2 2 239 2 2 239 2 2 239 2 2 239 3 3 239 3 3 239 3 3 239 3 3 239 3 3 239 3 3 239 3 3 239 4 4 239 4 4 239 4 4 239 4 4 239 4 4 239 4 4 239 5 5 239 5 5 239 5 5 239 5 5 239 5 5 239 5 5 239 6 6 239 6 6 239 6 6 239 6 6 239 6 6 239 7 7 239 7 7 239 7 7 239 7 7 239 7 7 239 8 8 239 8 8 239 8 8 239 8 8 239 8 8 240 9 9 240 9 9 240 9 9 240 9 9 240 10 10 240 10 10 240 10 10 240 10 10 240 11 11 240 11 11 240 11 11 240 11 11 240 12 12 240 12 12 240 12 12 241 12 12 241 13 13 241 13 13 241 13 13 241 13 13 241 14 14 241 14 14 241 14 14 241 15 15 241 15 15 241 15 15 242 16 16 242 16 16 242 16 16 242 16 16 242 17 17 242 17 17 242 17 17 242 18 18 242 18 18 243 18 18 243 19 19 243 19 19 243 19 19 243 20 20 243 20 20 243 20 20 243 21 21 244 21 21 244 21 21 244 22 22 244 22 22 244 22 22 244 23 23 244 23 23 245 23 23 245 24 24 245 24 24 245 24 24 245 25 25 245 25 25 245 25 25 246 26 26 246 26 26 246 26 26 246 27 27 246 27 27 246 28 28 247 28 28 247 28 28 247 29 29 247 29 29 247 29 29 247 30 30 248 30 30 248 31 31 248 31 31 248 31 31 248 32 32 248 32 32 249 32 32 249 33 33 249 33 33 249 34 34 249 34 34 249 34 34 250 35 35 250 35 35 250 36 36 250 36 36 250 36 36 251 37 37 251 37 37 251 37 37 251 38 38 251 38 38 251 39 39 252 39 39 252 39 39 252 40 40 252 40 40 252 41 41 252 41 41 253 41 41 253 42 42 253 42 42 253 42 42 253 43 43 254 43 43 254 44 44 254 44 44 254 44 44 254 45 45 254 45 45 255 46 46 255 46 46 255 46 46 255 47 47 255 47 47 255 47 47 255 48 48 255 48 48 255 49 49 255 49 49 255 49 49 255 50 50 255 50 50 255 50 50 255 51 51 255 51 51 255 51 51 255 52 52 255 52 52 255 53 53 255 53 53 255 53 53 255 54 54 255 54 54 255 54 54 255 55 55 255 55 55 255 55 55 255 56 56 255 56 56 255 56 56 255 57 57 255 57 57 255 57 57 255 58 58 255 58 58 255 58 58 255 58 58 255 59 59 255 59 59 255 59 59 255 60 60 255 60 60 255 60 60 255 61 61 255 61 61 255 61 61 255 61 61 255 62 62 255 62 62 255 62 62 255 63 63 255 63 63 255 63 63 255 63 63 255 64 64 255 64 64 255 64 64 255 64 64 255 65 65 255 65 65 255 65 65 255 65 65 255 65 65 255 66 66 255 66 66 255 66 66 255 66 66 255 67 67 255 67 67 255 67 67 255 67 67 255 67 67 255 67 67 255 68 68 255 68 68 255 68 68 255 68 68 255 68 68 255 69 69 255 69 69 255 69 69 255 69 69 255 69 69 255 69 69 255 69 69 255 70 70 255 70 70 255 70 70 255 70 70 255 70 70 255 70 70 255 70 70 255 70 70 255 70 70 255 70 70 255 71 71 255 71 71 255 71 71 255 71 71 255 71 71 255 71 71 255 71 71 255 71 71 255 71 71 255 71 71 255 71 71 255 71 71 255 71 71 255 71 71 255 71 71 255 71 71 255 71 71 255 71 71 255 71 71 255 71 71 255 71 71 255 71 71 255 71 71 255 71 71 255 71 71 255 71 71 255 71 71 255 71 71 255 71 71 255 71 71 254 71 71 254 71 71 254 71 71 254 71 71 253 71 71 253 71 71 253 71 71 253 70 70 252 70 70 252 70 70 252 70 70 251 70 70 251 70 70 251 70 70 251 70 70 250 
1 1 239 1 1 239 1 1 239 1 1 238 1 1 238 1 1 238 1 1 238 1 1 238 1 1 238 2 2 238 2 2 238 2 2 238 2 2 238 2 2 238 2 2 238 2 2 238 2 2 238 2 2 238 3 3 238 3 3 238 3 3 238 3 3 238 3 3 238 3 3 238 3 3 238 4 4 238 4 4 238 4 4 238 4 4 238 4 4 238 4 4 238 5 5 238 5 5 238 5 5 238 5 5 238 5 5 238 5 5 238 6 6 238 6 6 238 6 6 238 6 6 238 6 6 238 7 7 238 7 7 238 7 7 238 7 7 238 7 7 238 8 8 238 8 8 238 8 8 238 8 8 238 8 8 238 9 9 239 9 9 239 9 9 239 9 9 239 10 10 239 10 10 239 10 10 239 10 10 239 11 11 239 11 11 239 11 11 239 11 11 239 12 12 239 12 12 239 12 12 240 12 12 240 13 13 240 13 13 240 13 13 240 14 14 240 14 14 240 14 14 240 14 14 240 15 15 240 15 15 240 15 15 241 16 16 241 16 16 241 16 16 241 17 17 241 17 17 241 17 17 241 17 17 241 18 18 241 18 18 242 18 18 242 19 19 242 19 19 242 19 19 242 20 20 242 20 20 242 20 20 243 21 21 243 21 21 243 21 21 243 22 22 243 22 22 243 22 22 243 23 23 243 23 23 244 23 23 244 24 24 244 24 24 244 25 25 244 25 25 244 25 25 245 26 26 245 26 26 245 26 26 245 27 27 245 27 27 245 27 27 246 28 28 246 28 28 246 29 29 246 29 29 246 29 29 246 30 30 247 30 30 247 30 30 247 31 31 247 31 31 247 32 32 247 32 32 248 32 32 248 33 33 248 33 33 248 33 33 248 34 34 248 34 34 249 35 35 249 35 35 249 35 35 249 36 36 249 36 36 249 37 37 250 37 37 250 37 37 250 38 38 250 38 38 250 38 38 251 39 39 251 39 39 251 40 40 251 40 40 251 40 40 251 41 41 252 41 41 252 42 42 252 42 42 252 42 42 252 43 43 253 43 43 253 44 44 253 44 44 253 44 44 253 45 45 253 45 45 254 45 45 254 46 46 254 46 46 254 47 47 254 47 47 254 47 47 255 48 48 255 48 48 255 48 48 255 49 49 255 49 49 255 50 50 255 50 50 255 50 50 255 51 51 255 51 51 255 51 51 255 52 52 255 52 52 255 52 52 255 53 53 255 53 53 255 53 53 255 54 54 255 54 54 255 54 54 255 55 55 255 55 55 255 56 56 255 56 56 255 56 56 255 56 56 255 57 57 255 57 57 255 57 57 255 58 58 255 58 58 255 58 58 255 59 59 255 59 59 255 59 59 255 60 60 255 60 60 255 60 60 255 60 60 255 61 61 255 61 61 255 61 61 255 62 62 255 62 62 255 62 62 255 62 62 255 63 63 255 63 63 255 63 63 255 63 63 255 64 64 255 64 64 255 64 64 255 64 64 255 65 65 255 65 65 255 65 65 255 65 65 255 66 66 255 66 66 255 66 66 255 66 66 255 66 66 255 67 67 255 67 67 255 67 67 255 67 67 255 67 67 255 68 68 255 68 68 255 68 68 255 68 68 255 68 68 255 68 68 255 68 68 255 69 69 255 69 69 255 69 69 255 69 69 255 69 69 255 69 69 255 69 69 255 70 70 255 70 70 255 70 70 255 70 70 255 70 70 255 70 70 255 70 70 255 70 70 255 70 70 255 70 70 255 70 70 255 71 71 255 71 71 255 71 71 255 71 71 255 71 71 255 71 71 255 71 71 255 71 71 255 71 71 255 71 71 255 71 71 255 71 71 255 71 71 255 71 71 255 71 71 255 71 71 255 71 71 255 71 71 255 71 71 255 71 71 255 71 71 254 71 71 254 71 71 254 71 71 254 71 71 254 71 71 253 71 71 253 71 71 253 70 70 253 70 70 252 70 70 252 70 70 252 70 70 251 70 70 251 70 70 251 70 70 251 70 70 250 70 70 250 70 70 250 69 69 249 69 69 249 
1 1 238 1 1 238 1 1 238 1 1 237 1 1 237 1 1 237 1 1 237 1 1 237 1 1 237 1 1 237 1 1 237 2 2 237 2 2 237 2 2 237 2 2 237 2 2 237 2 2 237 2 2 237 2 2 237 2 2 237 3 3 237 3 3 237 3 3 237 3 3 237 3 3 237 3 3 237 3 3 237 4 4 237 4 4 237 4 4 237 4 4 237 4 4 237 4 4 237 5 5 237 5 5 237 5 5 237 5 5 237 5 5 237 5 5 237 6 6 237 6 6 237 6 6 237 6 6 237 6 6 237 7 7 237 7 7 237 7 7 237 7 7 237 7 7 237 8 8 237 8 8 237 8 8 237 8 8 237 8 8 237 9 9 237 9 9 238 9 9 238 9 9 238 10 10 238 10 10 238 10 10 238 10 10 238 11 11 238 11 11 238 11 11 238 11 11 238 12 12 238 12 12 238 12 12 238 13 13 239 13 13 239 13 13 239 13 13 239 14 14 239 14 14 239 14 14 239 14 14 239 15 15 239 15 15 239 15 15 240 16 16 240 16 16 240 16 16 240 17 17 240 17 17 240 17 17 240 18 18 240 18 18 240 18 18 241 18 18 241 19 19 241 19 19 241 19 19 241 20 20 241 20 20 241 20 20 242 21 21 242 21 21 242 21 21 242 22 22 242 22 22 242 23 23 242 23 23 243 23 23 243 24 24 243 24 24 243 24 24 243 25 25 243 25 25 243 25 25 244 26 26 244 26 26 244 26 26 244 27 27 244 27 27 244 28 28 245 28 28 245 28 28 245 29 29 245 29 29 245 29 29 245 30 30 246 30 30 246 31 31 246 31 31 246 31 31 246 32 32 246 32 32 247 32 32 247 33 33 247 33 33 247 34 34 247 34 34 248 34 34 248 35 35 248 35 35 248 36 36 248 36 36 248 36 36 249 37 37 249 37 37 249 38 38 249 38 38 249 38 38 249 39 39 250 39 39 250 39 39 250 40 40 250 40 40 250 41 41 251 41 41 251 41 41 251 42 42 251 42 42 251 43 43 251 43 43 252 43 43 252 44 44 252 44 44 252 45 45 252 45 45 252 45 45 253 46 46 253 46 46 253 46 46 253 47 47 253 47 47 253 48 48 254 48 48 254 48 48 254 49 49 254 49 49 254 49 49 254 50 50 255 50 50 255 50 50 255 51 51 255 51 51 255 52 52 255 52 52 255 52 52 255 53 53 255 53 53 255 53 53 255 54 54 255 54 54 255 54 54 255 55 55 255 55 55 255 55 55 255 56 56 255 56 56 255 56 56 255 57 57 255 57 57 255 57 57 255 58 58 255 58 58 255 58 58 255 59 59 255 59 59 255 59 59 255 59 59 255 60 60 255 60 60 255 60 60 255 61 61 255 61 61 255 61 61 255 61 61 255 62 62 255 62 62 255 62 62 255 63 63 255 63 63 255 63 63 255 63 63 255 64 64 255 64 64 255 64 64 255 64 64 255 65 65 255 65 65 255 65 65 255 65 65 255 65 65 255 66 66 255 66 66 255 66 66 255 66 66 255 66 66 255 67 67 255 67 67 255 67 67 255 67 67 255 67 67 255 68 68 255 68 68 255 68 68 255 68 68 255 68 68 255 68 68 255 68 68 255 69 69 255 69 69 255 69 69 255 69 69 255 69 69 255 69 69 255 69 69 255 69 69 255 70 70 255 70 70 255 70 70 255 70 70 255 70 70 255 70 70 255 70 70 255 70 70 255 70 70 255 70 70 255 70 70 255 70 70 255 70 70 255 70 70 255 70 70 255 70 70 255 71 71 255 71 71 255 71 71 255 71 71 255 71 71 255 71 71 255 71 71 255 71 71 254 71 71 254 71 71 254 71 71 254 70 70 254 70 70 253 70 70 253 70 70 253 70 70 253 70 70 252 70 70 252 70 70 252 70 70 252 70 70 251 70 70 251 70 70 251 70 70 251 70 70 250 70 70 250 70 70 250 69 69 249 69 69 249 69 69 249 69 69 248 69 69 248 69 69 248 
0 0 237 0 0 237 1 1 236 1 1 236 1 1 236 1 1 236 1 1 236 1 1 236 1 1 236 1 1 236 1 1 236 1 1 236 1 1 236 1 1 236 2 2 236 2 2 236 2 2 236 2 2 236 2 2 236 2 2 236 2 2 236 2 2 236 3 3 236 3 3 236 3 3 236 3 3 236 3 3 236 3 3 236 3 3 236 4 4 236 4 4 236 4 4 236 4 4 236 4 4 236 4 4 236 5 5 236 5 5 236 5 5 236 5 5 236 5 5 236 5 5 236 6 6 236 6 6 236 6 6 236 6 6 236 6 6 236 7 7 236 7 7 236 7 7 236 7 7 236 7 7 236 8 8 236 8 8 236 8 8 236 8 8 236 9 9 236 9 9 236 9 9 236 9 9 236 9 9 237 10 10 237 10 10 237 10 10 237 10 10 237 11 11 237 11 11 237 11 11 237 11 11 237 12 12 237 12 12 237 12 12 237 13 13 237 13 13 238 13 13 238 13 13 238 14 14 238 14 14 238 14 14 238 15 15 238 15 15 238 15 15 238 15 15 238 16 16 239 16 16 239 16 16 239 17 17 239 17 17 239 17 17 239 18 18 239 18 18 239 18 18 240 19 19 240 19 19 240 19 19 240 20 20 240 20 20 240 20 20 240 21 21 240 21 21 241 21 21 241 22 22 241 22 22 241 22 22 241 23 23 241 23 23 242 23 23 242 24 24 242 24 24 242 24 24 242 25 25 242 25 25 242 25 25 243 26 26 243 26 26 243 27 27 243 27 27 243 27 27 243 28 28 244 28 28 244 28 28 244 29 29 244 29 29 244 30 30 244 30 30 245 30 30 245 31 31 245 31 31 245 31 31 245 32 32 245 32 32 246 33 33 246 33 33 246 33 33 246 34 34 246 34 34 247 35 35 247 35 35 247 35 35 247 36 36 247 36 36 247 37 37 248 37 37 248 37 37 248 38 38 248 38 38 248 38 38 249 39 39 249 39 39 249 40 40 249 40 40 249 40 40 249 41 41 250 41 41 250 42 42 250 42 42 250 42 42 250 43 43 250 43 43 251 44 44 251 44 44 251 44 44 251 45 45 251 45 45 252 45 45 252 46 46 252 46 46 252 47 47 252 47 47 252 47 47 253 48 48 253 48 48 253 48 48 253 49 49 253 49 49 253 50 50 253 50 50 254 50 50 254 51 51 254 51 51 254 51 51 254 52 52 254 52 52 255 52 52 255 53 53 255 53 53 255 54 54 255 54 54 255 54 54 255 55 55 255 55 55 255 55 55 255 56 56 255 56 56 255 56 56 255 57 57 255 57 57 255 57 57 255 57 57 255 58 58 255 58 58 255 58 58 255 59 59 255 59 59 255 59 59 255 60 60 255 60 60 255 60 60 255 60 60 255 61 61 255 61 61 255 61 61 255 62 62 255 62 62 255 62 62 255 62 62 255 63 63 255 63 63 255 63 63 255 63 63 255 64 64 255 64 64 255 64 64 255 64 64 255 65 65 255 65 65 255 65 65 255 65 65 255 65 65 255 66 66 255 66 66 255 66 66 255 66 66 255 66 66 255 67 67 255 67 67 255 67 67 255 67 67 255 67 67 255 67 67 255 68 68 255 68 68 255 68 68 255 68 68 255 68 68 255 68 68 255 68 68 255 69 69 255 69 69 255 69 69 255 69 69 255 69 69 255 69 69 255 69 69 255 69 69 255 69 69 255 70 70 255 70 70 255 70 70 255 70 70 255 70 70 255 70 70 255 70 70 255 70 70 255 70 70 255 70 70 255 70 70 255 70 70 255 70 70 255 70 70 254 70 70 254 70 70 254 70 70 254 70 70 254 70 70 253 70 70 253 70 70 253 70 70 253 70 70 253 70 70 252 70 70 252 70 70 252 70 70 252 70 70 251 70 70 251 70 70 251 70 70 251 70 70 250 70 70 250 70 70 250 69 69 250 69 69 249 69 69 249 69 69 249 69 69 248 69 69 248 69 69 248 69 69 247 69 69 247 68 68 247 68 68 247 
0 0 236 0 0 235 0 0 235 0 0 235 0 0 235 1 1 235 1 1 235 1 1 235 1 1 235 1 1 235 1 1 235 1 1 235 1 1 235 1 1 235 1 1 235 1 1 235 2 2 235 2 2 235 2 2 235 2 2 235 2 2 235 2 2 235 2 2 235 2 2 235 3 3 235 3 3 235 3 3 235 3 3 235 3 3 235 3 3 235 3 3 235 4 4 234 4 4 234 4 4 234 4 4 235 4 4 235 4 4 235 4 4 235 5 5 235 5 5 235 5 5 235 5 5 235 5 5 235 6 6 235 6 6 235 6 6 235 6 6 235 6 6 235 7 7 235 7 7 235 7 7 235 7 7 235 7 7 235 8 8 235 8 8 235 8 8 235 8 8 235 8 8 235 9 9 235 9 9 235 9 9 235 9 9 235 10 10 235 10 10 236 10 10 236 10 10 236 11 11 236 11 11 236 11 11 236 11 11 236 12 12 236 12 12 236 12 12 236 13 13 236 13 13 236 13 13 237 13 13 237 14 14 237 14 14 237 14 14 237 15 15 237 15 15 237 15 15 237 15 15 237 16 16 237 16 16 238 16 16 238 17 17 238 17 17 238 17 17 238 18 18 238 18 18 238 18 18 238 19 19 239 19 19 239 19 19 239 20 20 239 20 20 239 20 20 239 21 21 239 21 21 240 21 21 240 22 22 240 22 22 240 22 22 240 23 23 240 23 23 240 23 23 241 24 24 241 24 24 241 25 25 241 25 25 241 25 25 241 26 26 242 26 26 242 26 26 242 27 27 242 27 27 242 27 27 242 28 28 243 28 28 243 29 29 243 29 29 243 29 29 243 30 30 243 30 30 244 30 30 244 31 31 244 31 31 244 32 32 244 32 32 244 32 32 245 33 33 245 33 33 245 34 34 245 34 34 245 34 34 246 35 35 246 35 35 246 36 36 246 36 36 246 36 36 246 37 37 247 37 37 247 37 37 247 38 38 247 38 38 247 39 39 248 39 39 248 39 39 248 40 40 248 40 40 248 41 41 248 41 41 249 41 41 249 42 42 249 42 42 249 43 43 249 43 43 249 43 43 250 44 44 250 44 44 250 45 45 250 45 45 250 45 45 251 46 46 251 46 46 251 46 46 251 47 47 251 47 47 251 48 48 252 48 48 252 48 48 252 49 49 252 49 49 252 49 49 252 50 50 252 50 50 253 51 51 253 51 51 253 51 51 253 52 52 253 52 52 253 52 52 253 53 53 254 53 53 254 53 53 254 54 54 254 54 54 254 54 54 254 55 55 254 55 55 255 55 55 255 56 56 255 56 56 255 56 56 255 57 57 255 57 57 255 57 57 255 58 58 255 58 58 255 58 58 255 59 59 255 59 59 255 59 59 255 59 59 255 60 60 255 60 60 255 60 60 255 61 61 255 61 61 255 61 61 255 61 61 255 62 62 255 62 62 255 62 62 255 62 62 255 63 63 255 63 63 255 63 63 255 63 63 255 64 64 255 64 64 255 64 64 255 64 64 255 65 65 255 65 65 255 65 65 255 65 65 255 65 65 255 66 66 255 66 66 255 66 66 255 66 66 255 66 66 255 67 67 255 67 67 255 67 67 255 67 67 255 67 67 255 67 67 255 67 67 255 68 68 255 68 68 255 68 68 255 68 68 255 68 68 255 68 68 255 68 68 255 69 69 255 69 69 255 69 69 255 69 69 255 69 69 255 69 69 255 69 69 255 69 69 255 69 69 255 69 69 255 69 69 255 69 69 255 69 69 254 70 70 254 70 70 254 70 70 254 70 70 254 70 70 254 70 70 253 70 70 253 70 70 253 70 70 253 70 70 253 70 70 252 70 70 252 70 70 252 70 70 252 70 70 252 70 70 251 70 70 251 70 70 251 70 70 251 69 69 250 69 69 250 69 69 250 69 69 250 69 69 249 69 69 249 69 69 249 69 69 249 69 69 248 69 69 248 69 69 248 69 69 247 69 69 247 68 68 247 68 68 246 68 68 246 68 68 246 68 68 245 68 68 245 
0 0 234 0 0 234 0 0 234 0 0 234 0 0 234 0 0 234 0 0 234 1 1 234 1 1 234 1 1 234 1 1 234 1 1 234 1 1 234 1 1 234 1 1 234 1 1 234 1 1 234 1 1 234 2 2 234 2 2 234 2 2 233 2 2 233 2 2 233 2 2 233 2 2 233 2 2 233 2 2 233 3 3 233 3 3 233 3 3 233 3 3 233 3 3 233 3 3 233 3 3 233 4 4 233 4 4 233 4 4 233 4 4 233 4 4 233 4 4 233 5 5 233 5 5 233 5 5 233 5 5 233 5 5 233 6 6 233 6 6 233 6 6 233 6 6 234 6 6 234 7 7 234 7 7 234 7 7 234 7 7 234 7 7 234 8 8 234 8 8 234 8 8 234 8 8 234 8 8 234 9 9 234 9 9 234 9 9 234 9 9 234 10 10 234 10 10 234 10 10 234 10 10 235 11 11 235 11 11 235 11 11 235 11 11 235 12 12 235 12 12 235 12 12 235 13 13 235 13 13 235 13 13 235 13 13 235 14 14 236 14 14 236 14 14 236 15 15 236 15 15 236 15 15 236 15 15 236 16 16 236 16 16 236 16 16 237 17 17 237 17 17 237 17 17 237 18 18 237 18 18 237 18 18 237 19 19 237 19 19 238 19 19 238 20 20 238 20 20 238 20 20 238 21 21 238 21 21 238 21 21 239 22 22 239 22 22 239 22 22 239 23 23 239 23 23 239 24 24 239 24 24 240 24 24 240 25 25 240 25 25 240 25 25 240 26 26 240 26 26 241 26 26 241 27 27 241 27 27 241 28 28 241 28 28 241 28 28 242 29 29 242 29 29 242 29 29 242 30 30 242 30 30 242 31 31 243 31 31 243 31 31 243 32 32 243 32 32 243 33 33 244 33 33 244 33 33 244 34 34 244 34 34 244 34 34 244 35 35 245 35 35 245 36 36 245 36 36 245 36 36 245 37 37 246 37 37 246 38 38 246 38 38 246 38 38 246 39 39 246 39 39 247 40 40 247 40 40 247 40 40 247 41 41 247 41 41 248 42 42 248 42 42 248 42 42 248 43 43 248 43 43 248 43 43 249 44 44 249 44 44 249 45 45 249 45 45 249 45 45 249 46 46 250 46 46 250 47 47 250 47 47 250 47 47 250 48 48 250 48 48 251 48 48 251 49 49 251 49 49 251 50 50 251 50 50 251 50 50 252 51 51 252 51 51 252 51 51 252 52 52 252 52 52 252 52 52 252 53 53 253 53 53 253 53 53 253 54 54 253 54 54 253 54 54 253 55 55 253 55 55 253 55 55 254 56 56 254 56 56 254 56 56 254 57 57 254 57 57 254 57 57 254 58 58 254 58 58 254 58 58 254 59 59 255 59 59 255 59 59 255 60 60 255 60 60 255 60 60 255 60 60 255 61 61 255 61 61 255 61 61 255 61 61 255 62 62 255 62 62 255 62 62 255 62 62 255 63 63 255 63 63 255 63 63 255 63 63 255 64 64 255 64 64 255 64 64 255 64 64 255 65 65 255 65 65 255 65 65 255 65 65 255 65 65 255 66 66 255 66 66 255 66 66 255 66 66 255 66 66 255 66 66 255 67 67 255 67 67 255 67 67 255 67 67 255 67 67 255 67 67 255 67 67 255 68 68 255 68 68 255 68 68 255 68 68 255 68 68 255 68 68 254 68 68 254 68 68 254 68 68 254 69 69 254 69 69 254 69 69 254 69 69 254 69 69 254 69 69 253 69 69 253 69 69 253 69 69 253 69 69 253 69 69 253 69 69 252 69 69 252 69 69 252 69 69 252 69 69 252 69 69 251 69 69 251 69 69 251 69 69 251 69 69 251 69 69 250 69 69 250 69 69 250 69 69 250 69 69 250 69 69 249 69 69 249 69 69 249 69 69 249 69 69 248 69 69 248 69 69 248 69 69 247 68 68 247 68 68 247 68 68 247 68 68 246 68 68 246 68 68 246 68 68 245 68 68 245 68 68 245 67 67 244 67 67 244 67 67 244 
0 0 233 0 0 233 0 0 233 0 0 233 0 0 233 0 0 233 0 0 233 0 0 233 0 0 233 0 0 233 1 1 233 1 1 233 1 1 233 1 1 233 1 1 233 1 1 232 1 1 232 1 1 232 1 1 232 1 1 232 1 1 232 2 2 232 2 2 232 2 2 232 2 2 232 2 2 232 2 2 232 2 2 232 2 2 232 3 3 232 3 3 232 3 3 232 3 3 232 3 3 232 3 3 232 3 3 232 4 4 232 4 4 232 4 4 232 4 4 232 4 4 232 4 4 232 5 5 232 5 5 232 5 5 232 5 5 232 5 5 232 5 5 232 6 6 232 6 6 232 6 6 232 6 6 232 6 6 232 7 7 232 7 7 232 7 7 232 7 7 232 8 8 233 8 8 233 8 8 233 8 8 233 8 8 233 9 9 233 9 9 233 9 9 233 9 9 233 10 10 233 10 10 233 10 10 233 10 10 233 11 11 233 11 11 233 11 11 234 11 11 234 12 12 234 12 12 234 12 12 234 13 13 234 13 13 234 13 13 234 13 13 234 14 14 234 14 14 234 14 14 235 15 15 235 15 15 235 15 15 235 15 15 235 16 16 235 16 16 235 16 16 235 17 17 235 17 17 236 17 17 236 18 18 236 18 18 236 18 18 236 19 19 236 19 19 236 19 19 237 20 20 237 20 20 237 20 20 237 21 21 237 21 21 237 21 21 237 22 22 238 22 22 238 22 22 238 23 23 238 23 23 238 24 24 238 24 24 238 24 24 239 25 25 239 25 25 239 25 25 239 26 26 239 26 26 239 26 26 240 27 27 240 27 27 240 28 28 240 28 28 240 28 28 240 29 29 241 29 29 241 30 30 241 30 30 241 30 30 241 31 31 242 31 31 242 31 31 242 32 32 242 32 32 242 33 33 242 33 33 243 33 33 243 34 34 243 34 34 243 35 35 243 35 35 244 35 35 244 36 36 244 36 36 244 37 37 244 37 37 244 37 37 245 38 38 245 38 38 245 39 39 245 39 39 245 39 39 246 40 40 246 40 40 246 40 40 246 41 41 246 41 41 246 42 42 247 42 42 247 42 42 247 43 43 247 43 43 247 44 44 247 44 44 248 44 44 248 45 45 248 45 45 248 46 46 248 46 46 249 46 46 249 47 47 249 47 47 249 47 47 249 48 48 249 48 48 249 49 49 250 49 49 250 49 49 250 50 50 250 50 50 250 50 50 250 51 51 251 51 51 251 51 51 251 52 52 251 52 52 251 53 53 251 53 53 251 53 53 252 54 54 252 54 54 252 54 54 252 55 55 252 55 55 252 55 55 252 56 56 252 56 56 252 56 56 253 57 57 253 57 57 253 57 57 253 57 57 253 58 58 253 58 58 253 58 58 253 59 59 253 59 59 253 59 59 253 60 60 254 60 60 254 60 60 254 60 60 254 61 61 254 61 61 254 61 61 254 61 61 254 62 62 254 62 62 254 62 62 254 62 62 254 63 63 254 63 63 254 63 63 254 63 63 254 64 64 254 64 64 254 64 64 254 64 64 254 64 64 254 65 65 254 65 65 254 65 65 254 65 65 254 65 65 254 66 66 254 66 66 254 66 66 254 66 66 254 66 66 254 66 66 254 67 67 254 67 67 254 67 67 254 67 67 254 67 67 254 67 67 254 67 67 253 67 67 253 68 68 253 68 68 253 68 68 253 68 68 253 68 68 253 68 68 253 68 68 253 68 68 252 68 68 252 68 68 252 68 68 252 68 68 252 69 69 252 69 69 252 69 69 251 69 69 251 69 69 251 69 69 251 69 69 251 69 69 251 69 69 250 69 69 250 69 69 250 69 69 250 69 69 250 69 69 249 69 69 249 69 69 249 69 69 249 69 69 248 69 69 248 68 68 248 68 68 248 68 68 247 68 68 247 68 68 247 68 68 247 68 68 246 68 68 246 68 68 246 68 68 245 68 68 245 68 68 245 67 67 245 67 67 244 67 67 244 67 67 244 67 67 243 67 67 243 67 67 243 67 67 242 
0 0 232 0 0 232 0 0 232 0 0 232 0 0 232 0 0 232 0 0 232 0 0 232 0 0 232 0 0 232 0 0 232 0 0 231 1 1 231 1 1 231 1 1 231 1 1 231 1 1 231 1 1 231 1 1 231 1 1 231 1 1 231 1 1 231 1 1 231 2 2 231 2 2 231 2 2 231 2 2 231 2 2 231 2 2 231 2 2 231 2 2 231 2 2 231 3 3 231 3 3 231 3 3 231 3 3 231 3 3 231 3 3 231 4 4 231 4 4 231 4 4 231 4 4 231 4 4 231 4 4 231 5 5 231 5 5 231 5 5 231 5 5 231 5 5 231 5 5 231 6 6 231 6 6 231 6 6 231 6 6 231 6 6 231 7 7 231 7 7 231 7 7 231 7 7 231 7 7 231 8 8 231 8 8 231 8 8 231 8 8 231 9 9 232 9 9 232 9 9 232 9 9 232 10 10 232 10 10 232 10 10 232 10 10 232 11 11 232 11 11 232 11 11 232 11 11 232 12 12 232 12 12 232 12 12 233 13 13 233 13 13 233 13 13 233 13 13 233 14 14 233 14 14 233 14 14 233 15 15 233 15 15 234 15 15 234 15 15 234 16 16 234 16 16 234 16 16 234 17 17 234 17 17 234 17 17 234 18 18 235 18 18 235 18 18 235 19 19 235 19 19 235 19 19 235 20 20 235 20 20 236 20 20 236 21 21 236 21 21 236 21 21 236 22 22 236 22 22 236 22 22 237 23 23 237 23 23 237 24 24 237 24 24 237 24 24 237 25 25 238 25 25 238 25 25 238 26 26 238 26 26 238 27 27 238 27 27 239 27 27 239 28 28 239 28 28 239 28 28 239 29 29 239 29 29 240 30 30 240 30 30 240 30 30 240 31 31 240 31 31 240 31 31 241 32 32 241 32 32 241 33 33 241 33 33 241 33 33 242 34 34 242 34 34 242 35 35 242 35 35 242 35 35 242 36 36 243 36 36 243 37 37 243 37 37 243 37 37 243 38 38 244 38 38 244 39 39 244 39 39 244 39 39 244 40 40 245 40 40 245 41 41 245 41 41 245 41 41 245 42 42 245 42 42 246 43 43 246 43 43 246 43 43 246 44 44 246 44 44 246 44 44 247 45 45 247 45 45 247 46 46 247 46 46 247 46 46 247 47 47 248 47 47 248 48 48 248 48 48 248 48 48 248 49 49 248 49 49 249 49 49 249 50 50 249 50 50 249 50 50 249 51 51 249 51 51 249 52 52 250 52 52 250 52 52 250 53 53 250 53 53 250 53 53 250 54 54 250 54 54 251 54 54 251 55 55 251 55 55 251 55 55 251 56 56 251 56 56 251 56 56 251 57 57 251 57 57 252 57 57 252 57 57 252 58 58 252 58 58 252 58 58 252 59 59 252 59 59 252 59 59 252 60 60 252 60 60 252 60 60 252 60 60 252 61 61 253 61 61 253 61 61 253 61 61 253 62 62 253 62 62 253 62 62 253 62 62 253 63 63 253 63 63 253 63 63 253 63 63 253 63 63 253 64 64 253 64 64 253 64 64 253 64 64 253 64 64 253 65 65 253 65 65 253 65 65 253 65 65 253 65 65 253 66 66 253 66 66 253 66 66 253 66 66 252 66 66 252 66 66 252 66 66 252 67 67 252 67 67 252 67 67 252 67 67 252 67 67 252 67 67 252 67 67 252 67 67 252 67 67 251 68 68 251 68 68 251 68 68 251 68 68 251 68 68 251 68 68 251 68 68 250 68 68 250 68 68 250 68 68 250 68 68 250 68 68 250 68 68 249 68 68 249 68 68 249 68 68 249 68 68 249 68 68 248 68 68 248 68 68 248 68 68 248 68 68 248 68 68 247 68 68 247 68 68 247 68 68 247 68 68 246 68 68 246 68 68 246 68 68 246 68 68 245 68 68 245 67 67 245 67 67 244 67 67 244 67 67 244 67 67 244 67 67 243 67 67 243 67 67 243 67 67 242 66 66 242 66 66 242 66 66 241 66 66 241 66 66 241 
0 0 231 0 0 231 0 0 231 0 0 231 0 0 231 0 0 231 0 0 231 0 0 231 0 0 230 0 0 230 0 0 230 0 0 230 0 0 230 0 0 230 0 0 230 1 1 230 1 1 230 1 1 230 1 1 230 1 1 230 1 1 230 1 1 230 1 1 230 1 1 230 1 1 230 1 1 230 2 2 230 2 2 230 2 2 230 2 2 230 2 2 229 2 2 229 2 2 229 2 2 229 3 3 229 3 3 229 3 3 229 3 3 229 3 3 229 3 3 229 3 3 229 4 4 229 4 4 229 4 4 229 4 4 229 4 4 229 4 4 229 5 5 229 5 5 229 5 5 229 5 5 229 5 5 230 6 6 230 6 6 230 6 6 230 6 6 230 6 6 230 7 7 230 7 7 230 7 7 230 7 7 230 7 7 230 8 8 230 8 8 230 8 8 230 8 8 230 9 9 230 9 9 230 9 9 230 9 9 230 10 10 230 10 10 231 10 10 231 10 10 231 11 11 231 11 11 231 11 11 231 11 11 231 12 12 231 12 12 231 12 12 231 12 12 231 13 13 231 13 13 232 13 13 232 14 14 232 14 14 232 14 14 232 15 15 232 15 15 232 15 15 232 15 15 232 16 16 233 16 16 233 16 16 233 17 17 233 17 17 233 17 17 233 18 18 233 18 18 233 18 18 234 19 19 234 19 19 234 19 19 234 20 20 234 20 20 234 20 20 234 21 21 235 21 21 235 21 21 235 22 22 235 22 22 235 22 22 235 23 23 235 23 23 236 24 24 236 24 24 236 24 24 236 25 25 236 25 25 236 25 25 237 26 26 237 26 26 237 27 27 237 27 27 237 27 27 237 28 28 238 28 28 238 28 28 238 29 29 238 29 29 238 30 30 239 30 30 239 30 30 239 31 31 239 31 31 239 32 32 239 32 32 240 32 32 240 33 33 240 33 33 240 33 33 240 34 34 241 34 34 241 35 35 241 35 35 241 35 35 241 36 36 241 36 36 242 37 37 242 37 37 242 37 37 242 38 38 242 38 38 243 39 39 243 39 39 243 39 39 243 40 40 243 40 40 243 41 41 244 41 41 244 41 41 244 42 42 244 42 42 244 43 43 245 43 43 245 43 43 245 44 44 245 44 44 245 44 44 245 45 45 246 45 45 246 46 46 246 46 46 246 46 46 246 47 47 246 47 47 247 48 48 247 48 48 247 48 48 247 49 49 247 49 49 247 49 49 247 50 50 248 50 50 248 50 50 248 51 51 248 51 51 248 52 52 248 52 52 248 52 52 249 53 53 249 53 53 249 53 53 249 54 54 249 54 54 249 54 54 249 55 55 249 55 55 250 55 55 250 56 56 250 56 56 250 56 56 250 57 57 250 57 57 250 57 57 250 57 57 250 58 58 250 58 58 251 58 58 251 59 59 251 59 59 251 59 59 251 59 59 251 60 60 251 60 60 251 60 60 251 60 60 251 61 61 251 61 61 251 61 61 251 61 61 251 62 62 251 62 62 251 62 62 251 62 62 251 63 63 251 63 63 251 63 63 251 63 63 251 63 63 251 64 64 251 64 64 251 64 64 251 64 64 251 64 64 251 65 65 251 65 65 251 65 65 251 65 65 251 65 65 251 65 65 251 66 66 251 66 66 251 66 66 251 66 66 251 66 66 251 66 66 251 66 66 250 66 66 250 67 67 250 67 67 250 67 67 250 67 67 250 67 67 250 67 67 250 67 67 250 67 67 249 67 67 249 67 67 249 67 67 249 67 67 249 67 67 249 67 67 249 67 67 248 68 68 248 68 68 248 68 68 248 68 68 248 68 68 247 68 68 247 68 68 247 68 68 247 68 68 247 67 67 246 67 67 246 67 67 246 67 67 246 67 67 245 67 67 245 67 67 245 67 67 245 67 67 244 67 67 244 67 67 244 67 67 244 67 67 243 67 67 243 67 67 243 66 66 242 66 66 242 66 66 242 66 66 241 66 66 241 66 66 241 66 66 240 66 66 240 65 65 240 65 65 239 65 65 239 
0 0 230 0 0 230 0 0 230 0 0 230 0 0 230 0 0 229 0 0 229 0 0 229 0 0 229 0 0 229 0 0 229 0 0 229 0 0 229 0 0 229 0 0 229 0 0 229 0 0 229 0 0 229 1 1 229 1 1 229 1 1 229 1 1 228 1 1 228 1 1 228 1 1 228 1 1 228 1 1 228 1 1 228 2 2 228 2 2 228 2 2 228 2 2 228 2 2 228 2 2 228 2 2 228 2 2 228 2 2 228 3 3 228 3 3 228 3 3 228 3 3 228 3 3 228 3 3 228 4 4 228 4 4 228 4 4 228 4 4 228 4 4 228 4 4 228 5 5 228 5 5 228 5 5 228 5 5 228 5 5 228 5 5 228 6 6 228 6 6 228 6 6 228 6 6 228 6 6 228 7 7 228 7 7 228 7 7 228 7 7 228 8 8 229 8 8 229 8 8 229 8 8 229 8 8 229 9 9 229 9 9 229 9 9 229 9 9 229 10 10 229 10 10 229 10 10 229 10 10 229 11 11 229 11 11 230 11 11 230 12 12 230 12 12 230 12 12 230 12 12 230 13 13 230 13 13 230 13 13 230 14 14 230 14 14 230 14 14 231 14 14 231 15 15 231 15 15 231 15 15 231 16 16 231 16 16 231 16 16 231 17 17 232 17 17 232 17 17 232 18 18 232 18 18 232 18 18 232 19 19 232 19 19 232 19 19 233 20 20 233 20 20 233 20 20 233 21 21 233 21 21 233 21 21 233 22 22 234 22 22 234 22 22 234 23 23 234 23 23 234 24 24 234 24 24 235 24 24 235 25 25 235 25 25 235 25 25 235 26 26 235 26 26 236 26 26 236 27 27 236 27 27 236 28 28 236 28 28 236 28 28 237 29 29 237 29 29 237 30 30 237 30 30 237 30 30 238 31 31 238 31 31 238 31 31 238 32 32 238 32 32 238 33 33 239 33 33 239 33 33 239 34 34 239 34 34 239 35 35 240 35 35 240 35 35 240 36 36 240 36 36 240 37 37 240 37 37 241 37 37 241 38 38 241 38 38 241 39 39 241 39 39 242 39 39 242 40 40 242 40 40 242 41 41 242 41 41 242 41 41 243 42 42 243 42 42 243 43 43 243 43 43 243 43 43 244 44 44 244 44 44 244 44 44 244 45 45 244 45 45 244 46 46 245 46 46 245 46 46 245 47 47 245 47 47 245 48 48 245 48 48 246 48 48 246 49 49 246 49 49 246 49 49 246 50 50 246 50 50 246 50 50 247 51 51 247 51 51 247 51 51 247 52 52 247 52 52 247 53 53 247 53 53 248 53 53 248 54 54 248 54 54 248 54 54 248 55 55 248 55 55 248 55 55 248 55 55 248 56 56 249 56 56 249 56 56 249 57 57 249 57 57 249 57 57 249 58 58 249 58 58 249 58 58 249 58 58 249 59 59 249 59 59 249 59 59 249 60 60 250 60 60 250 60 60 250 60 60 250 61 61 250 61 61 250 61 61 250 61 61 250 62 62 250 62 62 250 62 62 250 62 62 250 62 62 250 63 63 250 63 63 250 63 63 250 63 63 250 63 63 250 64 64 250 64 64 250 64 64 250 64 64 250 64 64 250 64 64 250 65 65 250 65 65 249 65 65 249 65 65 249 65 65 249 65 65 249 65 65 249 66 66 249 66 66 249 66 66 249 66 66 249 66 66 249 66 66 249 66 66 248 66 66 248 66 66 248 66 66 248 67 67 248 67 67 248 67 67 248 67 67 247 67 67 247 67 67 247 67 67 247 67 67 247 67 67 247 67 67 246 67 67 246 67 67 246 67 67 246 67 67 246 67 67 245 67 67 245 67 67 245 67 67 245 67 67 244 67 67 244 67 67 244 67 67 244 67 67 244 67 67 243 66 66 243 66 66 243 66 66 242 66 66 242 66 66 242 66 66 242 66 66 241 66 66 241 66 66 241 66 66 240 65 65 240 65 65 240 65 65 239 65 65 239 65 65 239 65 65 238 65 65 238 64 64 238 64 64 237 
0 0 229 0 0 229 0 0 228 0 0 228 0 0 228 0 0 228 0 0 228 0 0 228 0 0 228 0 0 228 0 0 228 0 0 228 0 0 228 0 0 228 0 0 228 0 0 227 0 0 227 0 0 227 0 0 227 0 0 227 1 1 227 1 1 227 1 1 227 1 1 227 1 1 227 1 1 227 1 1 227 1 1 227 1 1 227 1 1 227 1 1 227 2 2 227 2 2 227 2 2 227 2 2 227 2 2 227 2 2 227 2 2 227 2 2 227 3 3 227 3 3 227 3 3 227 3 3 227 3 3 227 3 3 227 3 3 227 4 4 227 4 4 227 4 4 227 4 4 227 4 4 227 4 4 227 5 5 227 5 5 227 5 5 227 5 5 227 5 5 227 6 6 227 6 6 227 6 6 227 6 6 227 6 6 227 7 7 227 7 7 227 7 7 227 7 7 227 7 7 227 8 8 227 8 8 227 8 8 227 8 8 227 9 9 227 9 9 227 9 9 228 9 9 228 10 10 228 10 10 228 10 10 228 10 10 228 11 11 228 11 11 228 11 11 228 11 11 228 12 12 228 12 12 228 12 12 229 13 13 229 13 13 229 13 13 229 13 13 229 14 14 229 14 14 229 14 14 229 15 15 229 15 15 229 15 15 230 16 16 230 16 16 230 16 16 230 17 17 230 17 17 230 17 17 230 18 18 230 18 18 231 18 18 231 19 19 231 19 19 231 19 19 231 20 20 231 20 20 231 20 20 232 21 21 232 21 21 232 21 21 232 22 22 232 22 22 232 22 22 233 23 23 233 23 23 233 23 23 233 24 24 233 24 24 233 25 25 234 25 25 234 25 25 234 26 26 234 26 26 234 26 26 234 27 27 235 27 27 235 28 28 235 28 28 235 28 28 235 29 29 235 29 29 236 29 29 236 30 30 236 30 30 236 31 31 236 31 31 236 31 31 237 32 32 237 32 32 237 33 33 237 33 33 237 33 33 238 34 34 238 34 34 238 35 35 238 35 35 238 35 35 239 36 36 239 36 36 239 37 37 239 37 37 239 37 37 239 38 38 240 38 38 240 39 39 240 39 39 240 39 39 240 40 40 241 40 40 241 41 41 241 41 41 241 41 41 241 42 42 241 42 42 242 43 43 242 43 43 242 43 43 242 44 44 242 44 44 242 44 44 243 45 45 243 45 45 243 46 46 243 46 46 243 46 46 243 47 47 244 47 47 244 47 47 244 48 48 244 48 48 244 49 49 244 49 49 245 49 49 245 50 50 245 50 50 245 50 50 245 51 51 245 51 51 245 51 51 246 52 52 246 52 52 246 52 52 246 53 53 246 53 53 246 53 53 246 54 54 246 54 54 247 54 54 247 55 55 247 55 55 247 55 55 247 56 56 247 56 56 247 56 56 247 57 57 247 57 57 247 57 57 247 57 57 248 58 58 248 58 58 248 58 58 248 59 59 248 59 59 248 59 59 248 59 59 248 60 60 248 60 60 248 60 60 248 60 60 248 61 61 248 61 61 248 61 61 248 61 61 248 62 62 248 62 62 248 62 62 248 62 62 248 62 62 248 63 63 248 63 63 248 63 63 248 63 63 248 63 63 248 63 63 248 64 64 248 64 64 248 64 64 248 64 64 248 64 64 248 64 64 248 65 65 248 65 65 248 65 65 248 65 65 247 65 65 247 65 65 247 65 65 247 65 65 247 65 65 247 66 66 247 66 66 247 66 66 247 66 66 246 66 66 246 66 66 246 66 66 246 66 66 246 66 66 246 66 66 245 66 66 245 66 66 245 66 66 245 66 66 245 66 66 245 66 66 244 66 66 244 66 66 244 66 66 244 66 66 244 66 66 243 66 66 243 66 66 243 66 66 243 66 66 242 66 66 242 66 66 242 66 66 242 66 66 241 66 66 241 66 66 241 65 65 240 65 65 240 65 65 240 65 65 240 65 65 239 65 65 239 65 65 239 65 65 238 65 65 238 64 64 238 64 64 237 64 64 237 64 64 237 64 64 236 64 64 236 63 63 235 
0 0 227 0 0 227 0 0 227 0 0 227 0 0 227 0 0 227 0 0 227 0 0 227 0 0 227 0 0 227 0 0 227 0 0 226 0 0 226 0 0 226 0 0 226 0 0 226 0 0 226 0 0 226 0 0 226 0 0 226 0 0 226 0 0 226 0 0 226 1 1 226 1 1 226 1 1 226 1 1 226 1 1 225 1 1 225 1 1 225 1 1 225 1 1 225 1 1 225 1 1 225 2 2 225 2 2 225 2 2 225 2 2 225 2 2 225 2 2 225 2 2 225 2 2 225 3 3 225 3 3 225 3 3 225 3 3 225 3 3 225 3 3 225 3 3 225 4 4 225 4 4 225 4 4 225 4 4 225 4 4 225 4 4 225 5 5 225 5 5 225 5 5 225 5 5 225 5 5 225 6 6 225 6 6 225 6 6 225 6 6 225 6 6 225 7 7 225 7 7 225 7 7 226 7 7 226 8 8 226 8 8 226 8 8 226 8 8 226 8 8 226 9 9 226 9 9 226 9 9 226 9 9 226 10 10 226 10 10 226 10 10 226 10 10 226 11 11 227 11 11 227 11 11 227 12 12 227 12 12 227 12 12 227 12 12 227 13 13 227 13 13 227 13 13 227 14 14 228 14 14 228 14 14 228 15 15 228 15 15 228 15 15 228 15 15 228 16 16 228 16 16 228 16 16 229 17 17 229 17 17 229 17 17 229 18 18 229 18 18 229 18 18 229 19 19 230 19 19 230 19 19 230 20 20 230 20 20 230 20 20 230 21 21 230 21 21 231 22 22 231 22 22 231 22 22 231 23 23 231 23 23 231 23 23 232 24 24 232 24 24 232 24 24 232 25 25 232 25 25 232 26 26 233 26 26 233 26 26 233 27 27 233 27 27 233 27 27 233 28 28 234 28 28 234 29 29 234 29 29 234 29 29 234 30 30 234 30 30 235 31 31 235 31 31 235 31 31 235 32 32 235 32 32 236 33 33 236 33 33 236 33 33 236 34 34 236 34 34 236 35 35 237 35 35 237 35 35 237 36 36 237 36 36 237 36 36 238 37 37 238 37 37 238 38 38 238 38 38 238 38 38 239 39 39 239 39 39 239 40 40 239 40 40 239 40 40 239 41 41 240 41 41 240 42 42 240 42 42 240 42 42 240 43 43 241 43 43 241 44 44 241 44 44 241 44 44 241 45 45 241 45 45 242 45 45 242 46 46 242 46 46 242 47 47 242 47 47 242 47 47 242 48 48 243 48 48 243 48 48 243 49 49 243 49 49 243 50 50 243 50 50 244 50 50 244 51 51 244 51 51 244 51 51 244 52 52 244 52 52 244 52 52 244 53 53 245 53 53 245 53 53 245 54 54 245 54 54 245 54 54 245 55 55 245 55 55 245 55 55 245 55 55 245 56 56 246 56 56 246 56 56 246 57 57 246 57 57 246 57 57 246 58 58 246 58 58 246 58 58 246 58 58 246 59 59 246 59 59 246 59 59 246 59 59 246 60 60 246 60 60 246 60 60 246 60 60 246 61 61 246 61 61 247 61 61 247 61 61 247 61 61 247 62 62 246 62 62 246 62 62 246 62 62 246 62 62 246 63 63 246 63 63 246 63 63 246 63 63 246 63 63 246 63 63 246 64 64 246 64 64 246 64 64 246 64 64 246 64 64 246 64 64 246 64 64 246 64 64 246 64 64 245 65 65 245 65 65 245 65 65 245 65 65 245 65 65 245 65 65 245 65 65 245 65 65 244 65 65 244 65 65 244 65 65 244 65 65 244 65 65 244 65 65 243 65 65 243 65 65 243 65 65 243 65 65 243 65 65 242 65 65 242 65 65 242 65 65 242 65 65 242 65 65 241 65 65 241 65 65 241 65 65 241 65 65 240 65 65 240 65 65 240 65 65 239 65 65 239 65 65 239 65 65 239 64 64 238 64 64 238 64 64 238 64 64 237 64 64 237 64 64 237 64 64 236 64 64 236 63 63 236 63 63 235 63 63 235 63 63 235 63 63 234 63 63 234 63 63 234 
0 0 226 0 0 226 0 0 226 0 0 226 0 0 226 0 0 226 0 0 226 0 0 225 0 0 225 0 0 225 0 0 225 0 0 225 0 0 225 0 0 225 0 0 225 0 0 225 0 0 225 0 0 225 0 0 225 0 0 225 0 0 224 0 0 224 0 0 224 0 0 224 0 0 224 0 0 224 1 1 224 1 1 224 1 1 224 1 1 224 1 1 224 1 1 224 1 1 224 1 1 224 1 1 224 1 1 224 1 1 224 2 2 224 2 2 224 2 2 224 2 2 224 2 2 224 2 2 224 2 2 224 2 2 224 3 3 224 3 3 224 3 3 223 3 3 223 3 3 223 3 3 223 3 3 223 4 4 223 4 4 224 4 4 224 4 4 224 4 4 224 5 5 224 5 5 224 5 5 224 5 5 224 5 5 224 5 5 224 6 6 224 6 6 224 6 6 224 6 6 224 6 6 224 7 7 224 7 7 224 7 7 224 7 7 224 8 8 224 8 8 224 8 8 224 8 8 224 9 9 224 9 9 224 9 9 225 9 9 225 10 10 225 10 10 225 10 10 225 10 10 225 11 11 225 11 11 225 11 11 225 11 11 225 12 12 225 12 12 225 12 12 226 13 13 226 13 13 226 13 13 226 13 13 226 14 14 226 14 14 226 14 14 226 15 15 226 15 15 227 15 15 227 16 16 227 16 16 227 16 16 227 17 17 227 17 17 227 17 17 227 18 18 228 18 18 228 18 18 228 19 19 228 19 19 228 19 19 228 20 20 228 20 20 229 20 20 229 21 21 229 21 21 229 21 21 229 22 22 229 22 22 229 22 22 230 23 23 230 23 23 230 24 24 230 24 24 230 24 24 230 25 25 231 25 25 231 25 25 231 26 26 231 26 26 231 27 27 231 27 27 232 27 27 232 28 28 232 28 28 232 28 28 232 29 29 233 29 29 233 30 30 233 30 30 233 30 30 233 31 31 233 31 31 234 32 32 234 32 32 234 32 32 234 33 33 234 33 33 235 34 34 235 34 34 235 34 34 235 35 35 235 35 35 236 36 36 236 36 36 236 36 36 236 37 37 236 37 37 236 38 38 237 38 38 237 38 38 237 39 39 237 39 39 237 40 40 238 40 40 238 40 40 238 41 41 238 41 41 238 41 41 238 42 42 239 42 42 239 43 43 239 43 43 239 43 43 239 44 44 239 44 44 240 45 45 240 45 45 240 45 45 240 46 46 240 46 46 240 46 46 241 47 47 241 47 47 241 48 48 241 48 48 241 48 48 241 49 49 242 49 49 242 49 49 242 50 50 242 50 50 242 50 50 242 51 51 242 51 51 242 51 51 243 52 52 243 52 52 243 52 52 243 53 53 243 53 53 243 53 53 243 54 54 243 54 54 243 54 54 244 55 55 244 55 55 244 55 55 244 56 56 244 56 56 244 56 56 244 56 56 244 57 57 244 57 57 244 57 57 244 57 57 244 58 58 244 58 58 244 58 58 245 59 59 245 59 59 245 59 59 245 59 59 245 59 59 245 60 60 245 60 60 245 60 60 245 60 60 245 61 61 245 61 61 245 61 61 245 61 61 245 61 61 245 62 62 245 62 62 245 62 62 245 62 62 245 62 62 244 62 62 244 63 63 244 63 63 244 63 63 244 63 63 244 63 63 244 63 63 244 63 63 244 63 63 244 64 64 244 64 64 244 64 64 244 64 64 243 64 64 243 64 64 243 64 64 243 64 64 243 64 64 243 64 64 243 64 64 242 64 64 242 64 64 242 64 64 242 64 64 242 65 65 242 65 65 241 65 65 241 65 65 241 65 65 241 65 65 241 65 65 240 64 64 240 64 64 240 64 64 240 64 64 239 64 64 239 64 64 239 64 64 239 64 64 238 64 64 238 64 64 238 64 64 238 64 64 237 64 64 237 64 64 237 64 64 236 63 63 236 63 63 236 63 63 235 63 63 235 63 63 235 63 63 234 63 63 234 63 63 234 62 62 233 62 62 233 62 62 233 62 62 232 62 62 232 61 61 232 
0 0 225 0 0 225 0 0 225 0 0 224 0 0 224 0 0 224 0 0 224 0 0 224 0 0 224 0 0 224 0 0 224 0 0 224 0 0 224 0 0 224 0 0 223 0 0 223 0 0 223 0 0 223 0 0 223 0 0 223 0 0 223 0 0 223 0 0 223 0 0 223 0 0 223 0 0 223 0 0 223 0 0 223 0 0 223 1 1 222 1 1 222 1 1 222 1 1 222 1 1 222 1 1 222 1 1 222 1 1 222 1 1 222 1 1 222 1 1 222 2 2 222 2 2 222 2 2 222 2 2 222 2 2 222 2 2 222 2 2 222 2 2 222 3 3 222 3 3 222 3 3 222 3 3 222 3 3 222 3 3 222 4 4 222 4 4 222 4 4 222 4 4 222 4 4 222 4 4 222 5 5 222 5 5 222 5 5 222 5 5 222 5 5 222 6 6 222 6 6 222 6 6 222 6 6 222 6 6 222 7 7 222 7 7 222 7 7 222 7 7 222 7 7 222 8 8 223 8 8 223 8 8 223 8 8 223 9 9 223 9 9 223 9 9 223 9 9 223 10 10 223 10 10 223 10 10 223 10 10 223 11 11 223 11 11 224 11 11 224 12 12 224 12 12 224 12 12 224 12 12 224 13 13 224 13 13 224 13 13 224 14 14 224 14 14 225 14 14 225 14 14 225 15 15 225 15 15 225 15 15 225 16 16 225 16 16 225 16 16 226 17 17 226 17 17 226 17 17 226 18 18 226 18 18 226 18 18 226 19 19 226 19 19 227 19 19 227 20 20 227 20 20 227 20 20 227 21 21 227 21 21 228 22 22 228 22 22 228 22 22 228 23 23 228 23 23 228 23 23 228 24 24 229 24 24 229 24 24 229 25 25 229 25 25 229 26 26 230 26 26 230 26 26 230 27 27 230 27 27 230 27 27 230 28 28 231 28 28 231 29 29 231 29 29 231 29 29 231 30 30 231 30 30 232 31 31 232 31 31 232 31 31 232 32 32 232 32 32 233 33 33 233 33 33 233 33 33 233 34 34 233 34 34 233 35 35 234 35 35 234 35 35 234 36 36 234 36 36 234 37 37 235 37 37 235 37 37 235 38 38 235 38 38 235 39 39 236 39 39 236 39 39 236 40 40 236 40 40 236 40 40 236 41 41 237 41 41 237 42 42 237 42 42 237 42 42 237 43 43 237 43 43 238 44 44 238 44 44 238 44 44 238 45 45 238 45 45 238 45 45 239 46 46 239 46 46 239 47 47 239 47 47 239 47 47 239 48 48 240 48 48 240 48 48 240 49 49 240 49 49 240 49 49 240 50 50 240 50 50 240 50 50 241 51 51 241 51 51 241 51 51 241 52 52 241 52 52 241 52 52 241 53 53 241 53 53 242 53 53 242 54 54 242 54 54 242 54 54 242 55 55 242 55 55 242 55 55 242 55 55 242 56 56 242 56 56 242 56 56 242 57 57 242 57 57 243 57 57 243 57 57 243 58 58 243 58 58 243 58 58 243 58 58 243 59 59 243 59 59 243 59 59 243 59 59 243 59 59 243 60 60 243 60 60 243 60 60 243 60 60 243 60 60 243 61 61 243 61 61 243 61 61 243 61 61 243 61 61 243 62 62 243 62 62 242 62 62 242 62 62 242 62 62 242 62 62 242 62 62 242 62 62 242 63 63 242 63 63 242 63 63 242 63 63 242 63 63 242 63 63 241 63 63 241 63 63 241 63 63 241 63 63 241 63 63 241 63 63 241 63 63 240 64 64 240 64 64 240 64 64 240 64 64 240 64 64 239 64 64 239 64 64 239 64 64 239 64 64 239 64 64 238 64 64 238 64 64 238 63 63 238 63 63 237 63 63 237 63 63 237 63 63 237 63 63 236 63 63 236 63 63 236 63 63 236 63 63 235 63 63 235 63 63 235 63 63 234 62 62 234 62 62 234 62 62 233 62 62 233 62 62 233 62 62 232 62 62 232 61 61 232 61 61 231 61 61 231 61 61 231 61 61 230 61 61 230 60 60 229 
0 0 223 0 0 223 0 0 223 0 0 223 0 0 223 0 0 223 0 0 223 0 0 223 0 0 223 0 0 223 0 0 222 0 0 222 0 0 222 0 0 222 0 0 222 0 0 222 0 0 222 0 0 222 0 0 222 0 0 222 0 0 222 0 0 222 0 0 221 0 0 221 0 0 221 0 0 221 0 0 221 0 0 221 0 0 221 0 0 221 0 0 221 0 0 221 1 1 221 1 1 221 1 1 221 1 1 221 1 1 221 1 1 221 1 1 221 1 1 221 1 1 220 1 1 220 1 1 220 2 2 220 2 2 220 2 2 220 2 2 220 2 2 220 2 2 220 2 2 220 2 2 220 3 3 220 3 3 220 3 3 220 3 3 220 3 3 220 3 3 220 4 4 220 4 4 220 4 4 220 4 4 220 4 4 220 4 4 220 5 5 220 5 5 220 5 5 220 5 5 220 5 5 220 6 6 220 6 6 220 6 6 221 6 6 221 6 6 221 7 7 221 7 7 221 7 7 221 7 7 221 7 7 221 8 8 221 8 8 221 8 8 221 8 8 221 9 9 221 9 9 221 9 9 221 9 9 221 10 10 221 10 10 222 10 10 222 10 10 222 11 11 222 11 11 222 11 11 222 12 12 222 12 12 222 12 12 222 12 12 222 13 13 222 13 13 223 13 13 223 14 14 223 14 14 223 14 14 223 15 15 223 15 15 223 15 15 223 15 15 224 16 16 224 16 16 224 16 16 224 17 17 224 17 17 224 17 17 224 18 18 224 18 18 225 18 18 225 19 19 225 19 19 225 20 20 225 20 20 225 20 20 225 21 21 226 21 21 226 21 21 226 22 22 226 22 22 226 22 22 226 23 23 227 23 23 227 23 23 227 24 24 227 24 24 227 25 25 227 25 25 228 25 25 228 26 26 228 26 26 228 26 26 228 27 27 228 27 27 229 28 28 229 28 28 229 28 28 229 29 29 229 29 29 230 30 30 230 30 30 230 30 30 230 31 31 230 31 31 230 32 32 231 32 32 231 32 32 231 33 33 231 33 33 231 34 34 232 34 34 232 34 34 232 35 35 232 35 35 232 36 36 233 36 36 233 36 36 233 37 37 233 37 37 233 37 37 233 38 38 234 38 38 234 39 39 234 39 39 234 39 39 234 40 40 235 40 40 235 41 41 235 41 41 235 41 41 235 42 42 235 42 42 236 43 43 236 43 43 236 43 43 236 44 44 236 44 44 236 44 44 237 45 45 237 45 45 237 46 46 237 46 46 237 46 46 237 47 47 237 47 47 238 47 47 238 48 48 238 48 48 238 48 48 238 49 49 238 49 49 238 49 49 239 50 50 239 50 50 239 50 50 239 51 51 239 51 51 239 51 51 239 52 52 239 52 52 239 52 52 240 53 53 240 53 53 240 53 53 240 54 54 240 54 54 240 54 54 240 54 54 240 55 55 240 55 55 240 55 55 240 56 56 240 56 56 241 56 56 241 56 56 241 57 57 241 57 57 241 57 57 241 57 57 241 58 58 241 58 58 241 58 58 241 58 58 241 59 59 241 59 59 241 59 59 241 59 59 241 59 59 241 60 60 241 60 60 241 60 60 241 60 60 241 60 60 241 60 60 241 61 61 241 61 61 240 61 61 240 61 61 240 61 61 240 61 61 240 61 61 240 61 61 240 62 62 240 62 62 240 62 62 240 62 62 240 62 62 240 62 62 239 62 62 239 62 62 239 62 62 239 62 62 239 62 62 239 62 62 239 62 62 238 63 63 238 63 63 238 63 63 238 63 63 238 63 63 237 63 63 237 63 63 237 63 63 237 63 63 237 63 63 236 63 63 236 62 62 236 62 62 236 62 62 235 62 62 235 62 62 235 62 62 235 62 62 234 62 62 234 62 62 234 62 62 233 62 62 233 62 62 233 62 62 233 61 61 232 61 61 232 61 61 232 61 61 231 61 61 231 61 61 231 61 61 230 60 60 230 60 60 229 60 60 229 60 60 229 60 60 228 60 60 228 59 59 228 59 59 227 
0 0 222 0 0 222 0 0 222 0 0 222 0 0 222 0 0 221 0 0 221 0 0 221 0 0 221 0 0 221 0 0 221 0 0 221 0 0 221 0 0 221 0 0 221 0 0 221 0 0 220 0 0 220 0 0 220 0 0 220 0 0 220 0 0 220 0 0 220 0 0 220 0 0 220 0 0 220 0 0 220 0 0 220 0 0 220 0 0 219 0 0 219 0 0 219 0 0 219 0 0 219 0 0 219 0 0 219 1 1 219 1 1 219 1 1 219 1 1 219 1 1 219 1 1 219 1 1 219 1 1 219 1 1 219 1 1 219 2 2 219 2 2 219 2 2 219 2 2 219 2 2 219 2 2 219 2 2 219 2 2 219 3 3 219 3 3 219 3 3 219 3 3 219 3 3 219 3 3 219 4 4 219 4 4 219 4 4 219 4 4 219 4 4 219 4 4 219 5 5 219 5 5 219 5 5 219 5 5 219 5 5 219 6 6 219 6 6 219 6 6 219 6 6 219 6 6 219 7 7 219 7 7 219 7 7 219 7 7 219 7 7 219 8 8 219 8 8 219 8 8 219 8 8 219 9 9 219 9 9 220 9 9 220 9 9 220 10 10 220 10 10 220 10 10 220 11 11 220 11 11 220 11 11 220 11 11 220 12 12 220 12 12 220 12 12 221 12 12 221 13 13 221 13 13 221 13 13 221 14 14 221 14 14 221 14 14 221 15 15 221 15 15 222 15 15 222 16 16 222 16 16 222 16 16 222 17 17 222 17 17 222 17 17 223 18 18 223 18 18 223 18 18 223 19 19 223 19 19 223 19 19 223 20 20 224 20 20 224 20 20 224 21 21 224 21 21 224 21 21 224 22 22 224 22 22 225 22 22 225 23 23 225 23 23 225 24 24 225 24 24 225 24 24 226 25 25 226 25 25 226 25 25 226 26 26 226 26 26 227 27 27 227 27 27 227 27 27 227 28 28 227 28 28 227 29 29 228 29 29 228 29 29 228 30 30 228 30 30 228 30 30 228 31 31 229 31 31 229 32 32 229 32 32 229 32 32 229 33 33 230 33 33 230 34 34 230 34 34 230 34 34 230 35 35 231 35 35 231 36 36 231 36 36 231 36 36 231 37 37 231 37 37 232 38 38 232 38 38 232 38 38 232 39 39 232 39 39 233 40 40 233 40 40 233 40 40 233 41 41 233 41 41 233 41 41 234 42 42 234 42 42 234 43 43 234 43 43 234 43 43 234 44 44 235 44 44 235 44 44 235 45 45 235 45 45 235 46 46 235 46 46 235 46 46 236 47 47 236 47 47 236 47 47 236 48 48 236 48 48 236 48 48 236 49 49 237 49 49 237 49 49 237 50 50 237 50 50 237 50 50 237 51 51 237 51 51 237 51 51 237 52 52 238 52 52 238 52 52 238 53 53 238 53 53 238 53 53 238 53 53 238 54 54 238 54 54 238 54 54 238 55 55 238 55 55 238 55 55 238 55 55 238 56 56 239 56 56 239 56 56 239 56 56 239 57 57 239 57 57 239 57 57 239 57 57 239 57 57 239 58 58 239 58 58 239 58 58 239 58 58 239 58 58 239 59 59 239 59 59 239 59 59 239 59 59 239 59 59 239 60 60 238 60 60 238 60 60 238 60 60 238 60 60 238 60 60 238 60 60 238 60 60 238 61 61 238 61 61 238 61 61 238 61 61 238 61 61 237 61 61 237 61 61 237 61 61 237 61 61 237 61 61 237 61 61 237 61 61 236 61 61 236 61 61 236 61 61 236 61 61 236 61 61 235 62 62 235 62 62 235 61 61 235 61 61 235 61 61 234 61 61 234 61 61 234 61 61 234 61 61 233 61 61 233 61 61 233 61 61 233 61 61 232 61 61 232 61 61 232 61 61 232 61 61 231 61 61 231 60 60 231 60 60 230 60 60 230 60 60 230 60 60 229 60 60 229 60 60 229 60 60 228 59 59 228 59 59 228 59 59 227 59 59 227 59 59 226 58 58 226 58 58 226 58 58 225 58 58 225 
0 0 220 0 0 220 0 0 220 0 0 220 0 0 220 0 0 220 0 0 220 0 0 220 0 0 220 0 0 220 0 0 220 0 0 219 0 0 219 0 0 219 0 0 219 0 0 219 0 0 219 0 0 219 0 0 219 0 0 219 0 0 219 0 0 219 0 0 218 0 0 218 0 0 218 0 0 218 0 0 218 0 0 218 0 0 218 0 0 218 0 0 218 0 0 218 0 0 218 0 0 218 0 0 218 0 0 218 0 0 217 0 0 217 0 0 217 1 1 217 1 1 217 1 1 217 1 1 217 1 1 217 1 1 217 1 1 217 1 1 217 1 1 217 1 1 217 2 2 217 2 2 217 2 2 217 2 2 217 2 2 217 2 2 217 2 2 217 2 2 217 3 3 217 3 3 217 3 3 217 3 3 217 3 3 217 3 3 217 3 3 217 4 4 217 4 4 217 4 4 217 4 4 217 4 4 217 5 5 217 5 5 217 5 5 217 5 5 217 5 5 217 5 5 217 6 6 217 6 6 217 6 6 217 6 6 217 7 7 217 7 7 217 7 7 217 7 7 217 7 7 217 8 8 217 8 8 218 8 8 218 8 8 218 9 9 218 9 9 218 9 9 218 9 9 218 10 10 218 10 10 218 10 10 218 10 10 218 11 11 218 11 11 218 11 11 219 12 12 219 12 12 219 12 12 219 12 12 219 13 13 219 13 13 219 13 13 219 14 14 219 14 14 220 14 14 220 15 15 220 15 15 220 15 15 220 16 16 220 16 16 220 16 16 220 17 17 221 17 17 221 17 17 221 18 18 221 18 18 221 18 18 221 19 19 221 19 19 222 19 19 222 20 20 222 20 20 222 20 20 222 21 21 222 21 21 222 21 21 223 22 22 223 22 22 223 22 22 223 23 23 223 23 23 223 24 24 224 24 24 224 24 24 224 25 25 224 25 25 224 25 25 224 26 26 225 26 26 225 27 27 225 27 27 225 27 27 225 28 28 225 28 28 226 29 29 226 29 29 226 29 29 226 30 30 226 30 30 227 30 30 227 31 31 227 31 31 227 32 32 227 32 32 227 32 32 228 33 33 228 33 33 228 34 34 228 34 34 228 34 34 229 35 35 229 35 35 229 36 36 229 36 36 229 36 36 229 37 37 230 37 37 230 38 38 230 38 38 230 38 38 230 39 39 231 39 39 231 39 39 231 40 40 231 40 40 231 41 41 231 41 41 232 41 41 232 42 42 232 42 42 232 43 43 232 43 43 232 43 43 233 44 44 233 44 44 233 44 44 233 45 45 233 45 45 233 45 45 233 46 46 234 46 46 234 47 47 234 47 47 234 47 47 234 48 48 234 48 48 234 48 48 235 49 49 235 49 49 235 49 49 235 50 50 235 50 50 235 50 50 235 50 50 235 51 51 235 51 51 235 51 51 236 52 52 236 52 52 236 52 52 236 53 53 236 53 53 236 53 53 236 53 53 236 54 54 236 54 54 236 54 54 236 54 54 236 55 55 236 55 55 236 55 55 236 55 55 236 56 56 236 56 56 236 56 56 236 56 56 237 57 57 237 57 57 236 57 57 236 57 57 236 57 57 236 58 58 236 58 58 236 58 58 236 58 58 236 58 58 236 58 58 236 59 59 236 59 59 236 59 59 236 59 59 236 59 59 236 59 59 236 59 59 236 59 59 236 60 60 236 60 60 235 60 60 235 60 60 235 60 60 235 60 60 235 60 60 235 60 60 235 60 60 234 60 60 234 60 60 234 60 60 234 60 60 234 60 60 234 60 60 233 60 60 233 60 60 233 60 60 233 60 60 233 60 60 232 60 60 232 60 60 232 60 60 232 60 60 231 60 60 231 60 60 231 60 60 231 60 60 230 60 60 230 60 60 230 60 60 229 60 60 229 59 59 229 59 59 229 59 59 228 59 59 228 59 59 228 59 59 227 59 59 227 58 58 227 58 58 226 58 58 226 58 58 225 58 58 225 58 58 225 57 57 224 57 57 224 57 57 224 57 57 223 57 57 223 56 56 222 
0 0 219 0 0 219 0 0 219 0 0 219 0 0 219 0 0 219 0 0 218 0 0 218 0 0 218 0 0 218 0 0 218 0 0 218 0 0 218 0 0 218 0 0 218 0 0 218 0 0 217 0 0 217 0 0 217 0 0 217 0 0 217 0 0 217 0 0 217 0 0 217 0 0 217 0 0 217 0 0 217 0 0 216 0 0 216 0 0 216 0 0 216 0 0 216 0 0 216 0 0 216 0 0 216 0 0 216 0 0 216 0 0 216 0 0 216 0 0 216 0 0 216 0 0 216 0 0 215 1 1 215 1 1 215 1 1 215 1 1 215 1 1 215 1 1 215 1 1 215 1 1 215 1 1 215 1 1 215 2 2 215 2 2 215 2 2 215 2 2 215 2 2 215 2 2 215 2 2 215 3 3 215 3 3 215 3 3 215 3 3 215 3 3 215 3 3 215 3 3 215 4 4 215 4 4 215 4 4 215 4 4 215 4 4 215 4 4 215 5 5 215 5 5 215 5 5 215 5 5 215 5 5 215 6 6 215 6 6 215 6 6 215 6 6 215 7 7 215 7 7 215 7 7 215 7 7 215 7 7 216 8 8 216 8 8 216 8 8 216 8 8 216 9 9 216 9 9 216 9 9 216 9 9 216 10 10 216 10 10 216 10 10 216 10 10 216 11 11 217 11 11 217 11 11 217 12 12 217 12 12 217 12 12 217 12 12 217 13 13 217 13 13 217 13 13 217 14 14 218 14 14 218 14 14 218 15 15 218 15 15 218 15 15 218 16 16 218 16 16 218 16 16 219 16 16 219 17 17 219 17 17 219 18 18 219 18 18 219 18 18 219 19 19 220 19 19 220 19 19 220 20 20 220 20 20 220 20 20 220 21 21 220 21 21 221 21 21 221 22 22 221 22 22 221 22 22 221 23 23 221 23 23 222 24 24 222 24 24 222 24 24 222 25 25 222 25 25 222 25 25 223 26 26 223 26 26 223 27 27 223 27 27 223 27 27 223 28 28 224 28 28 224 28 28 224 29 29 224 29 29 224 30 30 225 30 30 225 30 30 225 31 31 225 31 31 225 32 32 225 32 32 226 32 32 226 33 33 226 33 33 226 34 34 226 34 34 227 34 34 227 35 35 227 35 35 227 36 36 227 36 36 227 36 36 228 37 37 228 37 37 228 37 37 228 38 38 228 38 38 229 39 39 229 39 39 229 39 39 229 40 40 229 40 40 229 41 41 230 41 41 230 41 41 230 42 42 230 42 42 230 42 42 230 43 43 230 43 43 231 43 43 231 44 44 231 44 44 231 45 45 231 45 45 231 45 45 232 46 46 232 46 46 232 46 46 232 47 47 232 47 47 232 47 47 232 48 48 232 48 48 233 48 48 233 49 49 233 49 49 233 49 49 233 50 50 233 50 50 233 50 50 233 50 50 233 51 51 233 51 51 233 51 51 234 52 52 234 52 52 234 52 52 234 52 52 234 53 53 234 53 53 234 53 53 234 53 53 234 54 54 234 54 54 234 54 54 234 54 54 234 55 55 234 55 55 234 55 55 234 55 55 234 56 56 234 56 56 234 56 56 234 56 56 234 56 56 234 56 56 234 57 57 234 57 57 234 57 57 234 57 57 234 57 57 234 57 57 234 58 58 234 58 58 234 58 58 234 58 58 233 58 58 233 58 58 233 58 58 233 58 58 233 58 58 233 59 59 233 59 59 233 59 59 233 59 59 232 59 59 232 59 59 232 59 59 232 59 59 232 59 59 232 59 59 231 59 59 231 59 59 231 59 59 231 59 59 231 59 59 230 59 59 230 59 59 230 59 59 230 59 59 229 59 59 229 59 59 229 59 59 229 59 59 228 59 59 228 59 59 228 58 58 228 58 58 227 58 58 227 58 58 227 58 58 226 58 58 226 58 58 226 58 58 225 57 57 225 57 57 225 57 57 224 57 57 224 57 57 224 57 57 223 57 57 223 56 56 223 56 56 222 56 56 222 56 56 221 56 56 221 55 55 220 55 55 220 55 55 220 
0 0 217 0 0 217 0 0 217 0 0 217 0 0 217 0 0 217 0 0 217 0 0 217 0 0 217 0 0 217 0 0 216 0 0 216 0 0 216 0 0 216 0 0 216 0 0 216 0 0 216 0 0 216 0 0 216 0 0 216 0 0 216 0 0 215 0 0 215 0 0 215 0 0 215 0 0 215 0 0 215 0 0 215 0 0 215 0 0 215 0 0 215 0 0 215 0 0 214 0 0 214 0 0 214 0 0 214 0 0 214 0 0 214 0 0 214 0 0 214 0 0 214 0 0 214 0 0 214 0 0 214 0 0 214 0 0 214 1 1 214 1 1 213 1 1 213 1 1 213 1 1 213 1 1 213 1 1 213 1 1 213 1 1 213 1 1 213 2 2 213 2 2 213 2 2 213 2 2 213 2 2 213 2 2 213 2 2 213 2 2 213 3 3 213 3 3 213 3 3 213 3 3 213 3 3 213 3 3 213 4 4 213 4 4 213 4 4 213 4 4 213 4 4 213 4 4 213 5 5 213 5 5 213 5 5 213 5 5 213 5 5 213 6 6 213 6 6 213 6 6 213 6 6 213 6 6 213 7 7 213 7 7 214 7 7 214 7 7 214 8 8 214 8 8 214 8 8 214 8 8 214 9 9 214 9 9 214 9 9 214 9 9 214 10 10 214 10 10 214 10 10 214 10 10 215 11 11 215 11 11 215 11 11 215 11 11 215 12 12 215 12 12 215 12 12 215 13 13 215 13 13 215 13 13 216 14 14 216 14 14 216 14 14 216 14 14 216 15 15 216 15 15 216 15 15 216 16 16 217 16 16 217 16 16 217 17 17 217 17 17 217 17 17 217 18 18 217 18 18 217 18 18 218 19 19 218 19 19 218 19 19 218 20 20 218 20 20 218 21 21 219 21 21 219 21 21 219 22 22 219 22 22 219 22 22 219 23 23 219 23 23 220 23 23 220 24 24 220 24 24 220 25 25 220 25 25 221 25 25 221 26 26 221 26 26 221 26 26 221 27 27 221 27 27 222 28 28 222 28 28 222 28 28 222 29 29 222 29 29 222 30 30 223 30 30 223 30 30 223 31 31 223 31 31 223 31 31 224 32 32 224 32 32 224 33 33 224 33 33 224 33 33 224 34 34 225 34 34 225 35 35 225 35 35 225 35 35 225 36 36 225 36 36 226 37 37 226 37 37 226 37 37 226 38 38 226 38 38 227 38 38 227 39 39 227 39 39 227 40 40 227 40 40 227 40 40 228 41 41 228 41 41 228 41 41 228 42 42 228 42 42 228 43 43 228 43 43 229 43 43 229 44 44 229 44 44 229 44 44 229 45 45 229 45 45 229 45 45 230 46 46 230 46 46 230 46 46 230 47 47 230 47 47 230 47 47 230 48 48 230 48 48 230 48 48 231 49 49 231 49 49 231 49 49 231 49 49 231 50 50 231 50 50 231 50 50 231 51 51 231 51 51 231 51 51 231 51 51 231 52 52 231 52 52 231 52 52 232 52 52 232 53 53 232 53 53 232 53 53 232 53 53 232 54 54 232 54 54 232 54 54 232 54 54 232 54 54 232 55 55 232 55 55 232 55 55 232 55 55 232 55 55 232 55 55 232 56 56 231 56 56 231 56 56 231 56 56 231 56 56 231 56 56 231 56 56 231 57 57 231 57 57 231 57 57 231 57 57 231 57 57 231 57 57 230 57 57 230 57 57 230 57 57 230 57 57 230 57 57 230 57 57 230 58 58 229 58 58 229 58 58 229 58 58 229 58 58 229 58 58 228 58 58 228 58 58 228 58 58 228 58 58 228 58 58 227 58 58 227 57 57 227 57 57 227 57 57 226 57 57 226 57 57 226 57 57 226 57 57 225 57 57 225 57 57 225 57 57 224 57 57 224 57 57 224 56 56 223 56 56 223 56 56 223 56 56 222 56 56 222 56 56 222 55 55 221 55 55 221 55 55 221 55 55 220 55 55 220 55 55 219 54 54 219 54 54 219 54 54 218 54 54 218 53 53 217 53 53 217 
0 0 216 0 0 216 0 0 215 0 0 215 0 0 215 0 0 215 0 0 215 0 0 215 0 0 215 0 0 215 0 0 215 0 0 215 0 0 215 0 0 215 0 0 215 0 0 214 0 0 214 0 0 214 0 0 214 0 0 214 0 0 214 0 0 214 0 0 214 0 0 214 0 0 214 0 0 213 0 0 213 0 0 213 0 0 213 0 0 213 0 0 213 0 0 213 0 0 213 0 0 213 0 0 213 0 0 213 0 0 212 0 0 212 0 0 212 0 0 212 0 0 212 0 0 212 0 0 212 0 0 212 0 0 212 0 0 212 0 0 212 0 0 212 0 0 212 0 0 212 1 1 212 1 1 211 1 1 211 1 1 211 1 1 211 1 1 211 1 1 211 1 1 211 1 1 211 1 1 211 2 2 211 2 2 211 2 2 211 2 2 211 2 2 211 2 2 211 2 2 211 2 2 211 3 3 211 3 3 211 3 3 211 3 3 211 3 3 211 3 3 211 4 4 211 4 4 211 4 4 211 4 4 211 4 4 211 4 4 211 5 5 211 5 5 211 5 5 211 5 5 211 5 5 211 6 6 211 6 6 211 6 6 211 6 6 211 7 7 211 7 7 212 7 7 212 7 7 212 7 7 212 8 8 212 8 8 212 8 8 212 8 8 212 9 9 212 9 9 212 9 9 212 9 9 212 10 10 212 10 10 212 10 10 213 11 11 213 11 11 213 11 11 213 11 11 213 12 12 213 12 12 213 12 12 213 13 13 213 13 13 213 13 13 214 13 13 214 14 14 214 14 14 214 14 14 214 15 15 214 15 15 214 15 15 214 16 16 214 16 16 215 16 16 215 17 17 215 17 17 215 17 17 215 18 18 215 18 18 215 18 18 216 19 19 216 19 19 216 19 19 216 20 20 216 20 20 216 20 20 217 21 21 217 21 21 217 21 21 217 22 22 217 22 22 217 23 23 217 23 23 218 23 23 218 24 24 218 24 24 218 24 24 218 25 25 218 25 25 219 26 26 219 26 26 219 26 26 219 27 27 219 27 27 220 27 27 220 28 28 220 28 28 220 29 29 220 29 29 220 29 29 221 30 30 221 30 30 221 31 31 221 31 31 221 31 31 221 32 32 222 32 32 222 32 32 222 33 33 222 33 33 222 34 34 223 34 34 223 34 34 223 35 35 223 35 35 223 35 35 223 36 36 224 36 36 224 37 37 224 37 37 224 37 37 224 38 38 224 38 38 225 39 39 225 39 39 225 39 39 225 40 40 225 40 40 225 40 40 225 41 41 226 41 41 226 41 41 226 42 42 226 42 42 226 42 42 226 43 43 226 43 43 227 44 44 227 44 44 227 44 44 227 45 45 227 45 45 227 45 45 227 46 46 227 46 46 228 46 46 228 46 46 228 47 47 228 47 47 228 47 47 228 48 48 228 48 48 228 48 48 228 49 49 228 49 49 229 49 49 229 49 49 229 50 50 229 50 50 229 50 50 229 50 50 229 51 51 229 51 51 229 51 51 229 51 51 229 52 52 229 52 52 229 52 52 229 52 52 229 53 53 229 53 53 229 53 53 229 53 53 229 53 53 229 54 54 229 54 54 229 54 54 229 54 54 229 54 54 229 54 54 229 55 55 229 55 55 229 55 55 229 55 55 228 55 55 228 55 55 228 55 55 228 55 55 228 55 55 228 56 56 228 56 56 228 56 56 228 56 56 228 56 56 227 56 56 227 56 56 227 56 56 227 56 56 227 56 56 227 56 56 226 56 56 226 56 56 226 56 56 226 56 56 226 56 56 225 56 56 225 56 56 225 56 56 225 56 56 224 56 56 224 56 56 224 56 56 224 56 56 223 56 56 223 56 56 223 55 55 222 55 55 222 55 55 222 55 55 222 55 55 221 55 55 221 55 55 221 55 55 220 54 54 220 54 54 220 54 54 219 54 54 219 54 54 218 54 54 218 53 53 218 53 53 217 53 53 217 53 53 216 53 53 216 52 52 216 52 52 215 52 52 215 52 52 214 51 51 214 
0 0 214 0 0 214 0 0 214 0 0 214 0 0 214 0 0 214 0 0 213 0 0 213 0 0 213 0 0 213 0 0 213 0 0 213 0 0 213 0 0 213 0 0 213 0 0 213 0 0 213 0 0 213 0 0 213 0 0 212 0 0 212 0 0 212 0 0 212 0 0 212 0 0 212 0 0 212 0 0 212 0 0 212 0 0 212 0 0 211 0 0 211 0 0 211 0 0 211 0 0 211 0 0 211 0 0 211 0 0 211 0 0 211 0 0 211 0 0 211 0 0 210 0 0 210 0 0 210 0 0 210 0 0 210 0 0 210 0 0 210 0 0 210 0 0 210 0 0 210 0 0 210 0 0 210 0 0 210 0 0 210 1 1 209 1 1 209 1 1 209 1 1 209 1 1 209 1 1 209 1 1 209 1 1 209 1 1 209 1 1 209 2 2 209 2 2 209 2 2 209 2 2 209 2 2 209 2 2 209 2 2 209 3 3 209 3 3 209 3 3 209 3 3 209 3 3 209 3 3 209 3 3 209 4 4 209 4 4 209 4 4 209 4 4 209 4 4 209 5 5 209 5 5 209 5 5 209 5 5 209 5 5 209 6 6 209 6 6 209 6 6 209 6 6 209 6 6 209 7 7 209 7 7 210 7 7 210 7 7 210 8 8 210 8 8 210 8 8 210 8 8 210 8 8 210 9 9 210 9 9 210 9 9 210 10 10 210 10 10 210 10 10 210 10 10 211 11 11 211 11 11 211 11 11 211 11 11 211 12 12 211 12 12 211 12 12 211 13 13 211 13 13 211 13 13 212 14 14 212 14 14 212 14 14 212 14 14 212 15 15 212 15 15 212 15 15 212 16 16 213 16 16 213 16 16 213 17 17 213 17 17 213 17 17 213 18 18 213 18 18 213 18 18 214 19 19 214 19 19 214 19 19 214 20 20 214 20 20 214 21 21 215 21 21 215 21 21 215 22 22 215 22 22 215 22 22 215 23 23 215 23 23 216 23 23 216 24 24 216 24 24 216 25 25 216 25 25 216 25 25 217 26 26 217 26 26 217 26 26 217 27 27 217 27 27 218 28 28 218 28 28 218 28 28 218 29 29 218 29 29 218 29 29 219 30 30 219 30 30 219 31 31 219 31 31 219 31 31 219 32 32 220 32 32 220 32 32 220 33 33 220 33 33 220 34 34 220 34 34 221 34 34 221 35 35 221 35 35 221 36 36 221 36 36 221 36 36 222 37 37 222 37 37 222 37 37 222 38 38 222 38 38 222 38 38 223 39 39 223 39 39 223 40 40 223 40 40 223 40 40 223 41 41 223 41 41 224 41 41 224 42 42 224 42 42 224 42 42 224 43 43 224 43 43 224 43 43 224 44 44 225 44 44 225 44 44 225 45 45 225 45 45 225 45 45 225 46 46 225 46 46 225 46 46 225 46 46 225 47 47 226 47 47 226 47 47 226 48 48 226 48 48 226 48 48 226 48 48 226 49 49 226 49 49 226 49 49 226 49 49 226 50 50 226 50 50 226 50 50 226 50 50 226 51 51 226 51 51 226 51 51 226 51 51 226 51 51 226 52 52 226 52 52 226 52 52 226 52 52 226 52 52 226 52 52 226 53 53 226 53 53 226 53 53 226 53 53 226 53 53 226 53 53 226 53 53 226 54 54 226 54 54 225 54 54 225 54 54 225 54 54 225 54 54 225 54 54 225 54 54 225 54 54 225 54 54 224 54 54 224 54 54 224 54 54 224 54 54 224 54 54 224 54 54 223 54 54 223 54 54 223 54 54 223 54 54 222 54 54 222 54 54 222 54 54 222 54 54 221 54 54 221 54 54 221 54 54 221 54 54 220 54 54 220 54 54 220 54 54 220 54 54 219 53 53 219 53 53 219 53 53 218 53 53 218 53 53 218 53 53 217 53 53 217 52 52 216 52 52 216 52 52 216 52 52 215 52 52 215 51 51 215 51 51 214 51 51 214 51 51 213 51 51 213 50 50 212 50 50 212 50 50 212 50 50 211 49 49 211 
0 0 212 0 0 212 0 0 212 0 0 212 0 0 212 0 0 212 0 0 212 0 0 212 0 0 212 0 0 212 0 0 211 0 0 211 0 0 211 0 0 211 0 0 211 0 0 211 0 0 211 0 0 211 0 0 211 0 0 211 0 0 211 0 0 211 0 0 210 0 0 210 0 0 210 0 0 210 0 0 210 0 0 210 0 0 210 0 0 210 0 0 210 0 0 210 0 0 209 0 0 209 0 0 209 0 0 209 0 0 209 0 0 209 0 0 209 0 0 209 0 0 209 0 0 209 0 0 208 0 0 208 0 0 208 0 0 208 0 0 208 0 0 208 0 0 208 0 0 208 0 0 208 0 0 208 0 0 208 0 0 208 0 0 208 0 0 208 0 0 207 0 0 207 1 1 207 1 1 207 1 1 207 1 1 207 1 1 207 1 1 207 1 1 207 1 1 207 1 1 207 1 1 207 2 2 207 2 2 207 2 2 207 2 2 207 2 2 207 2 2 207 2 2 207 3 3 207 3 3 207 3 3 207 3 3 207 3 3 207 3 3 207 3 3 207 4 4 207 4 4 207 4 4 207 4 4 207 4 4 207 5 5 207 5 5 207 5 5 207 5 5 207 5 5 207 6 6 207 6 6 207 6 6 207 6 6 207 6 6 207 7 7 207 7 7 207 7 7 207 7 7 208 8 8 208 8 8 208 8 8 208 8 8 208 9 9 208 9 9 208 9 9 208 9 9 208 10 10 208 10 10 208 10 10 208 10 10 208 11 11 209 11 11 209 11 11 209 11 11 209 12 12 209 12 12 209 12 12 209 13 13 209 13 13 209 13 13 209 14 14 210 14 14 210 14 14 210 15 15 210 15 15 210 15 15 210 15 15 210 16 16 210 16 16 211 16 16 211 17 17 211 17 17 211 17 17 211 18 18 211 18 18 211 18 18 212 19 19 212 19 19 212 20 20 212 20 20 212 20 20 212 21 21 212 21 21 213 21 21 213 22 22 213 22 22 213 22 22 213 23 23 213 23 23 214 23 23 214 24 24 214 24 24 214 25 25 214 25 25 214 25 25 215 26 26 215 26 26 215 26 26 215 27 27 215 27 27 215 28 28 216 28 28 216 28 28 216 29 29 216 29 29 216 29 29 216 30 30 217 30 30 217 31 31 217 31 31 217 31 31 217 32 32 217 32 32 218 32 32 218 33 33 218 33 33 218 34 34 218 34 34 218 34 34 219 35 35 219 35 35 219 35 35 219 36 36 219 36 36 219 36 36 220 37 37 220 37 37 220 38 38 220 38 38 220 38 38 220 39 39 220 39 39 221 39 39 221 40 40 221 40 40 221 40 40 221 41 41 221 41 41 221 41 41 221 42 42 222 42 42 222 42 42 222 43 43 222 43 43 222 43 43 222 44 44 222 44 44 222 44 44 222 44 44 222 45 45 223 45 45 223 45 45 223 46 46 223 46 46 223 46 46 223 46 46 223 47 47 223 47 47 223 47 47 223 47 47 223 48 48 223 48 48 223 48 48 223 48 48 223 49 49 223 49 49 223 49 49 223 49 49 223 50 50 223 50 50 223 50 50 223 50 50 223 50 50 223 50 50 223 51 51 223 51 51 223 51 51 223 51 51 223 51 51 223 51 51 223 51 51 223 52 52 223 52 52 223 52 52 223 52 52 222 52 52 222 52 52 222 52 52 222 52 52 222 52 52 222 52 52 222 52 52 222 52 52 221 53 53 221 53 53 221 53 53 221 53 53 221 53 53 220 53 53 220 53 53 220 53 53 220 53 53 220 53 53 219 53 53 219 52 52 219 52 52 219 52 52 218 52 52 218 52 52 218 52 52 218 52 52 217 52 52 217 52 52 217 52 52 216 52 52 216 52 52 216 51 51 215 51 51 215 51 51 215 51 51 214 51 51 214 51 51 214 50 50 213 50 50 213 50 50 212 50 50 212 50 50 212 49 49 211 49 49 211 49 49 210 49 49 210 48 48 210 48 48 209 48 48 209 48 48 208 47 47 208 47 47 207 
0 0 210 0 0 210 0 0 210 0 0 210 0 0 210 0 0 210 0 0 210 0 0 210 0 0 210 0 0 210 0 0 210 0 0 210 0 0 209 0 0 209 0 0 209 0 0 209 0 0 209 0 0 209 0 0 209 0 0 209 0 0 209 0 0 209 0 0 209 0 0 209 0 0 209 0 0 208 0 0 208 0 0 208 0 0 208 0 0 208 0 0 208 0 0 208 0 0 208 0 0 208 0 0 208 0 0 207 0 0 207 0 0 207 0 0 207 0 0 207 0 0 207 0 0 207 0 0 207 0 0 207 0 0 207 0 0 206 0 0 206 0 0 206 0 0 206 0 0 206 0 0 206 0 0 206 0 0 206 0 0 206 0 0 206 0 0 206 0 0 206 0 0 206 0 0 205 0 0 205 0 0 205 0 0 205 1 1 205 1 1 205 1 1 205 1 1 205 1 1 205 1 1 205 1 1 205 1 1 205 1 1 205 1 1 205 2 2 205 2 2 205 2 2 205 2 2 205 2 2 205 2 2 205 2 2 205 3 3 205 3 3 205 3 3 205 3 3 205 3 3 205 3 3 205 3 3 205 4 4 205 4 4 205 4 4 205 4 4 205 4 4 205 5 5 205 5 5 205 5 5 205 5 5 205 5 5 205 6 6 205 6 6 205 6 6 205 6 6 205 6 6 205 7 7 205 7 7 205 7 7 205 7 7 205 8 8 205 8 8 205 8 8 206 8 8 206 9 9 206 9 9 206 9 9 206 9 9 206 10 10 206 10 10 206 10 10 206 10 10 206 11 11 206 11 11 206 11 11 206 11 11 207 12 12 207 12 12 207 12 12 207 13 13 207 13 13 207 13 13 207 14 14 207 14 14 207 14 14 208 14 14 208 15 15 208 15 15 208 15 15 208 16 16 208 16 16 208 16 16 208 17 17 209 17 17 209 17 17 209 18 18 209 18 18 209 18 18 209 19 19 209 19 19 210 19 19 210 20 20 210 20 20 210 21 21 210 21 21 210 21 21 210 22 22 211 22 22 211 22 22 211 23 23 211 23 23 211 23 23 211 24 24 212 24 24 212 24 24 212 25 25 212 25 25 212 26 26 212 26 26 213 26 26 213 27 27 213 27 27 213 27 27 213 28 28 213 28 28 214 29 29 214 29 29 214 29 29 214 30 30 214 30 30 214 30 30 215 31 31 215 31 31 215 31 31 215 32 32 215 32 32 215 33 33 216 33 33 216 33 33 216 34 34 216 34 34 216 34 34 216 35 35 216 35 35 217 35 35 217 36 36 217 36 36 217 37 37 217 37 37 217 37 37 217 38 38 218 38 38 218 38 38 218 39 39 218 39 39 218 39 39 218 40 40 218 40 40 218 40 40 219 41 41 219 41 41 219 41 41 219 41 41 219 42 42 219 42 42 219 42 42 219 43 43 219 43 43 219 43 43 220 44 44 220 44 44 220 44 44 220 44 44 220 45 45 220 45 45 220 45 45 220 45 45 220 46 46 220 46 46 220 46 46 220 46 46 220 47 47 220 47 47 220 47 47 220 47 47 220 47 47 220 48 48 220 48 48 220 48 48 220 48 48 220 48 48 220 49 49 220 49 49 220 49 49 220 49 49 220 49 49 220 49 49 220 49 49 220 50 50 220 50 50 220 50 50 219 50 50 219 50 50 219 50 50 219 50 50 219 50 50 219 50 50 219 50 50 219 50 50 218 51 51 218 51 51 218 51 51 218 51 51 218 51 51 218 51 51 217 51 51 217 51 51 217 51 51 217 51 51 217 51 51 216 51 51 216 51 51 216 50 50 216 50 50 215 50 50 215 50 50 215 50 50 215 50 50 214 50 50 214 50 50 214 50 50 213 50 50 213 50 50 213 49 49 212 49 49 212 49 49 212 49 49 211 49 49 211 49 49 211 48 48 210 48 48 210 48 48 209 48 48 209 48 48 209 47 47 208 47 47 208 47 47 207 47 47 207 46 46 206 46 46 206 46 46 206 46 46 205 45 45 205 45 45 204 45 45 204 
0 0 208 0 0 208 0 0 208 0 0 208 0 0 208 0 0 208 0 0 208 0 0 208 0 0 208 0 0 208 0 0 208 0 0 208 0 0 208 0 0 208 0 0 207 0 0 207 0 0 207 0 0 207 0 0 207 0 0 207 0 0 207 0 0 207 0 0 207 0 0 207 0 0 207 0 0 207 0 0 207 0 0 206 0 0 206 0 0 206 0 0 206 0 0 206 0 0 206 0 0 206 0 0 206 0 0 206 0 0 206 0 0 205 0 0 205 0 0 205 0 0 205 0 0 205 0 0 205 0 0 205 0 0 205 0 0 205 0 0 205 0 0 204 0 0 204 0 0 204 0 0 204 0 0 204 0 0 204 0 0 204 0 0 204 0 0 204 0 0 204 0 0 204 0 0 203 0 0 203 0 0 203 0 0 203 0 0 203 0 0 203 0 0 203 0 0 203 1 1 203 1 1 203 1 1 203 1 1 203 1 1 203 1 1 203 1 1 203 1 1 203 1 1 203 1 1 203 2 2 203 2 2 203 2 2 203 2 2 202 2 2 202 2 2 202 2 2 202 2 2 202 3 3 202 3 3 202 3 3 202 3 3 202 3 3 202 3 3 202 4 4 202 4 4 202 4 4 202 4 4 202 4 4 202 4 4 203 5 5 203 5 5 203 5 5 203 5 5 203 5 5 203 6 6 203 6 6 203 6 6 203 6 6 203 7 7 203 7 7 203 7 7 203 7 7 203 7 7 203 8 8 203 8 8 203 8 8 203 8 8 203 9 9 203 9 9 203 9 9 204 9 9 204 10 10 204 10 10 204 10 10 204 11 11 204 11 11 204 11 11 204 11 11 204 12 12 204 12 12 204 12 12 205 13 13 205 13 13 205 13 13 205 13 13 205 14 14 205 14 14 205 14 14 205 15 15 205 15 15 206 15 15 206 16 16 206 16 16 206 16 16 206 17 17 206 17 17 206 17 17 207 18 18 207 18 18 207 18 18 207 19 19 207 19 19 207 19 19 207 20 20 208 20 20 208 20 20 208 21 21 208 21 21 208 21 21 208 22 22 208 22 22 209 22 22 209 23 23 209 23 23 209 24 24 209 24 24 209 24 24 210 25 25 210 25 25 210 25 25 210 26 26 210 26 26 210 26 26 210 27 27 211 27 27 211 28 28 211 28 28 211 28 28 211 29 29 211 29 29 212 29 29 212 30 30 212 30 30 212 30 30 212 31 31 212 31 31 213 32 32 213 32 32 213 32 32 213 33 33 213 33 33 213 33 33 213 34 34 214 34 34 214 34 34 214 35 35 214 35 35 214 35 35 214 36 36 214 36 36 214 36 36 215 37 37 215 37 37 215 37 37 215 38 38 215 38 38 215 38 38 215 39 39 215 39 39 216 39 39 216 40 40 216 40 40 216 40 40 216 40 40 216 41 41 216 41 41 216 41 41 216 42 42 216 42 42 216 42 42 216 42 42 217 43 43 217 43 43 217 43 43 217 43 43 217 44 44 217 44 44 217 44 44 217 44 44 217 45 45 217 45 45 217 45 45 217 45 45 217 45 45 217 46 46 217 46 46 217 46 46 217 46 46 217 46 46 217 47 47 217 47 47 217 47 47 217 47 47 217 47 47 217 47 47 216 47 47 216 48 48 216 48 48 216 48 48 216 48 48 216 48 48 216 48 48 216 48 48 216 48 48 216 48 48 215 48 48 215 48 48 215 48 48 215 48 48 215 48 48 215 48 48 214 49 49 214 49 49 214 49 49 214 48 48 214 48 48 213 48 48 213 48 48 213 48 48 213 48 48 212 48 48 212 48 48 212 48 48 212 48 48 211 48 48 211 48 48 211 48 48 210 48 48 210 48 48 210 47 47 209 47 47 209 47 47 209 47 47 208 47 47 208 47 47 208 46 46 207 46 46 207 46 46 207 46 46 206 46 46 206 45 45 205 45 45 205 45 45 204 45 45 204 44 44 204 44 44 203 44 44 203 44 44 202 43 43 202 43 43 201 43 43 201 43 43 200 42 42 200 
0 0 206 0 0 206 0 0 206 0 0 206 0 0 206 0 0 206 0 0 206 0 0 206 0 0 206 0 0 206 0 0 206 0 0 206 0 0 206 0 0 206 0 0 206 0 0 205 0 0 205 0 0 205 0 0 205 0 0 205 0 0 205 0 0 205 0 0 205 0 0 205 0 0 205 0 0 205 0 0 205 0 0 205 0 0 204 0 0 204 0 0 204 0 0 204 0 0 204 0 0 204 0 0 204 0 0 204 0 0 204 0 0 204 0 0 204 0 0 203 0 0 203 0 0 203 0 0 203 0 0 203 0 0 203 0 0 203 0 0 203 0 0 203 0 0 202 0 0 202 0 0 202 0 0 202 0 0 202 0 0 202 0 0 202 0 0 202 0 0 202 0 0 202 0 0 202 0 0 201 0 0 201 0 0 201 0 0 201 0 0 201 0 0 201 0 0 201 0 0 201 0 0 201 0 0 201 0 0 201 0 0 201 1 1 201 1 1 201 1 1 201 1 1 200 1 1 200 1 1 200 1 1 200 1 1 200 1 1 200 1 1 200 2 2 200 2 2 200 2 2 200 2 2 200 2 2 200 2 2 200 2 2 200 3 3 200 3 3 200 3 3 200 3 3 200 3 3 200 3 3 200 3 3 200 4 4 200 4 4 200 4 4 200 4 4 200 4 4 200 5 5 200 5 5 200 5 5 200 5 5 200 5 5 200 6 6 200 6 6 200 6 6 200 6 6 200 6 6 200 7 7 201 7 7 201 7 7 201 7 7 201 8 8 201 8 8 201 8 8 201 8 8 201 9 9 201 9 9 201 9 9 201 9 9 201 10 10 201 10 10 201 10 10 201 10 10 202 11 11 202 11 11 202 11 11 202 12 12 202 12 12 202 12 12 202 12 12 202 13 13 202 13 13 202 13 13 203 14 14 203 14 14 203 14 14 203 15 15 203 15 15 203 15 15 203 15 15 203 16 16 204 16 16 204 16 16 204 17 17 204 17 17 204 17 17 204 18 18 204 18 18 204 18 18 205 19 19 205 19 19 205 19 19 205 20 20 205 20 20 205 20 20 205 21 21 206 21 21 206 21 21 206 22 22 206 22 22 206 23 23 206 23 23 206 23 23 207 24 24 207 24 24 207 24 24 207 25 25 207 25 25 207 25 25 208 26 26 208 26 26 208 26 26 208 27 27 208 27 27 208 27 27 208 28 28 209 28 28 209 29 29 209 29 29 209 29 29 209 30 30 209 30 30 209 30 30 210 31 31 210 31 31 210 31 31 210 32 32 210 32 32 210 32 32 210 33 33 211 33 33 211 33 33 211 34 34 211 34 34 211 34 34 211 35 35 211 35 35 211 35 35 212 36 36 212 36 36 212 36 36 212 37 37 212 37 37 212 37 37 212 38 38 212 38 38 212 38 38 212 38 38 213 39 39 213 39 39 213 39 39 213 40 40 213 40 40 213 40 40 213 40 40 213 41 41 213 41 41 213 41 41 213 41 41 213 42 42 213 42 42 213 42 42 213 42 42 213 43 43 213 43 43 213 43 43 213 43 43 213 43 43 213 44 44 213 44 44 213 44 44 213 44 44 213 44 44 213 44 44 213 45 45 213 45 45 213 45 45 213 45 45 213 45 45 213 45 45 213 45 45 213 45 45 213 46 46 213 46 46 212 46 46 212 46 46 212 46 46 212 46 46 212 46 46 212 46 46 212 46 46 211 46 46 211 46 46 211 46 46 211 46 46 211 46 46 211 46 46 210 46 46 210 46 46 210 46 46 210 46 46 209 46 46 209 46 46 209 46 46 209 46 46 208 46 46 208 46 46 208 46 46 208 46 46 207 45 45 207 45 45 207 45 45 206 45 45 206 45 45 206 45 45 205 45 45 205 44 44 205 44 44 204 44 44 204 44 44 203 44 44 203 43 43 203 43 43 202 43 43 202 43 43 201 43 43 201 42 42 201 42 42 200 42 42 200 42 42 199 41 41 199 41 41 198 41 41 198 40 40 197 40 40 197 40 40 196 40 40 196 
0 0 204 0 0 204 0 0 204 0 0 204 0 0 204 0 0 204 0 0 204 0 0 204 0 0 204 0 0 204 0 0 204 0 0 204 0 0 204 0 0 204 0 0 204 0 0 203 0 0 203 0 0 203 0 0 203 0 0 203 0 0 203 0 0 203 0 0 203 0 0 203 0 0 203 0 0 203 0 0 203 0 0 203 0 0 203 0 0 202 0 0 202 0 0 202 0 0 202 0 0 202 0 0 202 0 0 202 0 0 202 0 0 202 0 0 202 0 0 202 0 0 201 0 0 201 0 0 201 0 0 201 0 0 201 0 0 201 0 0 201 0 0 201 0 0 201 0 0 201 0 0 200 0 0 200 0 0 200 0 0 200 0 0 200 0 0 200 0 0 200 0 0 200 0 0 200 0 0 199 0 0 199 0 0 199 0 0 199 0 0 199 0 0 199 0 0 199 0 0 199 0 0 199 0 0 199 0 0 199 0 0 199 0 0 199 0 0 198 0 0 198 0 0 198 0 0 198 1 1 198 1 1 198 1 1 198 1 1 198 1 1 198 1 1 198 1 1 198 1 1 198 1 1 198 2 2 198 2 2 198 2 2 198 2 2 198 2 2 198 2 2 198 2 2 198 2 2 198 3 3 198 3 3 198 3 3 198 3 3 198 3 3 198 3 3 198 4 4 198 4 4 198 4 4 198 4 4 198 4 4 198 4 4 198 5 5 198 5 5 198 5 5 198 5 5 198 5 5 198 6 6 198 6 6 198 6 6 198 6 6 198 6 6 198 7 7 198 7 7 198 7 7 198 7 7 198 8 8 198 8 8 198 8 8 198 8 8 198 9 9 199 9 9 199 9 9 199 9 9 199 10 10 199 10 10 199 10 10 199 10 10 199 11 11 199 11 11 199 11 11 199 12 12 199 12 12 200 12 12 200 12 12 200 13 13 200 13 13 200 13 13 200 14 14 200 14 14 200 14 14 200 15 15 201 15 15 201 15 15 201 15 15 201 16 16 201 16 16 201 16 16 201 17 17 201 17 17 202 17 17 202 18 18 202 18 18 202 18 18 202 19 19 202 19 19 202 19 19 202 20 20 203 20 20 203 20 20 203 21 21 203 21 21 203 21 21 203 22 22 203 22 22 204 22 22 204 23 23 204 23 23 204 23 23 204 24 24 204 24 24 204 24 24 205 25 25 205 25 25 205 26 26 205 26 26 205 26 26 205 27 27 205 27 27 206 27 27 206 28 28 206 28 28 206 28 28 206 29 29 206 29 29 206 29 29 207 30 30 207 30 30 207 30 30 207 31 31 207 31 31 207 31 31 207 32 32 207 32 32 208 32 32 208 33 33 208 33 33 208 33 33 208 34 34 208 34 34 208 34 34 208 34 34 208 35 35 209 35 35 209 35 35 209 36 36 209 36 36 209 36 36 209 36 36 209 37 37 209 37 37 209 37 37 209 38 38 209 38 38 209 38 38 209 38 38 209 39 39 209 39 39 210 39 39 210 39 39 210 40 40 210 40 40 210 40 40 210 40 40 210 40 40 210 41 41 210 41 41 210 41 41 210 41 41 210 41 41 210 42 42 210 42 42 210 42 42 209 42 42 209 42 42 209 42 42 209 42 42 209 43 43 209 43 43 209 43 43 209 43 43 209 43 43 209 43 43 209 43 43 209 43 43 208 43 43 208 43 43 208 43 43 208 44 44 208 44 44 208 44 44 208 44 44 207 44 44 207 44 44 207 44 44 207 44 44 207 44 44 206 44 44 206 44 44 206 44 44 206 44 44 205 43 43 205 43 43 205 43 43 205 43 43 204 43 43 204 43 43 204 43 43 204 43 43 203 43 43 203 43 43 203 42 42 202 42 42 202 42 42 202 42 42 201 42 42 201 42 42 200 41 41 200 41 41 200 41 41 199 41 41 199 41 41 198 40 40 198 40 40 198 40 40 197 40 40 197 39 39 196 39 39 196 39 39 195 39 39 195 38 38 194 38 38 194 38 38 194 37 37 193 37 37 193 37 37 192 37 37 191 
0 0 202 0 0 202 0 0 202 0 0 202 0 0 202 0 0 202 0 0 202 0 0 202 0 0 202 0 0 202 0 0 202 0 0 202 0 0 202 0 0 202 0 0 201 0 0 201 0 0 201 0 0 201 0 0 201 0 0 201 0 0 201 0 0 201 0 0 201 0 0 201 0 0 201 0 0 201 0 0 201 0 0 201 0 0 201 0 0 200 0 0 200 0 0 200 0 0 200 0 0 200 0 0 200 0 0 200 0 0 200 0 0 200 0 0 200 0 0 200 0 0 200 0 0 199 0 0 199 0 0 199 0 0 199 0 0 199 0 0 199 0 0 199 0 0 199 0 0 199 0 0 199 0 0 198 0 0 198 0 0 198 0 0 198 0 0 198 0 0 198 0 0 198 0 0 198 0 0 198 0 0 197 0 0 197 0 0 197 0 0 197 0 0 197 0 0 197 0 0 197 0 0 197 0 0 197 0 0 197 0 0 196 0 0 196 0 0 196 0 0 196 0 0 196 0 0 196 0 0 196 0 0 196 0 0 196 0 0 196 0 0 196 1 1 196 1 1 196 1 1 196 1 1 196 1 1 195 1 1 195 1 1 195 1 1 195 1 1 195 1 1 195 2 2 195 2 2 195 2 2 195 2 2 195 2 2 195 2 2 195 2 2 195 3 3 195 3 3 195 3 3 195 3 3 195 3 3 195 3 3 195 4 4 195 4 4 195 4 4 195 4 4 195 4 4 195 4 4 195 5 5 195 5 5 195 5 5 195 5 5 195 5 5 195 6 6 195 6 6 195 6 6 195 6 6 195 6 6 195 7 7 196 7 7 196 7 7 196 7 7 196 8 8 196 8 8 196 8 8 196 8 8 196 9 9 196 9 9 196 9 9 196 9 9 196 10 10 196 10 10 196 10 10 196 10 10 197 11 11 197 11 11 197 11 11 197 11 11 197 12 12 197 12 12 197 12 12 197 13 13 197 13 13 197 13 13 197 13 13 198 14 14 198 14 14 198 14 14 198 15 15 198 15 15 198 15 15 198 16 16 198 16 16 198 16 16 199 17 17 199 17 17 199 17 17 199 18 18 199 18 18 199 18 18 199 18 18 199 19 19 200 19 19 200 19 19 200 20 20 200 20 20 200 20 20 200 21 21 200 21 21 200 21 21 201 22 22 201 22 22 201 22 22 201 23 23 201 23 23 201 23 23 201 24 24 202 24 24 202 24 24 202 25 25 202 25 25 202 25 25 202 26 26 202 26 26 202 26 26 203 27 27 203 27 27 203 27 27 203 28 28 203 28 28 203 28 28 203 29 29 203 29 29 204 29 29 204 30 30 204 30 30 204 30 30 204 31 31 204 31 31 204 31 31 204 32 32 204 32 32 205 32 32 205 32 32 205 33 33 205 33 33 205 33 33 205 34 34 205 34 34 205 34 34 205 34 34 205 35 35 205 35 35 205 35 35 205 35 35 205 36 36 206 36 36 206 36 36 206 36 36 206 37 37 206 37 37 206 37 37 206 37 37 206 38 38 206 38 38 206 38 38 206 38 38 206 38 38 206 38 38 206 39 39 206 39 39 206 39 39 206 39 39 206 39 39 205 39 39 205 40 40 205 40 40 205 40 40 205 40 40 205 40 40 205 40 40 205 40 40 205 40 40 205 40 40 205 41 41 205 41 41 204 41 41 204 41 41 204 41 41 204 41 41 204 41 41 204 41 41 203 41 41 203 41 41 203 41 41 203 41 41 203 41 41 202 41 41 202 41 41 202 41 41 202 41 41 202 41 41 201 41 41 201 41 41 201 40 40 200 40 40 200 40 40 200 40 40 200 40 40 199 40 40 199 40 40 199 40 40 198 40 40 198 39 39 198 39 39 197 39 39 197 39 39 196 39 39 196 38 38 196 38 38 195 38 38 195 38 38 194 38 38 194 37 37 194 37 37 193 37 37 193 37 37 192 36 36 192 36 36 191 36 36 191 36 36 190 35 35 190 35 35 189 35 35 189 34 34 188 34 34 188 34 34 187 33 33 187 
0 0 200 0 0 200 0 0 200 0 0 200 0 0 200 0 0 200 0 0 200 0 0 200 0 0 200 0 0 200 0 0 199 0 0 199 0 0 199 0 0 199 0 0 199 0 0 199 0 0 199 0 0 199 0 0 199 0 0 199 0 0 199 0 0 199 0 0 199 0 0 199 0 0 199 0 0 199 0 0 199 0 0 199 0 0 198 0 0 198 0 0 198 0 0 198 0 0 198 0 0 198 0 0 198 0 0 198 0 0 198 0 0 198 0 0 198 0 0 198 0 0 198 0 0 197 0 0 197 0 0 197 0 0 197 0 0 197 0 0 197 0 0 197 0 0 197 0 0 197 0 0 197 0 0 196 0 0 196 0 0 196 0 0 196 0 0 196 0 0 196 0 0 196 0 0 196 0 0 196 0 0 195 0 0 195 0 0 195 0 0 195 0 0 195 0 0 195 0 0 195 0 0 195 0 0 195 0 0 194 0 0 194 0 0 194 0 0 194 0 0 194 0 0 194 0 0 194 0 0 194 0 0 194 0 0 194 0 0 194 0 0 194 0 0 193 0 0 193 0 0 193 0 0 193 0 0 193 1 1 193 1 1 193 1 1 193 1 1 193 1 1 193 1 1 193 1 1 193 1 1 193 1 1 193 1 1 193 2 2 193 2 2 193 2 2 193 2 2 193 2 2 193 2 2 193 2 2 193 3 3 192 3 3 192 3 3 192 3 3 192 3 3 192 3 3 192 3 3 192 4 4 192 4 4 192 4 4 192 4 4 192 4 4 193 5 5 193 5 5 193 5 5 193 5 5 193 5 5 193 5 5 193 6 6 193 6 6 193 6 6 193 6 6 193 7 7 193 7 7 193 7 7 193 7 7 193 7 7 193 8 8 193 8 8 193 8 8 193 8 8 193 9 9 193 9 9 193 9 9 193 9 9 194 10 10 194 10 10 194 10 10 194 10 10 194 11 11 194 11 11 194 11 11 194 12 12 194 12 12 194 12 12 194 12 12 194 13 13 195 13 13 195 13 13 195 14 14 195 14 14 195 14 14 195 14 14 195 15 15 195 15 15 195 15 15 195 16 16 196 16 16 196 16 16 196 17 17 196 17 17 196 17 17 196 17 17 196 18 18 196 18 18 196 18 18 197 19 19 197 19 19 197 19 19 197 20 20 197 20 20 197 20 20 197 21 21 197 21 21 198 21 21 198 22 22 198 22 22 198 22 22 198 23 23 198 23 23 198 23 23 198 24 24 199 24 24 199 24 24 199 24 24 199 25 25 199 25 25 199 25 25 199 26 26 199 26 26 199 26 26 200 27 27 200 27 27 200 27 27 200 28 28 200 28 28 200 28 28 200 28 28 200 29 29 200 29 29 200 29 29 201 30 30 201 30 30 201 30 30 201 30 30 201 31 31 201 31 31 201 31 31 201 32 32 201 32 32 201 32 32 201 32 32 201 33 33 201 33 33 201 33 33 201 33 33 201 34 34 201 34 34 202 34 34 202 34 34 202 34 34 202 35 35 202 35 35 202 35 35 202 35 35 202 35 35 202 36 36 202 36 36 201 36 36 201 36 36 201 36 36 201 36 36 201 37 37 201 37 37 201 37 37 201 37 37 201 37 37 201 37 37 201 37 37 201 37 37 201 37 37 201 38 38 200 38 38 200 38 38 200 38 38 200 38 38 200 38 38 200 38 38 200 38 38 199 38 38 199 38 38 199 38 38 199 38 38 199 38 38 198 38 38 198 38 38 198 38 38 198 38 38 198 38 38 197 38 38 197 38 38 197 38 38 197 37 37 196 37 37 196 37 37 196 37 37 195 37 37 195 37 37 195 37 37 194 37 37 194 37 37 194 36 36 193 36 36 193 36 36 193 36 36 192 36 36 192 35 35 191 35 35 191 35 35 191 35 35 190 35 35 190 34 34 189 34 34 189 34 34 188 34 34 188 33 33 188 33 33 187 33 33 187 32 32 186 32 32 186 32 32 185 32 32 185 31 31 184 31 31 184 31 31 183 30 30 183 30 30 182 
0 0 198 0 0 198 0 0 198 0 0 197 0 0 197 0 0 197 0 0 197 0 0 197 0 0 197 0 0 197 0 0 197 0 0 197 0 0 197 0 0 197 0 0 197 0 0 197 0 0 197 0 0 197 0 0 197 0 0 197 0 0 197 0 0 197 0 0 197 0 0 197 0 0 197 0 0 197 0 0 196 0 0 196 0 0 196 0 0 196 0 0 196 0 0 196 0 0 196 0 0 196 0 0 196 0 0 196 0 0 196 0 0 196 0 0 196 0 0 196 0 0 195 0 0 195 0 0 195 0 0 195 0 0 195 0 0 195 0 0 195 0 0 195 0 0 195 0 0 195 0 0 195 0 0 194 0 0 194 0 0 194 0 0 194 0 0 194 0 0 194 0 0 194 0 0 194 0 0 194 0 0 193 0 0 193 0 0 193 0 0 193 0 0 193 0 0 193 0 0 193 0 0 193 0 0 193 0 0 192 0 0 192 0 0 192 0 0 192 0 0 192 0 0 192 0 0 192 0 0 192 0 0 192 0 0 192 0 0 191 0 0 191 0 0 191 0 0 191 0 0 191 0 0 191 0 0 191 0 0 191 0 0 191 0 0 191 0 0 191 0 0 191 0 0 190 1 1 190 1 1 190 1 1 190 1 1 190 1 1 190 1 1 190 1 1 190 1 1 190 1 1 190 1 1 190 2 2 190 2 2 190 2 2 190 2 2 190 2 2 190 2 2 190 2 2 190 3 3 190 3 3 190 3 3 190 3 3 190 3 3 190 3 3 190 3 3 190 4 4 190 4 4 190 4 4 190 4 4 190 4 4 190 5 5 190 5 5 190 5 5 190 5 5 190 5 5 190 6 6 190 6 6 190 6 6 190 6 6 190 6 6 190 7 7 190 7 7 190 7 7 190 7 7 190 7 7 190 8 8 190 8 8 190 8 8 190 8 8 190 9 9 190 9 9 191 9 9 191 9 9 191 10 10 191 10 10 191 10 10 191 10 10 191 11 11 191 11 11 191 11 11 191 11 11 191 12 12 191 12 12 191 12 12 192 13 13 192 13 13 192 13 13 192 13 13 192 14 14 192 14 14 192 14 14 192 15 15 192 15 15 192 15 15 192 15 15 193 16 16 193 16 16 193 16 16 193 17 17 193 17 17 193 17 17 193 18 18 193 18 18 193 18 18 194 18 18 194 19 19 194 19 19 194 19 19 194 20 20 194 20 20 194 20 20 194 21 21 194 21 21 194 21 21 195 21 21 195 22 22 195 22 22 195 22 22 195 23 23 195 23 23 195 23 23 195 24 24 195 24 24 195 24 24 196 24 24 196 25 25 196 25 25 196 25 25 196 26 26 196 26 26 196 26 26 196 26 26 196 27 27 196 27 27 196 27 27 196 28 28 197 28 28 197 28 28 197 28 28 197 29 29 197 29 29 197 29 29 197 29 29 197 30 30 197 30 30 197 30 30 197 30 30 197 31 31 197 31 31 197 31 31 197 31 31 197 31 31 197 32 32 197 32 32 197 32 32 197 32 32 197 32 32 197 33 33 197 33 33 197 33 33 197 33 33 197 33 33 197 33 33 197 33 33 197 34 34 197 34 34 197 34 34 197 34 34 197 34 34 196 34 34 196 34 34 196 34 34 196 34 34 196 34 34 196 35 35 196 35 35 196 35 35 195 35 35 195 35 35 195 35 35 195 35 35 195 35 35 195 35 35 194 35 35 194 35 35 194 35 35 194 35 35 194 35 35 193 35 35 193 35 35 193 34 34 193 34 34 192 34 34 192 34 34 192 34 34 191 34 34 191 34 34 191 34 34 190 34 34 190 34 34 190 33 33 190 33 33 189 33 33 189 33 33 188 33 33 188 33 33 188 32 32 187 32 32 187 32 32 186 32 32 186 31 31 186 31 31 185 31 31 185 31 31 184 31 31 184 30 30 183 30 30 183 30 30 183 29 29 182 29 29 182 29 29 181 29 29 181 28 28 180 28 28 180 28 28 179 27 27 179 27 27 178 27 27 178 26 26 177 
0 0 195 0 0 195 0 0 195 0 0 195 0 0 195 0 0 195 0 0 195 0 0 195 0 0 195 0 0 195 0 0 195 0 0 195 0 0 195 0 0 195 0 0 195 0 0 195 0 0 195 0 0 195 0 0 195 0 0 195 0 0 195 0 0 194 0 0 194 0 0 194 0 0 194 0 0 194 0 0 194 0 0 194 0 0 194 0 0 194 0 0 194 0 0 194 0 0 194 0 0 194 0 0 194 0 0 194 0 0 194 0 0 194 0 0 193 0 0 193 0 0 193 0 0 193 0 0 193 0 0 193 0 0 193 0 0 193 0 0 193 0 0 193 0 0 193 0 0 193 0 0 192 0 0 192 0 0 192 0 0 192 0 0 192 0 0 192 0 0 192 0 0 192 0 0 192 0 0 192 0 0 191 0 0 191 0 0 191 0 0 191 0 0 191 0 0 191 0 0 191 0 0 191 0 0 191 0 0 190 0 0 190 0 0 190 0 0 190 0 0 190 0 0 190 0 0 190 0 0 190 0 0 189 0 0 189 0 0 189 0 0 189 0 0 189 0 0 189 0 0 189 0 0 189 0 0 189 0 0 189 0 0 188 0 0 188 0 0 188 0 0 188 0 0 188 0 0 188 0 0 188 0 0 188 0 0 188 0 0 188 0 0 188 1 1 188 1 1 188 1 1 187 1 1 187 1 1 187 1 1 187 1 1 187 1 1 187 1 1 187 1 1 187 2 2 187 2 2 187 2 2 187 2 2 187 2 2 187 2 2 187 2 2 187 3 3 187 3 3 187 3 3 187 3 3 187 3 3 187 3 3 187 3 3 187 4 4 187 4 4 187 4 4 187 4 4 187 4 4 187 4 4 187 5 5 187 5 5 187 5 5 187 5 5 187 5 5 187 6 6 187 6 6 187 6 6 187 6 6 187 6 6 187 7 7 187 7 7 187 7 7 187 7 7 187 8 8 187 8 8 187 8 8 187 8 8 187 8 8 187 9 9 188 9 9 188 9 9 188 9 9 188 10 10 188 10 10 188 10 10 188 10 10 188 11 11 188 11 11 188 11 11 188 12 12 188 12 12 188 12 12 188 12 12 189 13 13 189 13 13 189 13 13 189 13 13 189 14 14 189 14 14 189 14 14 189 14 14 189 15 15 189 15 15 189 15 15 189 16 16 190 16 16 190 16 16 190 16 16 190 17 17 190 17 17 190 17 17 190 18 18 190 18 18 190 18 18 190 18 18 190 19 19 191 19 19 191 19 19 191 20 20 191 20 20 191 20 20 191 20 20 191 21 21 191 21 21 191 21 21 191 22 22 191 22 22 191 22 22 192 22 22 192 23 23 192 23 23 192 23 23 192 23 23 192 24 24 192 24 24 192 24 24 192 25 25 192 25 25 192 25 25 192 25 25 192 25 25 192 26 26 192 26 26 192 26 26 192 26 26 192 27 27 192 27 27 193 27 27 193 27 27 193 28 28 193 28 28 193 28 28 193 28 28 193 28 28 193 29 29 193 29 29 193 29 29 193 29 29 192 29 29 192 29 29 192 30 30 192 30 30 192 30 30 192 30 30 192 30 30 192 30 30 192 30 30 192 30 30 192 31 31 192 31 31 192 31 31 192 31 31 192 31 31 191 31 31 191 31 31 191 31 31 191 31 31 191 31 31 191 31 31 191 31 31 190 31 31 190 31 31 190 31 31 190 31 31 190 31 31 189 31 31 189 31 31 189 31 31 189 31 31 189 31 31 188 31 31 188 31 31 188 31 31 187 31 31 187 31 31 187 31 31 187 31 31 186 30 30 186 30 30 186 30 30 185 30 30 185 30 30 185 30 30 184 30 30 184 29 29 184 29 29 183 29 29 183 29 29 182 29 29 182 28 28 182 28 28 181 28 28 181 28 28 180 27 27 180 27 27 180 27 27 179 27 27 179 26 26 178 26 26 178 26 26 177 26 26 177 25 25 176 25 25 176 25 25 175 24 24 175 24 24 174 24 24 174 23 23 173 23 23 173 23 23 172 22 22 172 
0 0 193 0 0 193 0 0 193 0 0 193 0 0 193 0 0 193 0 0 193 0 0 193 0 0 193 0 0 193 0 0 193 0 0 193 0 0 193 0 0 192 0 0 192 0 0 192 0 0 192 0 0 192 0 0 192 0 0 192 0 0 192 0 0 192 0 0 192 0 0 192 0 0 192 0 0 192 0 0 192 0 0 192 0 0 192 0 0 192 0 0 192 0 0 192 0 0 192 0 0 192 0 0 191 0 0 191 0 0 191 0 0 191 0 0 191 0 0 191 0 0 191 0 0 191 0 0 191 0 0 191 0 0 191 0 0 191 0 0 191 0 0 191 0 0 190 0 0 190 0 0 190 0 0 190 0 0 190 0 0 190 0 0 190 0 0 190 0 0 190 0 0 190 0 0 190 0 0 189 0 0 189 0 0 189 0 0 189 0 0 189 0 0 189 0 0 189 0 0 189 0 0 189 0 0 188 0 0 188 0 0 188 0 0 188 0 0 188 0 0 188 0 0 188 0 0 188 0 0 188 0 0 187 0 0 187 0 0 187 0 0 187 0 0 187 0 0 187 0 0 187 0 0 187 0 0 186 0 0 186 0 0 186 0 0 186 0 0 186 0 0 186 0 0 186 0 0 186 0 0 186 0 0 186 0 0 185 0 0 185 0 0 185 0 0 185 0 0 185 0 0 185 0 0 185 0 0 185 0 0 185 1 1 185 1 1 185 1 1 185 1 1 185 1 1 184 1 1 184 1 1 184 1 1 184 1 1 184 1 1 184 2 2 184 2 2 184 2 2 184 2 2 184 2 2 184 2 2 184 2 2 184 2 2 184 3 3 184 3 3 184 3 3 184 3 3 184 3 3 184 3 3 184 3 3 184 4 4 184 4 4 184 4 4 184 4 4 184 4 4 184 4 4 184 5 5 184 5 5 184 5 5 184 5 5 184 5 5 184 6 6 184 6 6 184 6 6 184 6 6 184 6 6 184 7 7 184 7 7 184 7 7 184 7 7 184 8 8 184 8 8 184 8 8 184 8 8 184 8 8 184 9 9 184 9 9 184 9 9 184 9 9 185 10 10 185 10 10 185 10 10 185 10 10 185 11 11 185 11 11 185 11 11 185 11 11 185 12 12 185 12 12 185 12 12 185 12 12 185 13 13 185 13 13 185 13 13 185 13 13 186 14 14 186 14 14 186 14 14 186 14 14 186 15 15 186 15 15 186 15 15 186 15 15 186 16 16 186 16 16 186 16 16 186 17 17 186 17 17 186 17 17 187 17 17 187 18 18 187 18 18 187 18 18 187 18 18 187 19 19 187 19 19 187 19 19 187 19 19 187 20 20 187 20 20 187 20 20 187 20 20 187 21 21 187 21 21 187 21 21 187 21 21 188 22 22 188 22 22 188 22 22 188 22 22 188 23 23 188 23 23 188 23 23 188 23 23 188 23 23 188 24 24 188 24 24 188 24 24 188 24 24 188 24 24 188 25 25 188 25 25 188 25 25 188 25 25 188 25 25 188 25 25 188 26 26 188 26 26 188 26 26 188 26 26 188 26 26 187 26 26 187 27 27 187 27 27 187 27 27 187 27 27 187 27 27 187 27 27 187 27 27 187 27 27 187 27 27 187 27 27 186 27 27 186 28 28 186 28 28 186 28 28 186 28 28 186 28 28 186 28 28 185 28 28 185 28 28 185 28 28 185 28 28 185 28 28 184 28 28 184 28 28 184 28 28 184 28 28 183 27 27 183 27 27 183 27 27 183 27 27 182 27 27 182 27 27 182 27 27 182 27 27 181 27 27 181 27 27 181 26 26 180 26 26 180 26 26 180 26 26 179 26 26 179 26 26 179 26 26 178 25 25 178 25 25 177 25 25 177 25 25 177 24 24 176 24 24 176 24 24 175 24 24 175 24 24 174 23 23 174 23 23 174 23 23 173 22 22 173 22 22 172 22 22 172 22 22 171 21 21 171 21 21 170 21 21 170 20 20 169 20 20 169 20 20 168 19 19 168 19 19 167 19 19 167 18 18 166 
0 0 190 0 0 190 0 0 190 0 0 190 0 0 190 0 0 190 0 0 190 0 0 190 0 0 190 0 0 190 0 0 190 0 0 190 0 0 190 0 0 190 0 0 190 0 0 190 0 0 190 0 0 190 0 0 190 0 0 190 0 0 190 0 0 190 0 0 190 0 0 190 0 0 190 0 0 190 0 0 190 0 0 190 0 0 189 0 0 189 0 0 189 0 0 189 0 0 189 0 0 189 0 0 189 0 0 189 0 0 189 0 0 189 0 0 189 0 0 189 0 0 189 0 0 189 0 0 189 0 0 189 0 0 188 0 0 188 0 0 188 0 0 188 0 0 188 0 0 188 0 0 188 0 0 188 0 0 188 0 0 188 0 0 188 0 0 188 0 0 187 0 0 187 0 0 187 0 0 187 0 0 187 0 0 187 0 0 187 0 0 187 0 0 187 0 0 187 0 0 187 0 0 186 0 0 186 0 0 186 0 0 186 0 0 186 0 0 186 0 0 186 0 0 186 0 0 186 0 0 185 0 0 185 0 0 185 0 0 185 0 0 185 0 0 185 0 0 185 0 0 185 0 0 184 0 0 184 0 0 184 0 0 184 0 0 184 0 0 184 0 0 184 0 0 184 0 0 183 0 0 183 0 0 183 0 0 183 0 0 183 0 0 183 0 0 183 0 0 183 0 0 183 0 0 183 0 0 182 0 0 182 0 0 182 0 0 182 0 0 182 0 0 182 0 0 182 0 0 182 0 0 182 1 1 182 1 1 182 1 1 182 1 1 181 1 1 181 1 1 181 1 1 181 1 1 181 1 1 181 1 1 181 1 1 181 2 2 181 2 2 181 2 2 181 2 2 181 2 2 181 2 2 181 2 2 181 2 2 181 3 3 181 3 3 181 3 3 181 3 3 181 3 3 181 3 3 181 4 4 181 4 4 181 4 4 181 4 4 181 4 4 181 4 4 181 5 5 181 5 5 181 5 5 181 5 5 181 5 5 181 5 5 181 6 6 181 6 6 181 6 6 181 6 6 181 6 6 181 7 7 181 7 7 181 7 7 181 7 7 181 7 7 181 8 8 181 8 8 181 8 8 181 8 8 181 9 9 181 9 9 181 9 9 181 9 9 181 9 9 181 10 10 181 10 10 181 10 10 181 10 10 181 11 11 181 11 11 181 11 11 181 11 11 182 12 12 182 12 12 182 12 12 182 12 12 182 13 13 182 13 13 182 13 13 182 13 13 182 13 13 182 14 14 182 14 14 182 14 14 182 14 14 182 15 15 182 15 15 182 15 15 182 15 15 182 16 16 182 16 16 182 16 16 182 16 16 183 17 17 183 17 17 183 17 17 183 17 17 183 17 17 183 18 18 183 18 18 183 18 18 183 18 18 183 19 19 183 19 19 183 19 19 183 19 19 183 19 19 183 20 20 183 20 20 183 20 20 183 20 20 183 20 20 183 21 21 183 21 21 183 21 21 183 21 21 183 21 21 183 21 21 183 22 22 183 22 22 183 22 22 183 22 22 183 22 22 183 22 22 183 22 22 182 23 23 182 23 23 182 23 23 182 23 23 182 23 23 182 23 23 182 23 23 182 23 23 182 23 23 182 24 24 182 24 24 181 24 24 181 24 24 181 24 24 181 24 24 181 24 24 181 24 24 181 24 24 180 24 24 180 24 24 180 24 24 180 24 24 180 24 24 179 24 24 179 24 24 179 24 24 179 24 24 178 24 24 178 24 24 178 24 24 178 23 23 177 23 23 177 23 23 177 23 23 177 23 23 176 23 23 176 23 23 176 23 23 175 23 23 175 22 22 175 22 22 174 22 22 174 22 22 174 22 22 173 22 22 173 21 21 172 21 21 172 21 21 172 21 21 171 21 21 171 20 20 170 20 20 170 20 20 170 20 20 169 19 19 169 19 19 168 19 19 168 19 19 167 18 18 167 18 18 166 18 18 166 17 17 166 17 17 165 17 17 165 17 17 164 16 16 164 16 16 163 16 16 163 15 15 162 15 15 162 15 15 161 14 14 161 
0 0 188 0 0 188 0 0 188 0 0 188 0 0 188 0 0 188 0 0 188 0 0 188 0 0 188 0 0 188 0 0 188 0 0 188 0 0 188 0 0 188 0 0 188 0 0 187 0 0 187 0 0 187 0 0 187 0 0 187 0 0 187 0 0 187 0 0 187 0 0 187 0 0 187 0 0 187 0 0 187 0 0 187 0 0 187 0 0 187 0 0 187 0 0 187 0 0 187 0 0 187 0 0 187 0 0 187 0 0 187 0 0 187 0 0 187 0 0 186 0 0 186 0 0 186 0 0 186 0 0 186 0 0 186 0 0 186 0 0 186 0 0 186 0 0 186 0 0 186 0 0 186 0 0 186 0 0 186 0 0 185 0 0 185 0 0 185 0 0 185 0 0 185 0 0 185 0 0 185 0 0 185 0 0 185 0 0 185 0 0 185 0 0 184 0 0 184 0 0 184 0 0 184 0 0 184 0 0 184 0 0 184 0 0 184 0 0 184 0 0 184 0 0 183 0 0 183 0 0 183 0 0 183 0 0 183 0 0 183 0 0 183 0 0 183 0 0 183 0 0 182 0 0 182 0 0 182 0 0 182 0 0 182 0 0 182 0 0 182 0 0 182 0 0 181 0 0 181 0 0 181 0 0 181 0 0 181 0 0 181 0 0 181 0 0 181 0 0 180 0 0 180 0 0 180 0 0 180 0 0 180 0 0 180 0 0 180 0 0 180 0 0 180 0 0 179 0 0 179 0 0 179 0 0 179 0 0 179 0 0 179 0 0 179 0 0 179 0 0 179 0 0 179 0 0 179 1 1 178 1 1 178 1 1 178 1 1 178 1 1 178 1 1 178 1 1 178 1 1 178 1 1 178 1 1 178 1 1 178 2 2 178 2 2 178 2 2 178 2 2 178 2 2 178 2 2 178 2 2 178 2 2 177 3 3 177 3 3 177 3 3 177 3 3 177 3 3 177 3 3 177 3 3 177 4 4 177 4 4 177 4 4 177 4 4 177 4 4 177 4 4 177 5 5 177 5 5 177 5 5 177 5 5 177 5 5 177 5 5 177 6 6 177 6 6 177 6 6 177 6 6 177 6 6 177 7 7 177 7 7 177 7 7 177 7 7 177 7 7 177 8 8 177 8 8 177 8 8 177 8 8 177 8 8 177 9 9 177 9 9 177 9 9 177 9 9 177 9 9 177 10 10 177 10 10 178 10 10 178 10 10 178 11 11 178 11 11 178 11 11 178 11 11 178 11 11 178 12 12 178 12 12 178 12 12 178 12 12 178 12 12 178 13 13 178 13 13 178 13 13 178 13 13 178 13 13 178 14 14 178 14 14 178 14 14 178 14 14 178 14 14 178 15 15 178 15 15 178 15 15 178 15 15 178 15 15 178 16 16 178 16 16 178 16 16 178 16 16 178 16 16 178 17 17 178 17 17 178 17 17 178 17 17 178 17 17 178 17 17 178 18 18 178 18 18 178 18 18 178 18 18 178 18 18 178 18 18 178 18 18 177 19 19 177 19 19 177 19 19 177 19 19 177 19 19 177 19 19 177 19 19 177 19 19 177 19 19 177 19 19 177 20 20 176 20 20 176 20 20 176 20 20 176 20 20 176 20 20 176 20 20 176 20 20 175 20 20 175 20 20 175 20 20 175 20 20 175 20 20 175 20 20 174 20 20 174 20 20 174 20 20 174 20 20 173 20 20 173 20 20 173 20 20 173 20 20 172 20 20 172 19 19 172 19 19 172 19 19 171 19 19 171 19 19 171 19 19 170 19 19 170 19 19 170 19 19 169 18 18 169 18 18 169 18 18 168 18 18 168 18 18 168 18 18 167 17 17 167 17 17 167 17 17 166 17 17 166 17 17 165 16 16 165 16 16 165 16 16 164 16 16 164 15 15 163 15 15 163 15 15 162 15 15 162 14 14 162 14 14 161 14 14 161 14 14 160 13 13 160 13 13 159 13 13 159 12 12 158 12 12 158 12 12 157 12 12 157 11 11 156 11 11 156 11 11 156 10 10 155 
0 0 185 0 0 185 0 0 185 0 0 185 0 0 185 0 0 185 0 0 185 0 0 185 0 0 185 0 0 185 0 0 185 0 0 185 0 0 185 0 0 185 0 0 185 0 0 185 0 0 185 0 0 185 0 0 185 0 0 185 0 0 185 0 0 185 0 0 185 0 0 185 0 0 185 0 0 185 0 0 185 0 0 185 0 0 185 0 0 184 0 0 184 0 0 184 0 0 184 0 0 184 0 0 184 0 0 184 0 0 184 0 0 184 0 0 184 0 0 184 0 0 184 0 0 184 0 0 184 0 0 184 0 0 184 0 0 184 0 0 184 0 0 184 0 0 183 0 0 183 0 0 183 0 0 183 0 0 183 0 0 183 0 0 183 0 0 183 0 0 183 0 0 183 0 0 183 0 0 183 0 0 183 0 0 182 0 0 182 0 0 182 0 0 182 0 0 182 0 0 182 0 0 182 0 0 182 0 0 182 0 0 182 0 0 181 0 0 181 0 0 181 0 0 181 0 0 181 0 0 181 0 0 181 0 0 181 0 0 181 0 0 181 0 0 180 0 0 180 0 0 180 0 0 180 0 0 180 0 0 180 0 0 180 0 0 180 0 0 179 0 0 179 0 0 179 0 0 179 0 0 179 0 0 179 0 0 179 0 0 179 0 0 178 0 0 178 0 0 178 0 0 178 0 0 178 0 0 178 0 0 178 0 0 178 0 0 177 0 0 177 0 0 177 0 0 177 0 0 177 0 0 177 0 0 177 0 0 177 0 0 176 0 0 176 0 0 176 0 0 176 0 0 176 0 0 176 0 0 176 0 0 176 0 0 176 0 0 176 0 0 175 0 0 175 0 0 175 0 0 175 0 0 175 1 1 175 1 1 175 1 1 175 1 1 175 1 1 175 1 1 175 1 1 175 1 1 175 1 1 174 1 1 174 2 2 174 2 2 174 2 2 174 2 2 174 2 2 174 2 2 174 2 2 174 2 2 174 2 2 174 3 3 174 3 3 174 3 3 174 3 3 174 3 3 174 3 3 174 3 3 174 4 4 174 4 4 174 4 4 174 4 4 174 4 4 174 4 4 174 4 4 173 5 5 173 5 5 173 5 5 173 5 5 173 5 5 173 5 5 173 6 6 173 6 6 173 6 6 173 6 6 173 6 6 173 6 6 173 7 7 173 7 7 173 7 7 173 7 7 173 7 7 173 8 8 173 8 8 173 8 8 173 8 8 173 8 8 173 8 8 173 9 9 173 9 9 173 9 9 173 9 9 173 9 9 173 10 10 173 10 10 173 10 10 173 10 10 173 10 10 173 10 10 173 11 11 173 11 11 173 11 11 173 11 11 173 11 11 173 12 12 173 12 12 173 12 12 173 12 12 173 12 12 173 12 12 173 13 13 173 13 13 173 13 13 173 13 13 173 13 13 173 13 13 173 13 13 173 14 14 173 14 14 173 14 14 173 14 14 173 14 14 173 14 14 172 14 14 172 14 14 172 15 15 172 15 15 172 15 15 172 15 15 172 15 15 172 15 15 172 15 15 172 15 15 172 15 15 172 15 15 171 16 16 171 16 16 171 16 16 171 16 16 171 16 16 171 16 16 171 16 16 170 16 16 170 16 16 170 16 16 170 16 16 170 16 16 170 16 16 169 16 16 169 16 16 169 16 16 169 16 16 169 16 16 168 16 16 168 16 16 168 16 16 168 16 16 167 16 16 167 15 15 167 15 15 167 15 15 166 15 15 166 15 15 166 15 15 165 15 15 165 15 15 165 15 15 165 15 15 164 14 14 164 14 14 164 14 14 163 14 14 163 14 14 163 14 14 162 13 13 162 13 13 161 13 13 161 13 13 161 13 13 160 12 12 160 12 12 160 12 12 159 12 12 159 12 12 158 11 11 158 11 11 157 11 11 157 11 11 157 10 10 156 10 10 156 10 10 155 10 10 155 9 9 155 9 9 154 9 9 154 9 9 153 8 8 153 8 8 152 8 8 152 8 8 151 7 7 151 7 7 151 7 7 150 7 7 150 
0 0 182 0 0 182 0 0 182 0 0 182 0 0 182 0 0 182 0 0 182 0 0 182 0 0 182 0 0 182 0 0 182 0 0 182 0 0 182 0 0 182 0 0 182 0 0 182 0 0 182 0 0 182 0 0 182 0 0 182 0 0 182 0 0 182 0 0 182 0 0 182 0 0 182 0 0 182 0 0 182 0 0 182 0 0 182 0 0 182 0 0 182 0 0 182 0 0 182 0 0 182 0 0 182 0 0 182 0 0 182 0 0 182 0 0 182 0 0 181 0 0 181 0 0 181 0 0 181 0 0 181 0 0 181 0 0 181 0 0 181 0 0 181 0 0 181 0 0 181 0 0 181 0 0 181 0 0 181 0 0 181 0 0 181 0 0 180 0 0 180 0 0 180 0 0 180 0 0 180 0 0 180 0 0 180 0 0 180 0 0 180 0 0 180 0 0 180 0 0 180 0 0 179 0 0 179 0 0 179 0 0 179 0 0 179 0 0 179 0 0 179 0 0 179 0 0 179 0 0 179 0 0 179 0 0 178 0 0 178 0 0 178 0 0 178 0 0 178 0 0 178 0 0 178 0 0 178 0 0 178 0 0 177 0 0 177 0 0 177 0 0 177 0 0 177 0 0 177 0 0 177 0 0 177 0 0 176 0 0 176 0 0 176 0 0 176 0 0 176 0 0 176 0 0 176 0 0 176 0 0 175 0 0 175 0 0 175 0 0 175 0 0 175 0 0 175 0 0 175 0 0 174 0 0 174 0 0 174 0 0 174 0 0 174 0 0 174 0 0 174 0 0 174 0 0 173 0 0 173 0 0 173 0 0 173 0 0 173 0 0 173 0 0 173 0 0 173 0 0 173 0 0 172 0 0 172 0 0 172 0 0 172 0 0 172 0 0 172 0 0 172 0 0 172 0 0 172 0 0 172 1 1 171 1 1 171 1 1 171 1 1 171 1 1 171 1 1 171 1 1 171 1 1 171 1 1 171 1 1 171 1 1 171 1 1 171 2 2 171 2 2 170 2 2 170 2 2 170 2 2 170 2 2 170 2 2 170 2 2 170 2 2 170 3 3 170 3 3 170 3 3 170 3 3 170 3 3 170 3 3 170 3 3 170 3 3 170 4 4 170 4 4 170 4 4 170 4 4 170 4 4 169 4 4 169 4 4 169 5 5 169 5 5 169 5 5 169 5 5 169 5 5 169 5 5 169 5 5 169 6 6 169 6 6 169 6 6 169 6 6 169 6 6 169 6 6 169 7 7 169 7 7 169 7 7 169 7 7 169 7 7 169 7 7 169 7 7 169 8 8 169 8 8 169 8 8 169 8 8 169 8 8 169 8 8 168 8 8 168 9 9 168 9 9 168 9 9 168 9 9 168 9 9 168 9 9 168 9 9 168 10 10 168 10 10 168 10 10 168 10 10 168 10 10 168 10 10 168 10 10 168 10 10 168 11 11 167 11 11 167 11 11 167 11 11 167 11 11 167 11 11 167 11 11 167 11 11 167 11 11 167 11 11 167 11 11 166 11 11 166 12 12 166 12 12 166 12 12 166 12 12 166 12 12 166 12 12 166 12 12 165 12 12 165 12 12 165 12 12 165 12 12 165 12 12 165 12 12 164 12 12 164 12 12 164 12 12 164 12 12 164 12 12 163 12 12 163 12 12 163 12 12 163 12 12 162 12 12 162 12 12 162 12 12 162 11 11 161 11 11 161 11 11 161 11 11 161 11 11 160 11 11 160 11 11 160 11 11 160 11 11 159 11 11 159 10 10 159 10 10 158 10 10 158 10 10 158 10 10 157 10 10 157 10 10 157 9 9 156 9 9 156 9 9 156 9 9 155 9 9 155 9 9 154 8 8 154 8 8 154 8 8 153 8 8 153 8 8 153 7 7 152 7 7 152 7 7 151 7 7 151 7 7 151 6 6 150 6 6 150 6 6 149 6 6 149 5 5 149 5 5 148 5 5 148 5 5 148 5 5 147 4 4 147 4 4 146 4 4 146 4 4 146 4 4 145 3 3 145 
0 0 179 0 0 179 0 0 180 0 0 180 0 0 180 0 0 180 0 0 180 0 0 180 0 0 180 0 0 180 0 0 180 0 0 180 0 0 180 0 0 180 0 0 180 0 0 180 0 0 180 0 0 180 0 0 179 0 0 179 0 0 179 0 0 179 0 0 179 0 0 179 0 0 179 0 0 179 0 0 179 0 0 179 0 0 179 0 0 179 0 0 179 0 0 179 0 0 179 0 0 179 0 0 179 0 0 179 0 0 179 0 0 179 0 0 179 0 0 179 0 0 179 0 0 179 0 0 179 0 0 179 0 0 179 0 0 179 0 0 179 0 0 178 0 0 178 0 0 178 0 0 178 0 0 178 0 0 178 0 0 178 0 0 178 0 0 178 0 0 178 0 0 178 0 0 178 0 0 178 0 0 178 0 0 178 0 0 177 0 0 177 0 0 177 0 0 177 0 0 177 0 0 177 0 0 177 0 0 177 0 0 177 0 0 177 0 0 177 0 0 177 0 0 176 0 0 176 0 0 176 0 0 176 0 0 176 0 0 176 0 0 176 0 0 176 0 0 176 0 0 176 0 0 175 0 0 175 0 0 175 0 0 175 0 0 175 0 0 175 0 0 175 0 0 175 0 0 175 0 0 174 0 0 174 0 0 174 0 0 174 0 0 174 0 0 174 0 0 174 0 0 174 0 0 173 0 0 173 0 0 173 0 0 173 0 0 173 0 0 173 0 0 173 0 0 173 0 0 172 0 0 172 0 0 172 0 0 172 0 0 172 0 0 172 0 0 172 0 0 171 0 0 171 0 0 171 0 0 171 0 0 171 0 0 171 0 0 171 0 0 170 0 0 170 0 0 170 0 0 170 0 0 170 0 0 170 0 0 170 0 0 170 0 0 169 0 0 169 0 0 169 0 0 169 0 0 169 0 0 169 0 0 169 0 0 169 0 0 168 0 0 168 0 0 168 0 0 168 0 0 168 0 0 168 0 0 168 0 0 168 0 0 168 0 0 168 1 1 167 1 1 167 1 1 167 1 1 167 1 1 167 1 1 167 1 1 167 1 1 167 1 1 167 1 1 167 1 1 167 1 1 166 2 2 166 2 2 166 2 2 166 2 2 166 2 2 166 2 2 166 2 2 166 2 2 166 2 2 166 2 2 166 3 3 166 3 3 166 3 3 166 3 3 165 3 3 165 3 3 165 3 3 165 3 3 165 3 3 165 4 4 165 4 4 165 4 4 165 4 4 165 4 4 165 4 4 165 4 4 165 4 4 165 4 4 165 5 5 164 5 5 164 5 5 164 5 5 164 5 5 164 5 5 164 5 5 164 5 5 164 6 6 164 6 6 164 6 6 164 6 6 164 6 6 164 6 6 164 6 6 164 6 6 163 6 6 163 6 6 163 7 7 163 7 7 163 7 7 163 7 7 163 7 7 163 7 7 163 7 7 163 7 7 162 7 7 162 7 7 162 7 7 162 8 8 162 8 8 162 8 8 162 8 8 162 8 8 162 8 8 161 8 8 161 8 8 161 8 8 161 8 8 161 8 8 161 8 8 161 8 8 160 8 8 160 8 8 160 8 8 160 8 8 160 8 8 160 8 8 159 8 8 159 8 8 159 8 8 159 8 8 159 8 8 158 8 8 158 8 8 158 8 8 158 8 8 157 8 8 157 8 8 157 8 8 157 8 8 157 8 8 156 8 8 156 8 8 156 7 7 155 7 7 155 7 7 155 7 7 155 7 7 154 7 7 154 7 7 154 7 7 154 7 7 153 7 7 153 6 6 153 6 6 152 6 6 152 6 6 152 6 6 151 6 6 151 6 6 151 5 5 150 5 5 150 5 5 150 5 5 149 5 5 149 5 5 149 5 5 148 4 4 148 4 4 148 4 4 147 4 4 147 4 4 147 4 4 146 3 3 146 3 3 146 3 3 145 3 3 145 3 3 145 3 3 144 2 2 144 2 2 144 2 2 143 2 2 143 2 2 143 2 2 142 1 1 142 1 1 142 1 1 141 1 1 141 1 1 141 
0 0 177 0 0 177 0 0 177 0 0 177 0 0 177 0 0 177 0 0 177 0 0 177 0 0 177 0 0 177 0 0 177 0 0 177 0 0 177 0 0 177 0 0 177 0 0 177 0 0 177 0 0 177 0 0 177 0 0 177 0 0 177 0 0 177 0 0 177 0 0 177 0 0 177 0 0 177 0 0 177 0 0 177 0 0 177 0 0 177 0 0 177 0 0 176 0 0 176 0 0 176 0 0 176 0 0 176 0 0 176 0 0 176 0 0 176 0 0 176 0 0 176 0 0 176 0 0 176 0 0 176 0 0 176 0 0 176 0 0 176 0 0 176 0 0 176 0 0 176 0 0 176 0 0 176 0 0 176 0 0 176 0 0 175 0 0 175 0 0 175 0 0 175 0 0 175 0 0 175 0 0 175 0 0 175 0 0 175 0 0 175 0 0 175 0 0 175 0 0 175 0 0 175 0 0 174 0 0 174 0 0 174 0 0 174 0 0 174 0 0 174 0 0 174 0 0 174 0 0 174 0 0 174 0 0 174 0 0 173 0 0 173 0 0 173 0 0 173 0 0 173 0 0 173 0 0 173 0 0 173 0 0 173 0 0 173 0 0 172 0 0 172 0 0 172 0 0 172 0 0 172 0 0 172 0 0 172 0 0 172 0 0 172 0 0 171 0 0 171 0 0 171 0 0 171 0 0 171 0 0 171 0 0 171 0 0 171 0 0 170 0 0 170 0 0 170 0 0 170 0 0 170 0 0 170 0 0 170 0 0 170 0 0 169 0 0 169 0 0 169 0 0 169 0 0 169 0 0 169 0 0 169 0 0 168 0 0 168 0 0 168 0 0 168 0 0 168 0 0 168 0 0 168 0 0 167 0 0 167 0 0 167 0 0 167 0 0 167 0 0 167 0 0 167 0 0 166 0 0 166 0 0 166 0 0 166 0 0 166 0 0 166 0 0 166 0 0 165 0 0 165 0 0 165 0 0 165 0 0 165 0 0 165 0 0 165 0 0 165 0 0 164 0 0 164 0 0 164 0 0 164 0 0 164 0 0 164 0 0 164 0 0 164 0 0 164 0 0 163 0 0 163 0 0 163 0 0 163 1 1 163 1 1 163 1 1 163 1 1 163 1 1 163 1 1 162 1 1 162 1 1 162 1 1 162 1 1 162 1 1 162 1 1 162 1 1 162 1 1 162 2 2 162 2 2 161 2 2 161 2 2 161 2 2 161 2 2 161 2 2 161 2 2 161 2 2 161 2 2 161 2 2 161 2 2 161 3 3 160 3 3 160 3 3 160 3 3 160 3 3 160 3 3 160 3 3 160 3 3 160 3 3 160 3 3 160 3 3 159 3 3 159 3 3 159 4 4 159 4 4 159 4 4 159 4 4 159 4 4 159 4 4 159 4 4 158 4 4 158 4 4 158 4 4 158 4 4 158 4 4 158 4 4 158 4 4 158 4 4 157 4 4 157 5 5 157 5 5 157 5 5 157 5 5 157 5 5 157 5 5 156 5 5 156 5 5 156 5 5 156 5 5 156 5 5 156 5 5 155 5 5 155 5 5 155 5 5 155 5 5 155 5 5 154 5 5 154 5 5 154 5 5 154 5 5 154 5 5 153 5 5 153 5 5 153 5 5 153 5 5 153 5 5 152 4 4 152 4 4 152 4 4 152 4 4 151 4 4 151 4 4 151 4 4 151 4 4 150 4 4 150 4 4 150 4 4 150 4 4 149 4 4 149 4 4 149 3 3 149 3 3 148 3 3 148 3 3 148 3 3 147 3 3 147 3 3 147 3 3 147 3 3 146 3 3 146 2 2 146 2 2 145 2 2 145 2 2 145 2 2 145 2 2 144 2 2 144 2 2 144 1 1 143 1 1 143 1 1 143 1 1 142 1 1 142 1 1 142 1 1 142 1 1 141 1 1 141 1 1 141 0 0 141 0 0 140 0 0 140 0 0 140 0 0 139 0 0 139 0 0 139 0 0 139 0 0 138 0 0 138 0 0 138 0 0 138 0 0 138 
0 0 174 0 0 174 0 0 174 0 0 174 0 0 174 0 0 174 0 0 174 0 0 174 0 0 174 0 0 174 0 0 174 0 0 174 0 0 174 0 0 174 0 0 174 0 0 174 0 0 174 0 0 174 0 0 174 0 0 174 0 0 174 0 0 174 0 0 174 0 0 174 0 0 174 0 0 174 0 0 174 0 0 174 0 0 174 0 0 174 0 0 174 0 0 174 0 0 174 0 0 174 0 0 174 0 0 174 0 0 174 0 0 174 0 0 174 0 0 173 0 0 173 0 0 173 0 0 173 0 0 173 0 0 173 0 0 173 0 0 173 0 0 173 0 0 173 0 0 173 0 0 173 0 0 173 0 0 173 0 0 173 0 0 173 0 0 173 0 0 173 0 0 173 0 0 173 0 0 172 0 0 172 0 0 172 0 0 172 0 0 172 0 0 172 0 0 172 0 0 172 0 0 172 0 0 172 0 0 172 0 0 172 0 0 172 0 0 172 0 0 171 0 0 171 0 0 171 0 0 171 0 0 171 0 0 171 0 0 171 0 0 171 0 0 171 0 0 171 0 0 171 0 0 170 0 0 170 0 0 170 0 0 170 0 0 170 0 0 170 0 0 170 0 0 170 0 0 170 0 0 170 0 0 169 0 0 169 0 0 169 0 0 169 0 0 169 0 0 169 0 0 169 0 0 169 0 0 169 0 0 168 0 0 168 0 0 168 0 0 168 0 0 168 0 0 168 0 0 168 0 0 168 0 0 167 0 0 167 0 0 167 0 0 167 0 0 167 0 0 167 0 0 167 0 0 167 0 0 166 0 0 166 0 0 166 0 0 166 0 0 166 0 0 166 0 0 166 0 0 165 0 0 165 0 0 165 0 0 165 0 0 165 0 0 165 0 0 165 0 0 164 0 0 164 0 0 164 0 0 164 0 0 164 0 0 164 0 0 164 0 0 163 0 0 163 0 0 163 0 0 163 0 0 163 0 0 163 0 0 162 0 0 162 0 0 162 0 0 162 0 0 162 0 0 162 0 0 162 0 0 161 0 0 161 0 0 161 0 0 161 0 0 161 0 0 161 0 0 161 0 0 160 0 0 160 0 0 160 0 0 160 0 0 160 0 0 160 0 0 160 0 0 159 0 0 159 0 0 159 0 0 159 0 0 159 0 0 159 0 0 159 0 0 159 0 0 158 0 0 158 0 0 158 0 0 158 0 0 158 0 0 158 0 0 158 1 1 158 1 1 157 1 1 157 1 1 157 1 1 157 1 1 157 1 1 157 1 1 157 1 1 157 1 1 156 1 1 156 1 1 156 1 1 156 1 1 156 1 1 156 1 1 156 1 1 156 1 1 155 1 1 155 1 1 155 1 1 155 2 2 155 2 2 155 2 2 155 2 2 154 2 2 154 2 2 154 2 2 154 2 2 154 2 2 154 2 2 154 2 2 153 2 2 153 2 2 153 2 2 153 2 2 153 2 2 153 2 2 152 2 2 152 2 2 152 2 2 152 2 2 152 2 2 152 2 2 151 2 2 151 2 2 151 2 2 151 2 2 151 2 2 151 2 2 150 2 2 150 2 2 150 2 2 150 2 2 150 2 2 149 2 2 149 2 2 149 2 2 149 2 2 149 2 2 148 2 2 148 2 2 148 2 2 148 2 2 147 2 2 147 2 2 147 2 2 147 1 1 147 1 1 146 1 1 146 1 1 146 1 1 146 1 1 145 1 1 145 1 1 145 1 1 145 1 1 144 1 1 144 1 1 144 1 1 144 1 1 143 1 1 143 1 1 143 0 0 143 0 0 142 0 0 142 0 0 142 0 0 142 0 0 141 0 0 141 0 0 141 0 0 141 0 0 141 0 0 140 0 0 140 0 0 140 0 0 140 0 0 139 0 0 139 0 0 139 0 0 139 0 0 139 0 0 138 0 0 138 0 0 138 0 0 138 0 0 138 0 0 137 0 0 137 0 0 137 0 0 137 0 0 137 0 0 137 0 0 136 0 0 136 0 0 136 0 0 136 0 0 136 
0 0 171 0 0 171 0 0 171 0 0 171 0 0 171 0 0 171 0 0 171 0 0 171 0 0 171 0 0 171 0 0 171 0 0 171 0 0 171 0 0 171 0 0 171 0 0 171 0 0 171 0 0 171 0 0 171 0 0 171 0 0 171 0 0 171 0 0 171 0 0 171 0 0 171 0 0 171 0 0 171 0 0 171 0 0 171 0 0 171 0 0 171 0 0 171 0 0 171 0 0 171 0 0 171 0 0 171 0 0 171 0 0 171 0 0 171 0 0 171 0 0 171 0 0 171 0 0 171 0 0 171 0 0 170 0 0 170 0 0 170 0 0 170 0 0 170 0 0 170 0 0 170 0 0 170 0 0 170 0 0 170 0 0 170 0 0 170 0 0 170 0 0 170 0 0 170 0 0 170 0 0 170 0 0 170 0 0 170 0 0 170 0 0 169 0 0 169 0 0 169 0 0 169 0 0 169 0 0 169 0 0 169 0 0 169 0 0 169 0 0 169 0 0 169 0 0 169 0 0 169 0 0 169 0 0 168 0 0 168 0 0 168 0 0 168 0 0 168 0 0 168 0 0 168 0 0 168 0 0 168 0 0 168 0 0 168 0 0 167 0 0 167 0 0 167 0 0 167 0 0 167 0 0 167 0 0 167 0 0 167 0 0 167 0 0 167 0 0 166 0 0 166 0 0 166 0 0 166 0 0 166 0 0 166 0 0 166 0 0 166 0 0 165 0 0 165 0 0 165 0 0 165 0 0 165 0 0 165 0 0 165 0 0 165 0 0 165 0 0 164 0 0 164 0 0 164 0 0 164 0 0 164 0 0 164 0 0 164 0 0 163 0 0 163 0 0 163 0 0 163 0 0 163 0 0 163 0 0 163 0 0 163 0 0 162 0 0 162 0 0 162 0 0 162 0 0 162 0 0 162 0 0 162 0 0 161 0 0 161 0 0 161 0 0 161 0 0 161 0 0 161 0 0 161 0 0 160 0 0 160 0 0 160 0 0 160 0 0 160 0 0 160 0 0 159 0 0 159 0 0 159 0 0 159 0 0 159 0 0 159 0 0 159 0 0 158 0 0 158 0 0 158 0 0 158 0 0 158 0 0 158 0 0 157 0 0 157 0 0 157 0 0 157 0 0 157 0 0 157 0 0 156 0 0 156 0 0 156 0 0 156 0 0 156 0 0 156 0 0 155 0 0 155 0 0 155 0 0 155 0 0 155 0 0 155 0 0 155 0 0 154 0 0 154 0 0 154 0 0 154 0 0 154 0 0 154 0 0 154 0 0 153 0 0 153 0 0 153 0 0 153 0 0 153 0 0 153 0 0 152 0 0 152 0 0 152 0 0 152 0 0 152 0 0 152 0 0 152 0 0 151 0 0 151 0 0 151 0 0 151 0 0 151 0 0 151 0 0 150 0 0 150 0 0 150 0 0 150 0 0 150 0 0 150 0 0 149 0 0 149 0 0 149 0 0 149 0 0 149 0 0 149 0 0 148 0 0 148 0 0 148 0 0 148 0 0 148 0 0 147 0 0 147 0 0 147 0 0 147 0 0 147 0 0 147 0 0 146 0 0 146 0 0 146 0 0 146 0 0 146 0 0 145 0 0 145 0 0 145 0 0 145 0 0 145 0 0 144 0 0 144 0 0 144 0 0 144 0 0 144 0 0 143 0 0 143 0 0 143 0 0 143 0 0 143 0 0 142 0 0 142 0 0 142 0 0 142 0 0 142 0 0 141 0 0 141 0 0 141 0 0 141 0 0 141 0 0 140 0 0 140 0 0 140 0 0 140 0 0 140 0 0 139 0 0 139 0 0 139 0 0 139 0 0 139 0 0 139 0 0 138 0 0 138 0 0 138 0 0 138 0 0 138 0 0 138 0 0 137 0 0 137 0 0 137 0 0 137 0 0 137 0 0 136 0 0 136 0 0 136 0 0 136 0 0 136 0 0 136 0 0 135 0 0 135 0 0 135 0 0 135 0 0 135 0 0 135 0 0 134 0 0 134 0 0 134 0 0 134 
0 0 168 0 0 168 0 0 168 0 0 168 0 0 168 0 0 168 0 0 168 0 0 168 0 0 168 0 0 168 0 0 168 0 0 168 0 0 168 0 0 168 0 0 168 0 0 168 0 0 168 0 0 168 0 0 168 0 0 168 0 0 168 0 0 168 0 0 168 0 0 168 0 0 168 0 0 168 0 0 168 0 0 168 0 0 168 0 0 168 0 0 168 0 0 168 0 0 168 0 0 168 0 0 168 0 0 168 0 0 168 0 0 168 0 0 168 0 0 168 0 0 168 0 0 168 0 0 168 0 0 168 0 0 168 0 0 168 0 0 168 0 0 168 0 0 167 0 0 167 0 0 167 0 0 167 0 0 167 0 0 167 0 0 167 0 0 167 0 0 167 0 0 167 0 0 167 0 0 167 0 0 167 0 0 167 0 0 167 0 0 167 0 0 167 0 0 167 0 0 167 0 0 167 0 0 166 0 0 166 0 0 166 0 0 166 0 0 166 0 0 166 0 0 166 0 0 166 0 0 166 0 0 166 0 0 166 0 0 166 0 0 166 0 0 166 0 0 165 0 0 165 0 0 165 0 0 165 0 0 165 0 0 165 0 0 165 0 0 165 0 0 165 0 0 165 0 0 165 0 0 164 0 0 164 0 0 164 0 0 164 0 0 164 0 0 164 0 0 164 0 0 164 0 0 164 0 0 164 0 0 163 0 0 163 0 0 163 0 0 163 0 0 163 0 0 163 0 0 163 0 0 163 0 0 162 0 0 162 0 0 162 0 0 162 0 0 162 0 0 162 0 0 162 0 0 162 0 0 162 0 0 161 0 0 161 0 0 161 0 0 161 0 0 161 0 0 161 0 0 161 0 0 161 0 0 160 0 0 160 0 0 160 0 0 160 0 0 160 0 0 160 0 0 160 0 0 159 0 0 159 0 0 159 0 0 159 0 0 159 0 0 159 0 0 159 0 0 158 0 0 158 0 0 158 0 0 158 0 0 158 0 0 158 0 0 158 0 0 157 0 0 157 0 0 157 0 0 157 0 0 157 0 0 157 0 0 157 0 0 156 0 0 156 0 0 156 0 0 156 0 0 156 0 0 156 0 0 155 0 0 155 0 0 155 0 0 155 0 0 155 0 0 155 0 0 154 0 0 154 0 0 154 0 0 154 0 0 154 0 0 154 0 0 154 0 0 153 0 0 153 0 0 153 0 0 153 0 0 153 0 0 153 0 0 152 0 0 152 0 0 152 0 0 152 0 0 152 0 0 152 0 0 151 0 0 151 0 0 151 0 0 151 0 0 151 0 0 151 0 0 150 0 0 150 0 0 150 0 0 150 0 0 150 0 0 150 0 0 149 0 0 149 0 0 149 0 0 149 0 0 149 0 0 148 0 0 148 0 0 148 0 0 148 0 0 148 0 0 148 0 0 147 0 0 147 0 0 147 0 0 147 0 0 147 0 0 147 0 0 146 0 0 146 0 0 146 0 0 146 0 0 146 0 0 146 0 0 145 0 0 145 0 0 145 0 0 145 0 0 145 0 0 144 0 0 144 0 0 144 0 0 144 0 0 144 0 0 144 0 0 143 0 0 143 0 0 143 0 0 143 0 0 143 0 0 143 0 0 142 0 0 142 0 0 142 0 0 142 0 0 142 0 0 142 0 0 141 0 0 141 0 0 141 0 0 141 0 0 141 0 0 140 0 0 140 0 0 140 0 0 140 0 0 140 0 0 140 0 0 139 0 0 139 0 0 139 0 0 139 0 0 139 0 0 139 0 0 138 0 0 138 0 0 138 0 0 138 0 0 138 0 0 138 0 0 137 0 0 137 0 0 137 0 0 137 0 0 137 0 0 136 0 0 136 0 0 136 0 0 136 0 0 136 0 0 136 0 0 135 0 0 135 0 0 135 0 0 135 0 0 135 0 0 135 0 0 134 0 0 134 0 0 134 0 0 134 0 0 134 0 0 134 0 0 133 0 0 133 0 0 133 0 0 133 0 0 133 0 0 133 0 0 132 0 0 132 0 0 132 
0 0 164 0 0 164 0 0 164 0 0 165 0 0 165 0 0 165 0 0 165 0 0 165 0 0 165 0 0 165 0 0 165 0 0 165 0 0 165 0 0 165 0 0 165 0 0 165 0 0 165 0 0 165 0 0 165 0 0 165 0 0 165 0 0 165 0 0 165 0 0 165 0 0 165 0 0 165 0 0 165 0 0 165 0 0 165 0 0 165 0 0 165 0 0 165 0 0 165 0 0 165 0 0 165 0 0 165 0 0 165 0 0 165 0 0 165 0 0 165 0 0 165 0 0 165 0 0 165 0 0 165 0 0 165 0 0 165 0 0 165 0 0 165 0 0 165 0 0 165 0 0 165 0 0 164 0 0 164 0 0 164 0 0 164 0 0 164 0 0 164 0 0 164 0 0 164 0 0 164 0 0 164 0 0 164 0 0 164 0 0 164 0 0 164 0 0 164 0 0 164 0 0 164 0 0 164 0 0 164 0 0 164 0 0 163 0 0 163 0 0 163 0 0 163 0 0 163 0 0 163 0 0 163 0 0 163 0 0 163 0 0 163 0 0 163 0 0 163 0 0 163 0 0 163 0 0 162 0 0 162 0 0 162 0 0 162 0 0 162 0 0 162 0 0 162 0 0 162 0 0 162 0 0 162 0 0 162 0 0 161 0 0 161 0 0 161 0 0 161 0 0 161 0 0 161 0 0 161 0 0 161 0 0 161 0 0 161 0 0 160 0 0 160 0 0 160 0 0 160 0 0 160 0 0 160 0 0 160 0 0 160 0 0 160 0 0 159 0 0 159 0 0 159 0 0 159 0 0 159 0 0 159 0 0 159 0 0 159 0 0 159 0 0 158 0 0 158 0 0 158 0 0 158 0 0 158 0 0 158 0 0 158 0 0 157 0 0 157 0 0 157 0 0 157 0 0 157 0 0 157 0 0 157 0 0 157 0 0 156 0 0 156 0 0 156 0 0 156 0 0 156 0 0 156 0 0 156 0 0 155 0 0 155 0 0 155 0 0 155 0 0 155 0 0 155 0 0 155 0 0 154 0 0 154 0 0 154 0 0 154 0 0 154 0 0 154 0 0 154 0 0 153 0 0 153 0 0 153 0 0 153 0 0 153 0 0 153 0 0 152 0 0 152 0 0 152 0 0 152 0 0 152 0 0 152 0 0 152 0 0 151 0 0 151 0 0 151 0 0 151 0 0 151 0 0 151 0 0 150 0 0 150 0 0 150 0 0 150 0 0 150 0 0 150 0 0 149 0 0 149 0 0 149 0 0 149 0 0 149 0 0 149 0 0 148 0 0 148 0 0 148 0 0 148 0 0 148 0 0 148 0 0 147 0 0 147 0 0 147 0 0 147 0 0 147 0 0 147 0 0 146 0 0 146 0 0 146 0 0 146 0 0 146 0 0 146 0 0 145 0 0 145 0 0 145 0 0 145 0 0 145 0 0 145 0 0 144 0 0 144 0 0 144 0 0 144 0 0 144 0 0 144 0 0 143 0 0 143 0 0 143 0 0 143 0 0 143 0 0 143 0 0 142 0 0 142 0 0 142 0 0 142 0 0 142 0 0 142 0 0 141 0 0 141 0 0 141 0 0 141 0 0 141 0 0 141 0 0 140 0 0 140 0 0 140 0 0 140 0 0 140 0 0 139 0 0 139 0 0 139 0 0 139 0 0 139 0 0 139 0 0 138 0 0 138 0 0 138 0 0 138 0 0 138 0 0 138 0 0 137 0 0 137 0 0 137 0 0 137 0 0 137 0 0 137 0 0 136 0 0 136 0 0 136 0 0 136 0 0 136 0 0 136 0 0 135 0 0 135 0 0 135 0 0 135 0 0 135 0 0 135 0 0 134 0 0 134 0 0 134 0 0 134 0 0 134 0 0 133 0 0 133 0 0 133 0 0 133 0 0 133 0 0 133 0 0 132 0 0 132 0 0 132 0 0 132 0 0 132 0 0 132 0 0 131 0 0 131 0 0 131 0 0 131 0 0 131 0 0 131 0 0 130 0 0 130 0 0 130 
0 0 161 0 0 161 0 0 161 0 0 161 0 0 161 0 0 161 0 0 161 0 0 161 0 0 162 0 0 162 0 0 162 0 0 162 0 0 162 0 0 162 0 0 162 0 0 162 0 0 162 0 0 162 0 0 162 0 0 162 0 0 162 0 0 162 0 0 162 0 0 162 0 0 162 0 0 162 0 0 162 0 0 162 0 0 162 0 0 162 0 0 162 0 0 162 0 0 162 0 0 162 0 0 162 0 0 162 0 0 162 0 0 162 0 0 162 0 0 162 0 0 162 0 0 162 0 0 162 0 0 162 0 0 162 0 0 162 0 0 162 0 0 162 0 0 162 0 0 162 0 0 162 0 0 162 0 0 161 0 0 161 0 0 161 0 0 161 0 0 161 0 0 161 0 0 161 0 0 161 0 0 161 0 0 161 0 0 161 0 0 161 0 0 161 0 0 161 0 0 161 0 0 161 0 0 161 0 0 161 0 0 161 0 0 161 0 0 161 0 0 160 0 0 160 0 0 160 0 0 160 0 0 160 0 0 160 0 0 160 0 0 160 0 0 160 0 0 160 0 0 160 0 0 160 0 0 160 0 0 160 0 0 160 0 0 159 0 0 159 0 0 159 0 0 159 0 0 159 0 0 159 0 0 159 0 0 159 0 0 159 0 0 159 0 0 159 0 0 158 0 0 158 0 0 158 0 0 158 0 0 158 0 0 158 0 0 158 0 0 158 0 0 158 0 0 158 0 0 157 0 0 157 0 0 157 0 0 157 0 0 157 0 0 157 0 0 157 0 0 157 0 0 157 0 0 156 0 0 156 0 0 156 0 0 156 0 0 156 0 0 156 0 0 156 0 0 156 0 0 156 0 0 155 0 0 155 0 0 155 0 0 155 0 0 155 0 0 155 0 0 155 0 0 155 0 0 154 0 0 154 0 0 154 0 0 154 0 0 154 0 0 154 0 0 154 0 0 154 0 0 153 0 0 153 0 0 153 0 0 153 0 0 153 0 0 153 0 0 153 0 0 152 0 0 152 0 0 152 0 0 152 0 0 152 0 0 152 0 0 152 0 0 151 0 0 151 0 0 151 0 0 151 0 0 151 0 0 151 0 0 151 0 0 150 0 0 150 0 0 150 0 0 150 0 0 150 0 0 150 0 0 149 0 0 149 0 0 149 0 0 149 0 0 149 0 0 149 0 0 149 0 0 148 0 0 148 0 0 148 0 0 148 0 0 148 0 0 148 0 0 147 0 0 147 0 0 147 0 0 147 0 0 147 0 0 147 0 0 147 0 0 146 0 0 146 0 0 146 0 0 146 0 0 146 0 0 146 0 0 145 0 0 145 0 0 145 0 0 145 0 0 145 0 0 145 0 0 144 0 0 144 0 0 144 0 0 144 0 0 144 0 0 144 0 0 143 0 0 143 0 0 143 0 0 143 0 0 143 0 0 143 0 0 142 0 0 142 0 0 142 0 0 142 0 0 142 0 0 142 0 0 141 0 0 141 0 0 141 0 0 141 0 0 141 0 0 141 0 0 140 0 0 140 0 0 140 0 0 140 0 0 140 0 0 140 0 0 139 0 0 139 0 0 139 0 0 139 0 0 139 0 0 139 0 0 138 0 0 138 0 0 138 0 0 138 0 0 138 0 0 138 0 0 137 0 0 137 0 0 137 0 0 137 0 0 137 0 0 137 0 0 136 0 0 136 0 0 136 0 0 136 0 0 136 0 0 136 0 0 135 0 0 135 0 0 135 0 0 135 0 0 135 0 0 135 0 0 134 0 0 134 0 0 134 0 0 134 0 0 134 0 0 134 0 0 133 0 0 133 0 0 133 0 0 133 0 0 133 0 0 132 0 0 132 0 0 132 0 0 132 0 0 132 0 0 132 0 0 132 0 0 131 0 0 131 0 0 131 0 0 131 0 0 131 0 0 131 0 0 130 0 0 130 0 0 130 0 0 130 0 0 130 0 0 130 0 0 129 0 0 129 0 0 129 0 0 129 0 0 129 0 0 129 0 0 128 0 0 128 
0 0 158 0 0 158 0 0 158 0 0 158 0 0 158 0 0 158 0 0 158 0 0 158 0 0 158 0 0 158 0 0 158 0 0 158 0 0 158 0 0 158 0 0 158 0 0 158 0 0 159 0 0 159 0 0 159 0 0 159 0 0 159 0 0 159 0 0 159 0 0 159 0 0 159 0 0 159 0 0 159 0 0 159 0 0 159 0 0 159 0 0 159 0 0 159 0 0 159 0 0 159 0 0 159 0 0 159 0 0 159 0 0 159 0 0 159 0 0 159 0 0 159 0 0 159 0 0 159 0 0 159 0 0 159 0 0 159 0 0 159 0 0 159 0 0 159 0 0 159 0 0 158 0 0 158 0 0 158 0 0 158 0 0 158 0 0 158 0 0 158 0 0 158 0 0 158 0 0 158 0 0 158 0 0 158 0 0 158 0 0 158 0 0 158 0 0 158 0 0 158 0 0 158 0 0 158 0 0 158 0 0 158 0 0 158 0 0 158 0 0 158 0 0 158 0 0 157 0 0 157 0 0 157 0 0 157 0 0 157 0 0 157 0 0 157 0 0 157 0 0 157 0 0 157 0 0 157 0 0 157 0 0 157 0 0 157 0 0 157 0 0 156 0 0 156 0 0 156 0 0 156 0 0 156 0 0 156 0 0 156 0 0 156 0 0 156 0 0 156 0 0 156 0 0 156 0 0 155 0 0 155 0 0 155 0 0 155 0 0 155 0 0 155 0 0 155 0 0 155 0 0 155 0 0 155 0 0 154 0 0 154 0 0 154 0 0 154 0 0 154 0 0 154 0 0 154 0 0 154 0 0 154 0 0 153 0 0 153 0 0 153 0 0 153 0 0 153 0 0 153 0 0 153 0 0 153 0 0 153 0 0 152 0 0 152 0 0 152 0 0 152 0 0 152 0 0 152 0 0 152 0 0 152 0 0 151 0 0 151 0 0 151 0 0 151 0 0 151 0 0 151 0 0 151 0 0 151 0 0 150 0 0 150 0 0 150 0 0 150 0 0 150 0 0 150 0 0 150 0 0 149 0 0 149 0 0 149 0 0 149 0 0 149 0 0 149 0 0 149 0 0 148 0 0 148 0 0 148 0 0 148 0 0 148 0 0 148 0 0 148 0 0 147 0 0 147 0 0 147 0 0 147 0 0 147 0 0 147 0 0 147 0 0 146 0 0 146 0 0 146 0 0 146 0 0 146 0 0 146 0 0 146 0 0 145 0 0 145 0 0 145 0 0 145 0 0 145 0 0 145 0 0 144 0 0 144 0 0 144 0 0 144 0 0 144 0 0 144 0 0 144 0 0 143 0 0 143 0 0 143 0 0 143 0 0 143 0 0 143 0 0 142 0 0 142 0 0 142 0 0 142 0 0 142 0 0 142 0 0 141 0 0 141 0 0 141 0 0 141 0 0 141 0 0 141 0 0 140 0 0 140 0 0 140 0 0 140 0 0 140 0 0 140 0 0 140 0 0 139 0 0 139 0 0 139 0 0 139 0 0 139 0 0 139 0 0 138 0 0 138 0 0 138 0 0 138 0 0 138 0 0 138 0 0 137 0 0 137 0 0 137 0 0 137 0 0 137 0 0 137 0 0 136 0 0 136 0 0 136 0 0 136 0 0 136 0 0 136 0 0 135 0 0 135 0 0 135 0 0 135 0 0 135 0 0 135 0 0 134 0 0 134 0 0 134 0 0 134 0 0 134 0 0 134 0 0 133 0 0 133 0 0 133 0 0 133 0 0 133 0 0 133 0 0 132 0 0 132 0 0 132 0 0 132 0 0 132 0 0 132 0 0 131 0 0 131 0 0 131 0 0 131 0 0 131 0 0 131 0 0 130 0 0 130 0 0 130 0 0 130 0 0 130 0 0 130 0 0 129 0 0 129 0 0 129 0 0 129 0 0 129 0 0 129 0 0 128 0 0 128 0 0 128 0 0 128 0 0 128 0 0 128 0 0 128 0 0 127 0 0 127 0 0 127 0 0 127 0 0 127 0 0 127 0 0 126 0 0 126 
0 0 155 0 0 155 0 0 155 0 0 155 0 0 155 0 0 155 0 0 155 0 0 155 0 0 155 0 0 155 0 0 155 0 0 155 0 0 155 0 0 155 0 0 155 0 0 155 0 0 155 0 0 155 0 0 155 0 0 155 0 0 155 0 0 155 0 0 155 0 0 155 0 0 155 0 0 155 0 0 155 0 0 155 0 0 155 0 0 155 0 0 155 0 0 155 0 0 156 0 0 156 0 0 156 0 0 156 0 0 156 0 0 156 0 0 156 0 0 156 0 0 156 0 0 156 0 0 155 0 0 155 0 0 155 0 0 155 0 0 155 0 0 155 0 0 155 0 0 155 0 0 155 0 0 155 0 0 155 0 0 155 0 0 155 0 0 155 0 0 155 0 0 155 0 0 155 0 0 155 0 0 155 0 0 155 0 0 155 0 0 155 0 0 155 0 0 155 0 0 155 0 0 155 0 0 155 0 0 155 0 0 155 0 0 155 0 0 155 0 0 155 0 0 155 0 0 154 0 0 154 0 0 154 0 0 154 0 0 154 0 0 154 0 0 154 0 0 154 0 0 154 0 0 154 0 0 154 0 0 154 0 0 154 0 0 154 0 0 154 0 0 154 0 0 153 0 0 153 0 0 153 0 0 153 0 0 153 0 0 153 0 0 153 0 0 153 0 0 153 0 0 153 0 0 153 0 0 153 0 0 152 0 0 152 0 0 152 0 0 152 0 0 152 0 0 152 0 0 152 0 0 152 0 0 152 0 0 152 0 0 152 0 0 151 0 0 151 0 0 151 0 0 151 0 0 151 0 0 151 0 0 151 0 0 151 0 0 151 0 0 151 0 0 150 0 0 150 0 0 150 0 0 150 0 0 150 0 0 150 0 0 150 0 0 150 0 0 150 0 0 149 0 0 149 0 0 149 0 0 149 0 0 149 0 0 149 0 0 149 0 0 149 0 0 148 0 0 148 0 0 148 0 0 148 0 0 148 0 0 148 0 0 148 0 0 148 0 0 147 0 0 147 0 0 147 0 0 147 0 0 147 0 0 147 0 0 147 0 0 146 0 0 146 0 0 146 0 0 146 0 0 146 0 0 146 0 0 146 0 0 146 0 0 145 0 0 145 0 0 145 0 0 145 0 0 145 0 0 145 0 0 145 0 0 144 0 0 144 0 0 144 0 0 144 0 0 144 0 0 144 0 0 144 0 0 143 0 0 143 0 0 143 0 0 143 0 0 143 0 0 143 0 0 142 0 0 142 0 0 142 0 0 142 0 0 142 0 0 142 0 0 142 0 0 141 0 0 141 0 0 141 0 0 141 0 0 141 0 0 141 0 0 141 0 0 140 0 0 140 0 0 140 0 0 140 0 0 140 0 0 140 0 0 139 0 0 139 0 0 139 0 0 139 0 0 139 0 0 139 0 0 138 0 0 138 0 0 138 0 0 138 0 0 138 0 0 138 0 0 138 0 0 137 0 0 137 0 0 137 0 0 137 0 0 137 0 0 137 0 0 136 0 0 136 0 0 136 0 0 136 0 0 136 0 0 136 0 0 135 0 0 135 0 0 135 0 0 135 0 0 135 0 0 135 0 0 134 0 0 134 0 0 134 0 0 134 0 0 134 0 0 134 0 0 134 0 0 133 0 0 133 0 0 133 0 0 133 0 0 133 0 0 133 0 0 132 0 0 132 0 0 132 0 0 132 0 0 132 0 0 132 0 0 131 0 0 131 0 0 131 0 0 131 0 0 131 0 0 131 0 0 130 0 0 130 0 0 130 0 0 130 0 0 130 0 0 130 0 0 129 0 0 129 0 0 129 0 0 129 0 0 129 0 0 129 0 0 129 0 0 128 0 0 128 0 0 128 0 0 128 0 0 128 0 0 128 0 0 127 0 0 127 0 0 127 0 0 127 0 0 127 0 0 127 0 0 126 0 0 126 0 0 126 0 0 126 0 0 126 0 0 126 0 0 125 0 0 125 0 0 125 0 0 125 0 0 125 0 0 125 0 0 125 0 0 124 0 0 124 
0 0 151 0 0 151 0 0 151 0 0 151 0 0 151 0 0 151 0 0 152 0 0 152 0 0 152 0 0 152 0 0 152 0 0 152 0 0 152 0 0 152 0 0 152 0 0 152 0 0 152 0 0 152 0 0 152 0 0 152 0 0 152 0 0 152 0 0 152 0 0 152 0 0 152 0 0 152 0 0 152 0 0 152 0 0 152 0 0 152 0 0 152 0 0 152 0 0 152 0 0 152 0 0 152 0 0 152 0 0 152 0 0 152 0 0 152 0 0 152 0 0 152 0 0 152 0 0 152 0 0 152 0 0 152 0 0 152 0 0 152 0 0 152 0 0 152 0 0 152 0 0 152 0 0 152 0 0 152 0 0 152 0 0 152 0 0 152 0 0 152 0 0 152 0 0 152 0 0 152 0 0 152 0 0 152 0 0 152 0 0 152 0 0 152 0 0 152 0 0 152 0 0 152 0 0 152 0 0 152 0 0 152 0 0 152 0 0 152 0 0 152 0 0 151 0 0 151 0 0 151 0 0 151 0 0 151 0 0 151 0 0 151 0 0 151 0 0 151 0 0 151 0 0 151 0 0 151 0 0 151 0 0 151 0 0 151 0 0 151 0 0 151 0 0 150 0 0 150 0 0 150 0 0 150 0 0 150 0 0 150 0 0 150 0 0 150 0 0 150 0 0 150 0 0 150 0 0 150 0 0 150 0 0 150 0 0 149 0 0 149 0 0 149 0 0 149 0 0 149 0 0 149 0 0 149 0 0 149 0 0 149 0 0 149 0 0 149 0 0 148 0 0 148 0 0 148 0 0 148 0 0 148 0 0 148 0 0 148 0 0 148 0 0 148 0 0 148 0 0 147 0 0 147 0 0 147 0 0 147 0 0 147 0 0 147 0 0 147 0 0 147 0 0 147 0 0 146 0 0 146 0 0 146 0 0 146 0 0 146 0 0 146 0 0 146 0 0 146 0 0 145 0 0 145 0 0 145 0 0 145 0 0 145 0 0 145 0 0 145 0 0 145 0 0 145 0 0 144 0 0 144 0 0 144 0 0 144 0 0 144 0 0 144 0 0 144 0 0 143 0 0 143 0 0 143 0 0 143 0 0 143 0 0 143 0 0 143 0 0 143 0 0 142 0 0 142 0 0 142 0 0 142 0 0 142 0 0 142 0 0 142 0 0 141 0 0 141 0 0 141 0 0 141 0 0 141 0 0 141 0 0 141 0 0 140 0 0 140 0 0 140 0 0 140 0 0 140 0 0 140 0 0 140 0 0 139 0 0 139 0 0 139 0 0 139 0 0 139 0 0 139 0 0 139 0 0 138 0 0 138 0 0 138 0 0 138 0 0 138 0 0 138 0 0 137 0 0 137 0 0 137 0 0 137 0 0 137 0 0 137 0 0 137 0 0 136 0 0 136 0 0 136 0 0 136 0 0 136 0 0 136 0 0 135 0 0 135 0 0 135 0 0 135 0 0 135 0 0 135 0 0 135 0 0 134 0 0 134 0 0 134 0 0 134 0 0 134 0 0 134 0 0 133 0 0 133 0 0 133 0 0 133 0 0 133 0 0 133 0 0 133 0 0 132 0 0 132 0 0 132 0 0 132 0 0 132 0 0 132 0 0 131 0 0 131 0 0 131 0 0 131 0 0 131 0 0 131 0 0 130 0 0 130 0 0 130 0 0 130 0 0 130 0 0 130 0 0 130 0 0 129 0 0 129 0 0 129 0 0 129 0 0 129 0 0 129 0 0 128 0 0 128 0 0 128 0 0 128 0 0 128 0 0 128 0 0 127 0 0 127 0 0 127 0 0 127 0 0 127 0 0 127 0 0 127 0 0 126 0 0 126 0 0 126 0 0 126 0 0 126 0 0 126 0 0 125 0 0 125 0 0 125 0 0 125 0 0 125 0 0 125 0 0 124 0 0 124 0 0 124 0 0 124 0 0 124 0 0 124 0 0 124 0 0 123 0 0 123 0 0 123 0 0 123 0 0 123 0 0 123 0 0 122 0 0 122 0 0 122 
0 0 148 0 0 148 0 0 148 0 0 148 0 0 148 0 0 148 0 0 148 0 0 148 0 0 148 0 0 148 0 0 148 0 0 148 0 0 148 0 0 148 0 0 148 0 0 148 0 0 149 0 0 149 0 0 149 0 0 149 0 0 149 0 0 149 0 0 149 0 0 149 0 0 149 0 0 149 0 0 149 0 0 149 0 0 149 0 0 149 0 0 149 0 0 149 0 0 149 0 0 149 0 0 149 0 0 149 0 0 149 0 0 149 0 0 149 0 0 149 0 0 149 0 0 149 0 0 149 0 0 149 0 0 149 0 0 149 0 0 149 0 0 149 0 0 149 0 0 149 0 0 149 0 0 149 0 0 149 0 0 149 0 0 149 0 0 149 0 0 149 0 0 149 0 0 149 0 0 149 0 0 149 0 0 149 0 0 149 0 0 149 0 0 149 0 0 149 0 0 149 0 0 149 0 0 149 0 0 149 0 0 148 0 0 148 0 0 148 0 0 148 0 0 148 0 0 148 0 0 148 0 0 148 0 0 148 0 0 148 0 0 148 0 0 148 0 0 148 0 0 148 0 0 148 0 0 148 0 0 148 0 0 148 0 0 148 0 0 148 0 0 148 0 0 147 0 0 147 0 0 147 0 0 147 0 0 147 0 0 147 0 0 147 0 0 147 0 0 147 0 0 147 0 0 147 0 0 147 0 0 147 0 0 147 0 0 146 0 0 146 0 0 146 0 0 146 0 0 146 0 0 146 0 0 146 0 0 146 0 0 146 0 0 146 0 0 146 0 0 146 0 0 145 0 0 145 0 0 145 0 0 145 0 0 145 0 0 145 0 0 145 0 0 145 0 0 145 0 0 145 0 0 144 0 0 144 0 0 144 0 0 144 0 0 144 0 0 144 0 0 144 0 0 144 0 0 144 0 0 144 0 0 143 0 0 143 0 0 143 0 0 143 0 0 143 0 0 143 0 0 143 0 0 143 0 0 143 0 0 142 0 0 142 0 0 142 0 0 142 0 0 142 0 0 142 0 0 142 0 0 142 0 0 141 0 0 141 0 0 141 0 0 141 0 0 141 0 0 141 0 0 141 0 0 141 0 0 140 0 0 140 0 0 140 0 0 140 0 0 140 0 0 140 0 0 140 0 0 140 0 0 139 0 0 139 0 0 139 0 0 139 0 0 139 0 0 139 0 0 139 0 0 138 0 0 138 0 0 138 0 0 138 0 0 138 0 0 138 0 0 138 0 0 137 0 0 137 0 0 137 0 0 137 0 0 137 0 0 137 0 0 137 0 0 136 0 0 136 0 0 136 0 0 136 0 0 136 0 0 136 0 0 136 0 0 135 0 0 135 0 0 135 0 0 135 0 0 135 0 0 135 0 0 135 0 0 134 0 0 134 0 0 134 0 0 134 0 0 134 0 0 134 0 0 134 0 0 133 0 0 133 0 0 133 0 0 133 0 0 133 0 0 133 0 0 132 0 0 132 0 0 132 0 0 132 0 0 132 0 0 132 0 0 132 0 0 131 0 0 131 0 0 131 0 0 131 0 0 131 0 0 131 0 0 130 0 0 130 0 0 130 0 0 130 0 0 130 0 0 130 0 0 130 0 0 129 0 0 129 0 0 129 0 0 129 0 0 129 0 0 129 0 0 128 0 0 128 0 0 128 0 0 128 0 0 128 0 0 128 0 0 128 0 0 127 0 0 127 0 0 127 0 0 127 0 0 127 0 0 127 0 0 126 0 0 126 0 0 126 0 0 126 0 0 126 0 0 126 0 0 126 0 0 125 0 0 125 0 0 125 0 0 125 0 0 125 0 0 125 0 0 124 0 0 124 0 0 124 0 0 124 0 0 124 0 0 124 0 0 124 0 0 123 0 0 123 0 0 123 0 0 123 0 0 123 0 0 123 0 0 122 0 0 122 0 0 122 0 0 122 0 0 122 0 0 122 0 0 122 0 0 121 0 0 121 0 0 121 0 0 121 0 0 121 0 0 121 0 0 120 0 0 120 0 0 120 0 0 120 
0 0 144 0 0 144 0 0 144 0 0 144 0 0 145 0 0 145 0 0 145 0 0 145 0 0 145 0 0 145 0 0 145 0 0 145 0 0 145 0 0 145 0 0 145 0 0 145 0 0 145 0 0 145 0 0 145 0 0 145 0 0 145 0 0 145 0 0 145 0 0 145 0 0 145 0 0 145 0 0 145 0 0 145 0 0 145 0 0 145 0 0 145 0 0 146 0 0 146 0 0 146 0 0 146 0 0 146 0 0 146 0 0 146 0 0 146 0 0 146 0 0 146 0 0 146 0 0 146 0 0 146 0 0 146 0 0 146 0 0 146 0 0 146 0 0 146 0 0 146 0 0 146 0 0 146 0 0 146 0 0 146 0 0 146 0 0 146 0 0 146 0 0 146 0 0 146 0 0 146 0 0 146 0 0 146 0 0 145 0 0 145 0 0 145 0 0 145 0 0 145 0 0 145 0 0 145 0 0 145 0 0 145 0 0 145 0 0 145 0 0 145 0 0 145 0 0 145 0 0 145 0 0 145 0 0 145 0 0 145 0 0 145 0 0 145 0 0 145 0 0 145 0 0 145 0 0 145 0 0 145 0 0 145 0 0 145 0 0 144 0 0 144 0 0 144 0 0 144 0 0 144 0 0 144 0 0 144 0 0 144 0 0 144 0 0 144 0 0 144 0 0 144 0 0 144 0 0 144 0 0 144 0 0 144 0 0 143 0 0 143 0 0 143 0 0 143 0 0 143 0 0 143 0 0 143 0 0 143 0 0 143 0 0 143 0 0 143 0 0 143 0 0 142 0 0 142 0 0 142 0 0 142 0 0 142 0 0 142 0 0 142 0 0 142 0 0 142 0 0 142 0 0 142 0 0 141 0 0 141 0 0 141 0 0 141 0 0 141 0 0 141 0 0 141 0 0 141 0 0 141 0 0 141 0 0 140 0 0 140 0 0 140 0 0 140 0 0 140 0 0 140 0 0 140 0 0 140 0 0 140 0 0 139 0 0 139 0 0 139 0 0 139 0 0 139 0 0 139 0 0 139 0 0 139 0 0 139 0 0 138 0 0 138 0 0 138 0 0 138 0 0 138 0 0 138 0 0 138 0 0 138 0 0 137 0 0 137 0 0 137 0 0 137 0 0 137 0 0 137 0 0 137 0 0 137 0 0 136 0 0 136 0 0 136 0 0 136 0 0 136 0 0 136 0 0 136 0 0 136 0 0 135 0 0 135 0 0 135 0 0 135 0 0 135 0 0 135 0 0 135 0 0 134 0 0 134 0 0 134 0 0 134 0 0 134 0 0 134 0 0 134 0 0 133 0 0 133 0 0 133 0 0 133 0 0 133 0 0 133 0 0 133 0 0 132 0 0 132 0 0 132 0 0 132 0 0 132 0 0 132 0 0 132 0 0 131 0 0 131 0 0 131 0 0 131 0 0 131 0 0 131 0 0 131 0 0 130 0 0 130 0 0 130 0 0 130 0 0 130 0 0 130 0 0 130 0 0 129 0 0 129 0 0 129 0 0 129 0 0 129 0 0 129 0 0 129 0 0 128 0 0 128 0 0 128 0 0 128 0 0 128 0 0 128 0 0 127 0 0 127 0 0 127 0 0 127 0 0 127 0 0 127 0 0 127 0 0 126 0 0 126 0 0 126 0 0 126 0 0 126 0 0 126 0 0 126 0 0 125 0 0 125 0 0 125 0 0 125 0 0 125 0 0 125 0 0 124 0 0 124 0 0 124 0 0 124 0 0 124 0 0 124 0 0 124 0 0 123 0 0 123 0 0 123 0 0 123 0 0 123 0 0 123 0 0 123 0 0 122 0 0 122 0 0 122 0 0 122 0 0 122 0 0 122 0 0 121 0 0 121 0 0 121 0 0 121 0 0 121 0 0 121 0 0 121 0 0 120 0 0 120 0 0 120 0 0 120 0 0 120 0 0 120 0 0 120 0 0 119 0 0 119 0 0 119 0 0 119 0 0 119 0 0 119 0 0 118 0 0 118 0 0 118 0 0 118 0 0 118 
0 0 141 0 0 141 0 0 141 0 0 141 0 0 141 0 0 141 0 0 141 0 0 141 0 0 141 0 0 141 0 0 141 0 0 141 0 0 141 0 0 141 0 0 141 0 0 142 0 0 142 0 0 142 0 0 142 0 0 142 0 0 142 0 0 142 0 0 142 0 0 142 0 0 142 0 0 142 0 0 142 0 0 142 0 0 142 0 0 142 0 0 142 0 0 142 0 0 142 0 0 142 0 0 142 0 0 142 0 0 142 0 0 142 0 0 142 0 0 142 0 0 142 0 0 142 0 0 142 0 0 142 0 0 142 0 0 142 0 0 142 0 0 142 0 0 142 0 0 142 0 0 142 0 0 142 0 0 142 0 0 142 0 0 142 0 0 142 0 0 142 0 0 142 0 0 142 0 0 142 0 0 142 0 0 142 0 0 142 0 0 142 0 0 142 0 0 142 0 0 142 0 0 142 0 0 142 0 0 142 0 0 142 0 0 142 0 0 142 0 0 142 0 0 142 0 0 142 0 0 142 0 0 142 0 0 142 0 0 142 0 0 142 0 0 142 0 0 142 0 0 142 0 0 142 0 0 141 0 0 141 0 0 141 0 0 141 0 0 141 0 0 141 0 0 141 0 0 141 0 0 141 0 0 141 0 0 141 0 0 141 0 0 141 0 0 141 0 0 141 0 0 141 0 0 141 0 0 141 0 0 140 0 0 140 0 0 140 0 0 140 0 0 140 0 0 140 0 0 140 0 0 140 0 0 140 0 0 140 0 0 140 0 0 140 0 0 140 0 0 140 0 0 139 0 0 139 0 0 139 0 0 139 0 0 139 0 0 139 0 0 139 0 0 139 0 0 139 0 0 139 0 0 139 0 0 139 0 0 138 0 0 138 0 0 138 0 0 138 0 0 138 0 0 138 0 0 138 0 0 138 0 0 138 0 0 138 0 0 137 0 0 137 0 0 137 0 0 137 0 0 137 0 0 137 0 0 137 0 0 137 0 0 137 0 0 136 0 0 136 0 0 136 0 0 136 0 0 136 0 0 136 0 0 136 0 0 136 0 0 136 0 0 135 0 0 135 0 0 135 0 0 135 0 0 135 0 0 135 0 0 135 0 0 135 0 0 135 0 0 134 0 0 134 0 0 134 0 0 134 0 0 134 0 0 134 0 0 134 0 0 134 0 0 133 0 0 133 0 0 133 0 0 133 0 0 133 0 0 133 0 0 133 0 0 133 0 0 132 0 0 132 0 0 132 0 0 132 0 0 132 0 0 132 0 0 132 0 0 131 0 0 131 0 0 131 0 0 131 0 0 131 0 0 131 0 0 131 0 0 131 0 0 130 0 0 130 0 0 130 0 0 130 0 0 130 0 0 130 0 0 130 0 0 129 0 0 129 0 0 129 0 0 129 0 0 129 0 0 129 0 0 129 0 0 128 0 0 128 0 0 128 0 0 128 0 0 128 0 0 128 0 0 128 0 0 127 0 0 127 0 0 127 0 0 127 0 0 127 0 0 127 0 0 127 0 0 126 0 0 126 0 0 126 0 0 126 0 0 126 0 0 126 0 0 126 0 0 125 0 0 125 0 0 125 0 0 125 0 0 125 0 0 125 0 0 125 0 0 124 0 0 124 0 0 124 0 0 124 0 0 124 0 0 124 0 0 124 0 0 123 0 0 123 0 0 123 0 0 123 0 0 123 0 0 123 0 0 123 0 0 122 0 0 122 0 0 122 0 0 122 0 0 122 0 0 122 0 0 122 0 0 121 0 0 121 0 0 121 0 0 121 0 0 121 0 0 121 0 0 120 0 0 120 0 0 120 0 0 120 0 0 120 0 0 120 0 0 120 0 0 119 0 0 119 0 0 119 0 0 119 0 0 119 0 0 119 0 0 119 0 0 118 0 0 118 0 0 118 0 0 118 0 0 118 0 0 118 0 0 118 0 0 117 0 0 117 0 0 117 0 0 117 0 0 117 0 0 117 0 0 117 0 0 116 0 0 116 0 0 116 0 0 116 0 0 116 0 0 116 
0 0 137 0 0 137 0 0 137 0 0 137 0 0 137 0 0 137 0 0 138 0 0 138 0 0 138 0 0 138 0 0 138 0 0 138 0 0 138 0 0 138 0 0 138 0 0 138 0 0 138 0 0 138 0 0 138 0 0 138 0 0 138 0 0 138 0 0 138 0 0 138 0 0 138 0 0 138 0 0 138 0 0 138 0 0 138 0 0 139 0 0 139 0 0 139 0 0 139 0 0 139 0 0 139 0 0 139 0 0 139 0 0 139 0 0 139 0 0 139 0 0 139 0 0 139 0 0 139 0 0 139 0 0 139 0 0 139 0 0 139 0 0 139 0 0 139 0 0 139 0 0 139 0 0 139 0 0 139 0 0 139 0 0 139 0 0 139 0 0 139 0 0 139 0 0 139 0 0 139 0 0 139 0 0 139 0 0 139 0 0 139 0 0 139 0 0 139 0 0 139 0 0 139 0 0 139 0 0 139 0 0 139 0 0 139 0 0 139 0 0 139 0 0 139 0 0 139 0 0 139 0 0 138 0 0 138 0 0 138 0 0 138 0 0 138 0 0 138 0 0 138 0 0 138 0 0 138 0 0 138 0 0 138 0 0 138 0 0 138 0 0 138 0 0 138 0 0 138 0 0 138 0 0 138 0 0 138 0 0 138 0 0 138 0 0 138 0 0 138 0 0 137 0 0 137 0 0 137 0 0 137 0 0 137 0 0 137 0 0 137 0 0 137 0 0 137 0 0 137 0 0 137 0 0 137 0 0 137 0 0 137 0 0 137 0 0 137 0 0 136 0 0 136 0 0 136 0 0 136 0 0 136 0 0 136 0 0 136 0 0 136 0 0 136 0 0 136 0 0 136 0 0 136 0 0 135 0 0 135 0 0 135 0 0 135 0 0 135 0 0 135 0 0 135 0 0 135 0 0 135 0 0 135 0 0 135 0 0 134 0 0 134 0 0 134 0 0 134 0 0 134 0 0 134 0 0 134 0 0 134 0 0 134 0 0 134 0 0 133 0 0 133 0 0 133 0 0 133 0 0 133 0 0 133 0 0 133 0 0 133 0 0 133 0 0 132 0 0 132 0 0 132 0 0 132 0 0 132 0 0 132 0 0 132 0 0 132 0 0 132 0 0 131 0 0 131 0 0 131 0 0 131 0 0 131 0 0 131 0 0 131 0 0 131 0 0 131 0 0 130 0 0 130 0 0 130 0 0 130 0 0 130 0 0 130 0 0 130 0 0 130 0 0 129 0 0 129 0 0 129 0 0 129 0 0 129 0 0 129 0 0 129 0 0 129 0 0 128 0 0 128 0 0 128 0 0 128 0 0 128 0 0 128 0 0 128 0 0 127 0 0 127 0 0 127 0 0 127 0 0 127 0 0 127 0 0 127 0 0 127 0 0 126 0 0 126 0 0 126 0 0 126 0 0 126 0 0 126 0 0 126 0 0 125 0 0 125 0 0 125 0 0 125 0 0 125 0 0 125 0 0 125 0 0 124 0 0 124 0 0 124 0 0 124 0 0 124 0 0 124 0 0 124 0 0 124 0 0 123 0 0 123 0 0 123 0 0 123 0 0 123 0 0 123 0 0 123 0 0 122 0 0 122 0 0 122 0 0 122 0 0 122 0 0 122 0 0 122 0 0 121 0 0 121 0 0 121 0 0 121 0 0 121 0 0 121 0 0 121 0 0 120 0 0 120 0 0 120 0 0 120 0 0 120 0 0 120 0 0 120 0 0 119 0 0 119 0 0 119 0 0 119 0 0 119 0 0 119 0 0 119 0 0 118 0 0 118 0 0 118 0 0 118 0 0 118 0 0 118 0 0 118 0 0 117 0 0 117 0 0 117 0 0 117 0 0 117 0 0 117 0 0 117 0 0 116 0 0 116 0 0 116 0 0 116 0 0 116 0 0 116 0 0 116 0 0 115 0 0 115 0 0 115 0 0 115 0 0 115 0 0 115 0 0 115 0 0 114 0 0 114 0 0 114 0 0 114 0 0 114 0 0 114 0 0 114 0 0 113 
0 0 134 0 0 134 0 0 134 0 0 134 0 0 134 0 0 134 0 0 134 0 0 134 0 0 134 0 0 134 0 0 134 0 0 134 0 0 134 0 0 134 0 0 134 0 0 134 0 0 134 0 0 134 0 0 135 0 0 135 0 0 135 0 0 135 0 0 135 0 0 135 0 0 135 0 0 135 0 0 135 0 0 135 0 0 135 0 0 135 0 0 135 0 0 135 0 0 135 0 0 135 0 0 135 0 0 135 0 0 135 0 0 135 0 0 135 0 0 135 0 0 135 0 0 135 0 0 135 0 0 135 0 0 135 0 0 135 0 0 135 0 0 135 0 0 135 0 0 135 0 0 135 0 0 135 0 0 135 0 0 135 0 0 135 0 0 135 0 0 135 0 0 135 0 0 135 0 0 135 0 0 135 0 0 135 0 0 135 0 0 135 0 0 135 0 0 135 0 0 135 0 0 135 0 0 135 0 0 135 0 0 135 0 0 135 0 0 135 0 0 135 0 0 135 0 0 135 0 0 135 0 0 135 0 0 135 0 0 135 0 0 135 0 0 135 0 0 135 0 0 135 0 0 135 0 0 135 0 0 135 0 0 135 0 0 135 0 0 135 0 0 135 0 0 135 0 0 135 0 0 135 0 0 135 0 0 134 0 0 134 0 0 134 0 0 134 0 0 134 0 0 134 0 0 134 0 0 134 0 0 134 0 0 134 0 0 134 0 0 134 0 0 134 0 0 134 0 0 134 0 0 134 0 0 134 0 0 134 0 0 133 0 0 133 0 0 133 0 0 133 0 0 133 0 0 133 0 0 133 0 0 133 0 0 133 0 0 133 0 0 133 0 0 133 0 0 133 0 0 133 0 0 132 0 0 132 0 0 132 0 0 132 0 0 132 0 0 132 0 0 132 0 0 132 0 0 132 0 0 132 0 0 132 0 0 132 0 0 131 0 0 131 0 0 131 0 0 131 0 0 131 0 0 131 0 0 131 0 0 131 0 0 131 0 0 131 0 0 130 0 0 130 0 0 130 0 0 130 0 0 130 0 0 130 0 0 130 0 0 130 0 0 130 0 0 130 0 0 129 0 0 129 0 0 129 0 0 129 0 0 129 0 0 129 0 0 129 0 0 129 0 0 129 0 0 128 0 0 128 0 0 128 0 0 128 0 0 128 0 0 128 0 0 128 0 0 128 0 0 128 0 0 127 0 0 127 0 0 127 0 0 127 0 0 127 0 0 127 0 0 127 0 0 127 0 0 126 0 0 126 0 0 126 0 0 126 0 0 126 0 0 126 0 0 126 0 0 126 0 0 126 0 0 125 0 0 125 0 0 125 0 0 125 0 0 125 0 0 125 0 0 125 0 0 124 0 0 124 0 0 124 0 0 124 0 0 124 0 0 124 0 0 124 0 0 124 0 0 123 0 0 123 0 0 123 0 0 123 0 0 123 0 0 123 0 0 123 0 0 123 0 0 122 0 0 122 0 0 122 0 0 122 0 0 122 0 0 122 0 0 122 0 0 121 0 0 121 0 0 121 0 0 121 0 0 121 0 0 121 0 0 121 0 0 121 0 0 120 0 0 120 0 0 120 0 0 120 0 0 120 0 0 120 0 0 120 0 0 119 0 0 119 0 0 119 0 0 119 0 0 119 0 0 119 0 0 119 0 0 118 0 0 118 0 0 118 0 0 118 0 0 118 0 0 118 0 0 118 0 0 117 0 0 117 0 0 117 0 0 117 0 0 117 0 0 117 0 0 117 0 0 117 0 0 116 0 0 116 0 0 116 0 0 116 0 0 116 0 0 116 0 0 116 0 0 115 0 0 115 0 0 115 0 0 115 0 0 115 0 0 115 0 0 115 0 0 114 0 0 114 0 0 114 0 0 114 0 0 114 0 0 114 0 0 114 0 0 113 0 0 113 0 0 113 0 0 113 0 0 113 0 0 113 0 0 113 0 0 113 0 0 112 0 0 112 0 0 112 0 0 112 0 0 112 0 0 112 0 0 112 0 0 111 0 0 111 0 0 111 
0 0 130 0 0 130 0 0 130 0 0 130 0 0 130 0 0 130 0 0 130 0 0 130 0 0 130 0 0 130 0 0 130 0 0 131 0 0 131 0 0 131 0 0 131 0 0 131 0 0 131 0 0 131 0 0 131 0 0 131 0 0 131 0 0 131 0 0 131 0 0 131 0 0 131 0 0 131 0 0 131 0 0 131 0 0 131 0 0 131 0 0 131 0 0 131 0 0 131 0 0 131 0 0 132 0 0 132 0 0 132 0 0 132 0 0 132 0 0 132 0 0 132 0 0 132 0 0 132 0 0 132 0 0 132 0 0 132 0 0 132 0 0 132 0 0 132 0 0 132 0 0 132 0 0 132 0 0 132 0 0 132 0 0 132 0 0 132 0 0 132 0 0 132 0 0 132 0 0 132 0 0 132 0 0 132 0 0 132 0 0 132 0 0 132 0 0 132 0 0 132 0 0 132 0 0 132 0 0 132 0 0 132 0 0 132 0 0 132 0 0 132 0 0 132 0 0 132 0 0 132 0 0 132 0 0 132 0 0 132 0 0 132 0 0 132 0 0 132 0 0 132 0 0 132 0 0 132 0 0 131 0 0 131 0 0 131 0 0 131 0 0 131 0 0 131 0 0 131 0 0 131 0 0 131 0 0 131 0 0 131 0 0 131 0 0 131 0 0 131 0 0 131 0 0 131 0 0 131 0 0 131 0 0 131 0 0 131 0 0 131 0 0 131 0 0 131 0 0 130 0 0 130 0 0 130 0 0 130 0 0 130 0 0 130 0 0 130 0 0 130 0 0 130 0 0 130 0 0 130 0 0 130 0 0 130 0 0 130 0 0 130 0 0 129 0 0 129 0 0 129 0 0 129 0 0 129 0 0 129 0 0 129 0 0 129 0 0 129 0 0 129 0 0 129 0 0 129 0 0 129 0 0 128 0 0 128 0 0 128 0 0 128 0 0 128 0 0 128 0 0 128 0 0 128 0 0 128 0 0 128 0 0 128 0 0 128 0 0 127 0 0 127 0 0 127 0 0 127 0 0 127 0 0 127 0 0 127 0 0 127 0 0 127 0 0 127 0 0 126 0 0 126 0 0 126 0 0 126 0 0 126 0 0 126 0 0 126 0 0 126 0 0 126 0 0 126 0 0 125 0 0 125 0 0 125 0 0 125 0 0 125 0 0 125 0 0 125 0 0 125 0 0 125 0 0 124 0 0 124 0 0 124 0 0 124 0 0 124 0 0 124 0 0 124 0 0 124 0 0 124 0 0 123 0 0 123 0 0 123 0 0 123 0 0 123 0 0 123 0 0 123 0 0 123 0 0 122 0 0 122 0 0 122 0 0 122 0 0 122 0 0 122 0 0 122 0 0 122 0 0 121 0 0 121 0 0 121 0 0 121 0 0 121 0 0 121 0 0 121 0 0 121 0 0 120 0 0 120 0 0 120 0 0 120 0 0 120 0 0 120 0 0 120 0 0 120 0 0 119 0 0 119 0 0 119 0 0 119 0 0 119 0 0 119 0 0 119 0 0 119 0 0 118 0 0 118 0 0 118 0 0 118 0 0 118 0 0 118 0 0 118 0 0 117 0 0 117 0 0 117 0 0 117 0 0 117 0 0 117 0 0 117 0 0 117 0 0 116 0 0 116 0 0 116 0 0 116 0 0 116 0 0 116 0 0 116 0 0 116 0 0 115 0 0 115 0 0 115 0 0 115 0 0 115 0 0 115 0 0 115 0 0 114 0 0 114 0 0 114 0 0 114 0 0 114 0 0 114 0 0 114 0 0 113 0 0 113 0 0 113 0 0 113 0 0 113 0 0 113 0 0 113 0 0 113 0 0 112 0 0 112 0 0 112 0 0 112 0 0 112 0 0 112 0 0 112 0 0 111 0 0 111 0 0 111 0 0 111 0 0 111 0 0 111 0 0 111 0 0 111 0 0 110 0 0 110 0 0 110 0 0 110 0 0 110 0 0 110 0 0 110 0 0 109 0 0 109 0 0 109 0 0 109 0 0 109 0 0 109 
0 0 126 0 0 126 0 0 126 0 0 126 0 0 126 0 0 126 0 0 127 0 0 127 0 0 127 0 0 127 0 0 127 0 0 127 0 0 127 0 0 127 0 0 127 0 0 127 0 0 127 0 0 127 0 0 127 0 0 127 0 0 127 0 0 127 0 0 127 0 0 127 0 0 128 0 0 128 0 0 128 0 0 128 0 0 128 0 0 128 0 0 128 0 0 128 0 0 128 0 0 128 0 0 128 0 0 128 0 0 128 0 0 128 0 0 128 0 0 128 0 0 128 0 0 128 0 0 128 0 0 128 0 0 128 0 0 128 0 0 128 0 0 128 0 0 128 0 0 128 0 0 128 0 0 128 0 0 128 0 0 128 0 0 128 0 0 128 0 0 128 0 0 128 0 0 128 0 0 128 0 0 128 0 0 128 0 0 128 0 0 128 0 0 128 0 0 128 0 0 128 0 0 128 0 0 128 0 0 128 0 0 128 0 0 128 0 0 128 0 0 128 0 0 128 0 0 128 0 0 128 0 0 128 0 0 128 0 0 128 0 0 128 0 0 128 0 0 128 0 0 128 0 0 128 0 0 128 0 0 128 0 0 128 0 0 128 0 0 128 0 0 128 0 0 128 0 0 128 0 0 128 0 0 128 0 0 128 0 0 128 0 0 128 0 0 128 0 0 128 0 0 128 0 0 128 0 0 127 0 0 127 0 0 127 0 0 127 0 0 127 0 0 127 0 0 127 0 0 127 0 0 127 0 0 127 0 0 127 0 0 127 0 0 127 0 0 127 0 0 127 0 0 127 0 0 127 0 0 127 0 0 127 0 0 126 0 0 126 0 0 126 0 0 126 0 0 126 0 0 126 0 0 126 0 0 126 0 0 126 0 0 126 0 0 126 0 0 126 0 0 126 0 0 126 0 0 125 0 0 125 0 0 125 0 0 125 0 0 125 0 0 125 0 0 125 0 0 125 0 0 125 0 0 125 0 0 125 0 0 125 0 0 124 0 0 124 0 0 124 0 0 124 0 0 124 0 0 124 0 0 124 0 0 124 0 0 124 0 0 124 0 0 124 0 0 124 0 0 123 0 0 123 0 0 123 0 0 123 0 0 123 0 0 123 0 0 123 0 0 123 0 0 123 0 0 123 0 0 122 0 0 122 0 0 122 0 0 122 0 0 122 0 0 122 0 0 122 0 0 122 0 0 122 0 0 121 0 0 121 0 0 121 0 0 121 0 0 121 0 0 121 0 0 121 0 0 121 0 0 121 0 0 120 0 0 120 0 0 120 0 0 120 0 0 120 0 0 120 0 0 120 0 0 120 0 0 120 0 0 119 0 0 119 0 0 119 0 0 119 0 0 119 0 0 119 0 0 119 0 0 119 0 0 119 0 0 118 0 0 118 0 0 118 0 0 118 0 0 118 0 0 118 0 0 118 0 0 118 0 0 117 0 0 117 0 0 117 0 0 117 0 0 117 0 0 117 0 0 117 0 0 117 0 0 116 0 0 116 0 0 116 0 0 116 0 0 116 0 0 116 0 0 116 0 0 116 0 0 115 0 0 115 0 0 115 0 0 115 0 0 115 0 0 115 0 0 115 0 0 115 0 0 114 0 0 114 0 0 114 0 0 114 0 0 114 0 0 114 0 0 114 0 0 114 0 0 113 0 0 113 0 0 113 0 0 113 0 0 113 0 0 113 0 0 113 0 0 113 0 0 112 0 0 112 0 0 112 0 0 112 0 0 112 0 0 112 0 0 112 0 0 111 0 0 111 0 0 111 0 0 111 0 0 111 0 0 111 0 0 111 0 0 111 0 0 110 0 0 110 0 0 110 0 0 110 0 0 110 0 0 110 0 0 110 0 0 110 0 0 109 0 0 109 0 0 109 0 0 109 0 0 109 0 0 109 0 0 109 0 0 109 0 0 108 0 0 108 0 0 108 0 0 108 0 0 108 0 0 108 0 0 108 0 0 107 0 0 107 0 0 107 0 0 107 0 0 107 0 0 107 0 0 107 0 0 107 0 0 106 
0 0 122 0 0 123 0 0 123 0 0 123 0 0 123 0 0 123 0 0 123 0 0 123 0 0 123 0 0 123 0 0 123 0 0 123 0 0 123 0 0 123 0 0 123 0 0 123 0 0 123 0 0 123 0 0 124 0 0 124 0 0 124 0 0 124 0 0 124 0 0 124 0 0 124 0 0 124 0 0 124 0 0 124 0 0 124 0 0 124 0 0 124 0 0 124 0 0 124 0 0 124 0 0 124 0 0 124 0 0 124 0 0 124 0 0 124 0 0 124 0 0 124 0 0 124 0 0 124 0 0 124 0 0 125 0 0 125 0 0 125 0 0 125 0 0 125 0 0 125 0 0 125 0 0 125 0 0 125 0 0 125 0 0 125 0 0 125 0 0 125 0 0 125 0 0 125 0 0 125 0 0 125 0 0 125 0 0 125 0 0 125 0 0 125 0 0 125 0 0 125 0 0 125 0 0 125 0 0 125 0 0 125 0 0 125 0 0 125 0 0 125 0 0 125 0 0 125 0 0 125 0 0 125 0 0 125 0 0 125 0 0 125 0 0 125 0 0 125 0 0 125 0 0 125 0 0 125 0 0 125 0 0 125 0 0 125 0 0 124 0 0 124 0 0 124 0 0 124 0 0 124 0 0 124 0 0 124 0 0 124 0 0 124 0 0 124 0 0 124 0 0 124 0 0 124 0 0 124 0 0 124 0 0 124 0 0 124 0 0 124 0 0 124 0 0 124 0 0 124 0 0 124 0 0 124 0 0 124 0 0 124 0 0 124 0 0 123 0 0 123 0 0 123 0 0 123 0 0 123 0 0 123 0 0 123 0 0 123 0 0 123 0 0 123 0 0 123 0 0 123 0 0 123 0 0 123 0 0 123 0 0 123 0 0 123 0 0 122 0 0 122 0 0 122 0 0 122 0 0 122 0 0 122 0 0 122 0 0 122 0 0 122 0 0 122 0 0 122 0 0 122 0 0 122 0 0 121 0 0 121 0 0 121 0 0 121 0 0 121 0 0 121 0 0 121 0 0 121 0 0 121 0 0 121 0 0 121 0 0 121 0 0 120 0 0 120 0 0 120 0 0 120 0 0 120 0 0 120 0 0 120 0 0 120 0 0 120 0 0 120 0 0 120 0 0 119 0 0 119 0 0 119 0 0 119 0 0 119 0 0 119 0 0 119 0 0 119 0 0 119 0 0 119 0 0 118 0 0 118 0 0 118 0 0 118 0 0 118 0 0 118 0 0 118 0 0 118 0 0 118 0 0 118 0 0 117 0 0 117 0 0 117 0 0 117 0 0 117 0 0 117 0 0 117 0 0 117 0 0 117 0 0 116 0 0 116 0 0 116 0 0 116 0 0 116 0 0 116 0 0 116 0 0 116 0 0 116 0 0 115 0 0 115 0 0 115 0 0 115 0 0 115 0 0 115 0 0 115 0 0 115 0 0 115 0 0 114 0 0 114 0 0 114 0 0 114 0 0 114 0 0 114 0 0 114 0 0 114 0 0 113 0 0 113 0 0 113 0 0 113 0 0 113 0 0 113 0 0 113 0 0 113 0 0 112 0 0 112 0 0 112 0 0 112 0 0 112 0 0 112 0 0 112 0 0 112 0 0 111 0 0 111 0 0 111 0 0 111 0 0 111 0 0 111 0 0 111 0 0 111 0 0 111 0 0 110 0 0 110 0 0 110 0 0 110 0 0 110 0 0 110 0 0 110 0 0 110 0 0 109 0 0 109 0 0 109 0 0 109 0 0 109 0 0 109 0 0 109 0 0 109 0 0 108 0 0 108 0 0 108 0 0 108 0 0 108 0 0 108 0 0 108 0 0 108 0 0 107 0 0 107 0 0 107 0 0 107 0 0 107 0 0 107 0 0 107 0 0 107 0 0 106 0 0 106 0 0 106 0 0 106 0 0 106 0 0 106 0 0 106 0 0 106 0 0 105 0 0 105 0 0 105 0 0 105 0 0 105 0 0 105 0 0 105 0 0 105 0 0 104 0 0 104 0 0 104 0 0 104 
0 0 119 0 0 119 0 0 119 0 0 119 0 0 119 0 0 119 0 0 119 0 0 119 0 0 119 0 0 119 0 0 119 0 0 119 0 0 119 0 0 120 0 0 120 0 0 120 0 0 120 0 0 120 0 0 120 0 0 120 0 0 120 0 0 120 0 0 120 0 0 120 0 0 120 0 0 120 0 0 120 0 0 120 0 0 120 0 0 120 0 0 120 0 0 120 0 0 120 0 0 120 0 0 121 0 0 121 0 0 121 0 0 121 0 0 121 0 0 121 0 0 121 0 0 121 0 0 121 0 0 121 0 0 121 0 0 121 0 0 121 0 0 121 0 0 121 0 0 121 0 0 121 0 0 121 0 0 121 0 0 121 0 0 121 0 0 121 0 0 121 0 0 121 0 0 121 0 0 121 0 0 121 0 0 121 0 0 121 0 0 121 0 0 121 0 0 121 0 0 121 0 0 121 0 0 121 0 0 121 0 0 121 0 0 121 0 0 121 0 0 121 0 0 121 0 0 121 0 0 121 0 0 121 0 0 121 0 0 121 0 0 121 0 0 121 0 0 121 0 0 121 0 0 121 0 0 121 0 0 121 0 0 121 0 0 121 0 0 121 0 0 121 0 0 121 0 0 121 0 0 121 0 0 121 0 0 121 0 0 121 0 0 121 0 0 121 0 0 121 0 0 121 0 0 121 0 0 121 0 0 121 0 0 121 0 0 120 0 0 120 0 0 120 0 0 120 0 0 120 0 0 120 0 0 120 0 0 120 0 0 120 0 0 120 0 0 120 0 0 120 0 0 120 0 0 120 0 0 120 0 0 120 0 0 120 0 0 120 0 0 120 0 0 120 0 0 120 0 0 119 0 0 119 0 0 119 0 0 119 0 0 119 0 0 119 0 0 119 0 0 119 0 0 119 0 0 119 0 0 119 0 0 119 0 0 119 0 0 119 0 0 119 0 0 119 0 0 118 0 0 118 0 0 118 0 0 118 0 0 118 0 0 118 0 0 118 0 0 118 0 0 118 0 0 118 0 0 118 0 0 118 0 0 118 0 0 117 0 0 117 0 0 117 0 0 117 0 0 117 0 0 117 0 0 117 0 0 117 0 0 117 0 0 117 0 0 117 0 0 117 0 0 116 0 0 116 0 0 116 0 0 116 0 0 116 0 0 116 0 0 116 0 0 116 0 0 116 0 0 116 0 0 115 0 0 115 0 0 115 0 0 115 0 0 115 0 0 115 0 0 115 0 0 115 0 0 115 0 0 115 0 0 115 0 0 114 0 0 114 0 0 114 0 0 114 0 0 114 0 0 114 0 0 114 0 0 114 0 0 114 0 0 113 0 0 113 0 0 113 0 0 113 0 0 113 0 0 113 0 0 113 0 0 113 0 0 113 0 0 113 0 0 112 0 0 112 0 0 112 0 0 112 0 0 112 0 0 112 0 0 112 0 0 112 0 0 112 0 0 111 0 0 111 0 0 111 0 0 111 0 0 111 0 0 111 0 0 111 0 0 111 0 0 110 0 0 110 0 0 110 0 0 110 0 0 110 0 0 110 0 0 110 0 0 110 0 0 110 0 0 109 0 0 109 0 0 109 0 0 109 0 0 109 0 0 109 0 0 109 0 0 109 0 0 109 0 0 108 0 0 108 0 0 108 0 0 108 0 0 108 0 0 108 0 0 108 0 0 108 0 0 107 0 0 107 0 0 107 0 0 107 0 0 107 0 0 107 0 0 107 0 0 107 0 0 106 0 0 106 0 0 106 0 0 106 0 0 106 0 0 106 0 0 106 0 0 106 0 0 106 0 0 105 0 0 105 0 0 105 0 0 105 0 0 105 0 0 105 0 0 105 0 0 105 0 0 104 0 0 104 0 0 104 0 0 104 0 0 104 0 0 104 0 0 104 0 0 104 0 0 103 0 0 103 0 0 103 0 0 103 0 0 103 0 0 103 0 0 103 0 0 103 0 0 103 0 0 102 0 0 102 0 0 102 0 0 102 0 0 102 0 0 102 0 0 102 0 0 102 
0 0 115 0 0 115 0 0 115 0 0 115 0 0 115 0 0 115 0 0 115 0 0 115 0 0 115 0 0 116 0 0 116 0 0 116 0 0 116 0 0 116 0 0 116 0 0 116 0 0 116 0 0 116 0 0 116 0 0 116 0 0 116 0 0 116 0 0 116 0 0 116 0 0 116 0 0 116 0 0 116 0 0 116 0 0 117 0 0 117 0 0 117 0 0 117 0 0 117 0 0 117 0 0 117 0 0 117 0 0 117 0 0 117 0 0 117 0 0 117 0 0 117 0 0 117 0 0 117 0 0 117 0 0 117 0 0 117 0 0 117 0 0 117 0 0 117 0 0 117 0 0 117 0 0 117 0 0 117 0 0 117 0 0 117 0 0 117 0 0 117 0 0 117 0 0 117 0 0 117 0 0 117 0 0 117 0 0 117 0 0 117 0 0 117 0 0 117 0 0 118 0 0 118 0 0 118 0 0 118 0 0 118 0 0 118 0 0 118 0 0 118 0 0 118 0 0 118 0 0 118 0 0 118 0 0 118 0 0 118 0 0 117 0 0 117 0 0 117 0 0 117 0 0 117 0 0 117 0 0 117 0 0 117 0 0 117 0 0 117 0 0 117 0 0 117 0 0 117 0 0 117 0 0 117 0 0 117 0 0 117 0 0 117 0 0 117 0 0 117 0 0 117 0 0 117 0 0 117 0 0 117 0 0 117 0 0 117 0 0 117 0 0 117 0 0 117 0 0 117 0 0 117 0 0 117 0 0 117 0 0 117 0 0 117 0 0 117 0 0 117 0 0 117 0 0 116 0 0 116 0 0 116 0 0 116 0 0 116 0 0 116 0 0 116 0 0 116 0 0 116 0 0 116 0 0 116 0 0 116 0 0 116 0 0 116 0 0 116 0 0 116 0 0 116 0 0 116 0 0 116 0 0 115 0 0 115 0 0 115 0 0 115 0 0 115 0 0 115 0 0 115 0 0 115 0 0 115 0 0 115 0 0 115 0 0 115 0 0 115 0 0 115 0 0 115 0 0 114 0 0 114 0 0 114 0 0 114 0 0 114 0 0 114 0 0 114 0 0 114 0 0 114 0 0 114 0 0 114 0 0 114 0 0 113 0 0 113 0 0 113 0 0 113 0 0 113 0 0 113 0 0 113 0 0 113 0 0 113 0 0 113 0 0 113 0 0 113 0 0 112 0 0 112 0 0 112 0 0 112 0 0 112 0 0 112 0 0 112 0 0 112 0 0 112 0 0 112 0 0 112 0 0 111 0 0 111 0 0 111 0 0 111 0 0 111 0 0 111 0 0 111 0 0 111 0 0 111 0 0 111 0 0 110 0 0 110 0 0 110 0 0 110 0 0 110 0 0 110 0 0 110 0 0 110 0 0 110 0 0 110 0 0 109 0 0 109 0 0 109 0 0 109 0 0 109 0 0 109 0 0 109 0 0 109 0 0 109 0 0 108 0 0 108 0 0 108 0 0 108 0 0 108 0 0 108 0 0 108 0 0 108 0 0 108 0 0 108 0 0 107 0 0 107 0 0 107 0 0 107 0 0 107 0 0 107 0 0 107 0 0 107 0 0 107 0 0 106 0 0 106 0 0 106 0 0 106 0 0 106 0 0 106 0 0 106 0 0 106 0 0 105 0 0 105 0 0 105 0 0 105 0 0 105 0 0 105 0 0 105 0 0 105 0 0 105 0 0 104 0 0 104 0 0 104 0 0 104 0 0 104 0 0 104 0 0 104 0 0 104 0 0 104 0 0 103 0 0 103 0 0 103 0 0 103 0 0 103 0 0 103 0 0 103 0 0 103 0 0 103 0 0 102 0 0 102 0 0 102 0 0 102 0 0 102 0 0 102 0 0 102 0 0 102 0 0 101 0 0 101 0 0 101 0 0 101 0 0 101 0 0 101 0 0 101 0 0 101 0 0 101 0 0 100 0 0 100 0 0 100 0 0 100 0 0 100 0 0 100 0 0 100 0 0 100 0 0 99 0 0 99 0 0 99 0 0 99 0 0 99 
0 0 111 0 0 111 0 0 111 0 0 111 0 0 111 0 0 111 0 0 112 0 0 112 0 0 112 0 0 112 0 0 112 0 0 112 0 0 112 0 0 112 0 0 112 0 0 112 0 0 112 0 0 112 0 0 112 0 0 112 0 0 112 0 0 112 0 0 112 0 0 112 0 0 113 0 0 113 0 0 113 0 0 113 0 0 113 0 0 113 0 0 113 0 0 113 0 0 113 0 0 113 0 0 113 0 0 113 0 0 113 0 0 113 0 0 113 0 0 113 0 0 113 0 0 113 0 0 113 0 0 113 0 0 113 0 0 113 0 0 113 0 0 113 0 0 113 0 0 113 0 0 114 0 0 114 0 0 114 0 0 114 0 0 114 0 0 114 0 0 114 0 0 114 0 0 114 0 0 114 0 0 114 0 0 114 0 0 114 0 0 114 0 0 114 0 0 114 0 0 114 0 0 114 0 0 114 0 0 114 0 0 114 0 0 114 0 0 114 0 0 114 0 0 114 0 0 114 0 0 114 0 0 114 0 0 114 0 0 114 0 0 114 0 0 114 0 0 114 0 0 114 0 0 114 0 0 114 0 0 114 0 0 114 0 0 114 0 0 114 0 0 114 0 0 114 0 0 114 0 0 114 0 0 114 0 0 114 0 0 114 0 0 114 0 0 114 0 0 114 0 0 114 0 0 114 0 0 114 0 0 113 0 0 113 0 0 113 0 0 113 0 0 113 0 0 113 0 0 113 0 0 113 0 0 113 0 0 113 0 0 113 0 0 113 0 0 113 0 0 113 0 0 113 0 0 113 0 0 113 0 0 113 0 0 113 0 0 113 0 0 113 0 0 113 0 0 113 0 0 113 0 0 113 0 0 113 0 0 112 0 0 112 0 0 112 0 0 112 0 0 112 0 0 112 0 0 112 0 0 112 0 0 112 0 0 112 0 0 112 0 0 112 0 0 112 0 0 112 0 0 112 0 0 112 0 0 112 0 0 112 0 0 111 0 0 111 0 0 111 0 0 111 0 0 111 0 0 111 0 0 111 0 0 111 0 0 111 0 0 111 0 0 111 0 0 111 0 0 111 0 0 111 0 0 110 0 0 110 0 0 110 0 0 110 0 0 110 0 0 110 0 0 110 0 0 110 0 0 110 0 0 110 0 0 110 0 0 110 0 0 110 0 0 109 0 0 109 0 0 109 0 0 109 0 0 109 0 0 109 0 0 109 0 0 109 0 0 109 0 0 109 0 0 109 0 0 108 0 0 108 0 0 108 0 0 108 0 0 108 0 0 108 0 0 108 0 0 108 0 0 108 0 0 108 0 0 108 0 0 107 0 0 107 0 0 107 0 0 107 0 0 107 0 0 107 0 0 107 0 0 107 0 0 107 0 0 107 0 0 107 0 0 106 0 0 106 0 0 106 0 0 106 0 0 106 0 0 106 0 0 106 0 0 106 0 0 106 0 0 106 0 0 105 0 0 105 0 0 105 0 0 105 0 0 105 0 0 105 0 0 105 0 0 105 0 0 105 0 0 104 0 0 104 0 0 104 0 0 104 0 0 104 0 0 104 0 0 104 0 0 104 0 0 104 0 0 104 0 0 103 0 0 103 0 0 103 0 0 103 0 0 103 0 0 103 0 0 103 0 0 103 0 0 103 0 0 102 0 0 102 0 0 102 0 0 102 0 0 102 0 0 102 0 0 102 0 0 102 0 0 102 0 0 101 0 0 101 0 0 101 0 0 101 0 0 101 0 0 101 0 0 101 0 0 101 0 0 101 0 0 100 0 0 100 0 0 100 0 0 100 0 0 100 0 0 100 0 0 100 0 0 100 0 0 100 0 0 99 0 0 99 0 0 99 0 0 99 0 0 99 0 0 99 0 0 99 0 0 99 0 0 99 0 0 98 0 0 98 0 0 98 0 0 98 0 0 98 0 0 98 0 0 98 0 0 98 0 0 98 0 0 97 0 0 97 0 0 97 0 0 97 0 0 97 0 0 97 0 0 97 0 0 97 0 0 97 0 0 96 
0 0 107 0 0 107 0 0 107 0 0 108 0 0 108 0 0 108 0 0 108 0 0 108 0 0 108 0 0 108 0 0 108 0 0 108 0 0 108 0 0 108 0 0 108 0 0 108 0 0 108 0 0 108 0 0 108 0 0 108 0 0 109 0 0 109 0 0 109 0 0 109 0 0 109 0 0 109 0 0 109 0 0 109 0 0 109 0 0 109 0 0 109 0 0 109 0 0 109 0 0 109 0 0 109 0 0 109 0 0 109 0 0 109 0 0 109 0 0 109 0 0 109 0 0 109 0 0 110 0 0 110 0 0 110 0 0 110 0 0 110 0 0 110 0 0 110 0 0 110 0 0 110 0 0 110 0 0 110 0 0 110 0 0 110 0 0 110 0 0 110 0 0 110 0 0 110 0 0 110 0 0 110 0 0 110 0 0 110 0 0 110 0 0 110 0 0 110 0 0 110 0 0 110 0 0 110 0 0 110 0 0 110 0 0 110 0 0 110 0 0 110 0 0 110 0 0 110 0 0 110 0 0 110 0 0 110 0 0 110 0 0 110 0 0 110 0 0 110 0 0 110 0 0 110 0 0 110 0 0 110 0 0 110 0 0 110 0 0 110 0 0 110 0 0 110 0 0 110 0 0 110 0 0 110 0 0 110 0 0 110 0 0 110 0 0 110 0 0 110 0 0 110 0 0 110 0 0 110 0 0 110 0 0 110 0 0 110 0 0 110 0 0 110 0 0 110 0 0 110 0 0 110 0 0 110 0 0 110 0 0 110 0 0 110 0 0 110 0 0 110 0 0 109 0 0 109 0 0 109 0 0 109 0 0 109 0 0 109 0 0 109 0 0 109 0 0 109 0 0 109 0 0 109 0 0 109 0 0 109 0 0 109 0 0 109 0 0 109 0 0 109 0 0 109 0 0 109 0 0 109 0 0 109 0 0 109 0 0 109 0 0 108 0 0 108 0 0 108 0 0 108 0 0 108 0 0 108 0 0 108 0 0 108 0 0 108 0 0 108 0 0 108 0 0 108 0 0 108 0 0 108 0 0 108 0 0 108 0 0 107 0 0 107 0 0 107 0 0 107 0 0 107 0 0 107 0 0 107 0 0 107 0 0 107 0 0 107 0 0 107 0 0 107 0 0 107 0 0 107 0 0 106 0 0 106 0 0 106 0 0 106 0 0 106 0 0 106 0 0 106 0 0 106 0 0 106 0 0 106 0 0 106 0 0 106 0 0 106 0 0 105 0 0 105 0 0 105 0 0 105 0 0 105 0 0 105 0 0 105 0 0 105 0 0 105 0 0 105 0 0 105 0 0 105 0 0 104 0 0 104 0 0 104 0 0 104 0 0 104 0 0 104 0 0 104 0 0 104 0 0 104 0 0 104 0 0 104 0 0 103 0 0 103 0 0 103 0 0 103 0 0 103 0 0 103 0 0 103 0 0 103 0 0 103 0 0 103 0 0 102 0 0 102 0 0 102 0 0 102 0 0 102 0 0 102 0 0 102 0 0 102 0 0 102 0 0 102 0 0 102 0 0 101 0 0 101 0 0 101 0 0 101 0 0 101 0 0 101 0 0 101 0 0 101 0 0 101 0 0 101 0 0 100 0 0 100 0 0 100 0 0 100 0 0 100 0 0 100 0 0 100 0 0 100 0 0 100 0 0 99 0 0 99 0 0 99 0 0 99 0 0 99 0 0 99 0 0 99 0 0 99 0 0 99 0 0 99 0 0 98 0 0 98 0 0 98 0 0 98 0 0 98 0 0 98 0 0 98 0 0 98 0 0 98 0 0 97 0 0 97 0 0 97 0 0 97 0 0 97 0 0 97 0 0 97 0 0 97 0 0 97 0 0 97 0 0 96 0 0 96 0 0 96 0 0 96 0 0 96 0 0 96 0 0 96 0 0 96 0 0 96 0 0 95 0 0 95 0 0 95 0 0 95 0 0 95 0 0 95 0 0 95 0 0 95 0 0 95 0 0 94 0 0 94 0 0 94 0 0 94 0 0 94 0 0 94 0 0 94 
0 0 104 0 0 104 0 0 104 0 0 104 0 0 104 0 0 104 0 0 104 0 0 104 0 0 104 0 0 104 0 0 104 0 0 104 0 0 104 0 0 104 0 0 104 0 0 104 0 0 104 0 0 105 0 0 105 0 0 105 0 0 105 0 0 105 0 0 105 0 0 105 0 0 105 0 0 105 0 0 105 0 0 105 0 0 105 0 0 105 0 0 105 0 0 105 0 0 105 0 0 105 0 0 105 0 0 105 0 0 105 0 0 106 0 0 106 0 0 106 0 0 106 0 0 106 0 0 106 0 0 106 0 0 106 0 0 106 0 0 106 0 0 106 0 0 106 0 0 106 0 0 106 0 0 106 0 0 106 0 0 106 0 0 106 0 0 106 0 0 106 0 0 106 0 0 106 0 0 106 0 0 106 0 0 106 0 0 106 0 0 106 0 0 106 0 0 106 0 0 106 0 0 106 0 0 106 0 0 106 0 0 106 0 0 106 0 0 106 0 0 106 0 0 106 0 0 106 0 0 106 0 0 106 0 0 106 0 0 106 0 0 106 0 0 106 0 0 106 0 0 106 0 0 106 0 0 106 0 0 106 0 0 106 0 0 106 0 0 106 0 0 106 0 0 106 0 0 106 0 0 106 0 0 106 0 0 106 0 0 106 0 0 106 0 0 106 0 0 106 0 0 106 0 0 106 0 0 106 0 0 106 0 0 106 0 0 106 0 0 106 0 0 106 0 0 106 0 0 106 0 0 106 0 0 106 0 0 106 0 0 106 0 0 106 0 0 106 0 0 106 0 0 106 0 0 106 0 0 106 0 0 106 0 0 106 0 0 106 0 0 106 0 0 106 0 0 106 0 0 106 0 0 106 0 0 106 0 0 105 0 0 105 0 0 105 0 0 105 0 0 105 0 0 105 0 0 105 0 0 105 0 0 105 0 0 105 0 0 105 0 0 105 0 0 105 0 0 105 0 0 105 0 0 105 0 0 105 0 0 105 0 0 105 0 0 105 0 0 104 0 0 104 0 0 104 0 0 104 0 0 104 0 0 104 0 0 104 0 0 104 0 0 104 0 0 104 0 0 104 0 0 104 0 0 104 0 0 104 0 0 104 0 0 104 0 0 104 0 0 103 0 0 103 0 0 103 0 0 103 0 0 103 0 0 103 0 0 103 0 0 103 0 0 103 0 0 103 0 0 103 0 0 103 0 0 103 0 0 103 0 0 102 0 0 102 0 0 102 0 0 102 0 0 102 0 0 102 0 0 102 0 0 102 0 0 102 0 0 102 0 0 102 0 0 102 0 0 101 0 0 101 0 0 101 0 0 101 0 0 101 0 0 101 0 0 101 0 0 101 0 0 101 0 0 101 0 0 101 0 0 101 0 0 100 0 0 100 0 0 100 0 0 100 0 0 100 0 0 100 0 0 100 0 0 100 0 0 100 0 0 100 0 0 100 0 0 100 0 0 99 0 0 99 0 0 99 0 0 99 0 0 99 0 0 99 0 0 99 0 0 99 0 0 99 0 0 99 0 0 98 0 0 98 0 0 98 0 0 98 0 0 98 0 0 98 0 0 98 0 0 98 0 0 98 0 0 98 0 0 98 0 0 97 0 0 97 0 0 97 0 0 97 0 0 97 0 0 97 0 0 97 0 0 97 0 0 97 0 0 97 0 0 96 0 0 96 0 0 96 0 0 96 0 0 96 0 0 96 0 0 96 0 0 96 0 0 96 0 0 96 0 0 95 0 0 95 0 0 95 0 0 95 0 0 95 0 0 95 0 0 95 0 0 95 0 0 95 0 0 95 0 0 94 0 0 94 0 0 94 0 0 94 0 0 94 0 0 94 0 0 94 0 0 94 0 0 94 0 0 94 0 0 93 0 0 93 0 0 93 0 0 93 0 0 93 0 0 93 0 0 93 0 0 93 0 0 93 0 0 93 0 0 92 0 0 92 0 0 92 0 0 92 0 0 92 0 0 92 0 0 92 0 0 92 0 0 92 0 0 92 0 0 91 0 0 91 0 0 91 
0 0 100 0 0 100 0 0 100 0 0 100 0 0 100 0 0 100 0 0 100 0 0 100 0 0 100 0 0 100 0 0 100 0 0 100 0 0 100 0 0 100 0 0 101 0 0 101 0 0 101 0 0 101 0 0 101 0 0 101 0 0 101 0 0 101 0 0 101 0 0 101 0 0 101 0 0 101 0 0 101 0 0 101 0 0 101 0 0 101 0 0 101 0 0 101 0 0 101 0 0 102 0 0 102 0 0 102 0 0 102 0 0 102 0 0 102 0 0 102 0 0 102 0 0 102 0 0 102 0 0 102 0 0 102 0 0 102 0 0 102 0 0 102 0 0 102 0 0 102 0 0 102 0 0 102 0 0 102 0 0 102 0 0 102 0 0 102 0 0 102 0 0 102 0 0 102 0 0 102 0 0 102 0 0 102 0 0 102 0 0 102 0 0 102 0 0 102 0 0 103 0 0 103 0 0 103 0 0 103 0 0 103 0 0 103 0 0 103 0 0 103 0 0 103 0 0 103 0 0 103 0 0 103 0 0 103 0 0 103 0 0 103 0 0 103 0 0 103 0 0 103 0 0 103 0 0 103 0 0 103 0 0 103 0 0 103 0 0 103 0 0 103 0 0 103 0 0 103 0 0 103 0 0 103 0 0 103 0 0 103 0 0 103 0 0 103 0 0 103 0 0 103 0 0 103 0 0 103 0 0 103 0 0 103 0 0 103 0 0 103 0 0 102 0 0 102 0 0 102 0 0 102 0 0 102 0 0 102 0 0 102 0 0 102 0 0 102 0 0 102 0 0 102 0 0 102 0 0 102 0 0 102 0 0 102 0 0 102 0 0 102 0 0 102 0 0 102 0 0 102 0 0 102 0 0 102 0 0 102 0 0 102 0 0 102 0 0 102 0 0 102 0 0 102 0 0 102 0 0 102 0 0 102 0 0 102 0 0 101 0 0 101 0 0 101 0 0 101 0 0 101 0 0 101 0 0 101 0 0 101 0 0 101 0 0 101 0 0 101 0 0 101 0 0 101 0 0 101 0 0 101 0 0 101 0 0 101 0 0 101 0 0 101 0 0 101 0 0 100 0 0 100 0 0 100 0 0 100 0 0 100 0 0 100 0 0 100 0 0 100 0 0 100 0 0 100 0 0 100 0 0 100 0 0 100 0 0 100 0 0 100 0 0 100 0 0 99 0 0 99 0 0 99 0 0 99 0 0 99 0 0 99 0 0 99 0 0 99 0 0 99 0 0 99 0 0 99 0 0 99 0 0 99 0 0 99 0 0 98 0 0 98 0 0 98 0 0 98 0 0 98 0 0 98 0 0 98 0 0 98 0 0 98 0 0 98 0 0 98 0 0 98 0 0 98 0 0 97 0 0 97 0 0 97 0 0 97 0 0 97 0 0 97 0 0 97 0 0 97 0 0 97 0 0 97 0 0 97 0 0 97 0 0 96 0 0 96 0 0 96 0 0 96 0 0 96 0 0 96 0 0 96 0 0 96 0 0 96 0 0 96 0 0 96 0 0 96 0 0 95 0 0 95 0 0 95 0 0 95 0 0 95 0 0 95 0 0 95 0 0 95 0 0 95 0 0 95 0 0 95 0 0 94 0 0 94 0 0 94 0 0 94 0 0 94 0 0 94 0 0 94 0 0 94 0 0 94 0 0 94 0 0 94 0 0 93 0 0 93 0 0 93 0 0 93 0 0 93 0 0 93 0 0 93 0 0 93 0 0 93 0 0 93 0 0 92 0 0 92 0 0 92 0 0 92 0 0 92 0 0 92 0 0 92 0 0 92 0 0 92 0 0 92 0 0 92 0 0 91 0 0 91 0 0 91 0 0 91 0 0 91 0 0 91 0 0 91 0 0 91 0 0 91 0 0 91 0 0 90 0 0 90 0 0 90 0 0 90 0 0 90 0 0 90 0 0 90 0 0 90 0 0 90 0 0 90 0 0 89 0 0 89 0 0 89 0 0 89 0 0 89 0 0 89 0 0 89 0 0 89 0 0 89 0 0 89 0 0 89 
0 0 96 0 0 96 0 0 96 0 0 96 0 0 96 0 0 96 0 0 96 0 0 96 0 0 96 0 0 96 0 0 96 0 0 97 0 0 97 0 0 97 0 0 97 0 0 97 0 0 97 0 0 97 0 0 97 0 0 97 0 0 97 0 0 97 0 0 97 0 0 97 0 0 97 0 0 97 0 0 97 0 0 97 0 0 97 0 0 97 0 0 98 0 0 98 0 0 98 0 0 98 0 0 98 0 0 98 0 0 98 0 0 98 0 0 98 0 0 98 0 0 98 0 0 98 0 0 98 0 0 98 0 0 98 0 0 98 0 0 98 0 0 98 0 0 98 0 0 98 0 0 98 0 0 98 0 0 98 0 0 98 0 0 98 0 0 98 0 0 98 0 0 98 0 0 99 0 0 99 0 0 99 0 0 99 0 0 99 0 0 99 0 0 99 0 0 99 0 0 99 0 0 99 0 0 99 0 0 99 0 0 99 0 0 99 0 0 99 0 0 99 0 0 99 0 0 99 0 0 99 0 0 99 0 0 99 0 0 99 0 0 99 0 0 99 0 0 99 0 0 99 0 0 99 0 0 99 0 0 99 0 0 99 0 0 99 0 0 99 0 0 99 0 0 99 0 0 99 0 0 99 0 0 99 0 0 99 0 0 99 0 0 99 0 0 99 0 0 99 0 0 99 0 0 99 0 0 99 0 0 99 0 0 99 0 0 99 0 0 99 0 0 99 0 0 99 0 0 99 0 0 99 0 0 99 0 0 99 0 0 99 0 0 99 0 0 99 0 0 99 0 0 99 0 0 99 0 0 99 0 0 99 0 0 99 0 0 98 0 0 98 0 0 98 0 0 98 0 0 98 0 0 98 0 0 98 0 0 98 0 0 98 0 0 98 0 0 98 0 0 98 0 0 98 0 0 98 0 0 98 0 0 98 0 0 98 0 0 98 0 0 98 0 0 98 0 0 98 0 0 98 0 0 98 0 0 98 0 0 98 0 0 98 0 0 98 0 0 97 0 0 97 0 0 97 0 0 97 0 0 97 0 0 97 0 0 97 0 0 97 0 0 97 0 0 97 0 0 97 0 0 97 0 0 97 0 0 97 0 0 97 0 0 97 0 0 97 0 0 97 0 0 97 0 0 96 0 0 96 0 0 96 0 0 96 0 0 96 0 0 96 0 0 96 0 0 96 0 0 96 0 0 96 0 0 96 0 0 96 0 0 96 0 0 96 0 0 96 0 0 96 0 0 95 0 0 95 0 0 95 0 0 95 0 0 95 0 0 95 0 0 95 0 0 95 0 0 95 0 0 95 0 0 95 0 0 95 0 0 95 0 0 95 0 0 95 0 0 94 0 0 94 0 0 94 0 0 94 0 0 94 0 0 94 0 0 94 0 0 94 0 0 94 0 0 94 0 0 94 0 0 94 0 0 94 0 0 93 0 0 93 0 0 93 0 0 93 0 0 93 0 0 93 0 0 93 0 0 93 0 0 93 0 0 93 0 0 93 0 0 93 0 0 92 0 0 92 0 0 92 0 0 92 0 0 92 0 0 92 0 0 92 0 0 92 0 0 92 0 0 92 0 0 92 0 0 92 0 0 91 0 0 91 0 0 91 0 0 91 0 0 91 0 0 91 0 0 91 0 0 91 0 0 91 0 0 91 0 0 91 0 0 91 0 0 90 0 0 90 0 0 90 0 0 90 0 0 90 0 0 90 0 0 90 0 0 90 0 0 90 0 0 90 0 0 90 0 0 89 0 0 89 0 0 89 0 0 89 0 0 89 0 0 89 0 0 89 0 0 89 0 0 89 0 0 89 0 0 89 0 0 88 0 0 88 0 0 88 0 0 88 0 0 88 0 0 88 0 0 88 0 0 88 0 0 88 0 0 88 0 0 88 0 0 87 0 0 87 0 0 87 0 0 87 0 0 87 0 0 87 0 0 87 0 0 87 0 0 87 0 0 87 0 0 87 0 0 86 0 0 86 0 0 86 0 0 86 0 0 86 0 0 86 0 0 86 0 0 86 
0 0 92 0 0 92 0 0 92 0 0 92 0 0 92 0 0 92 0 0 92 0 0 92 0 0 93 0 0 93 0 0 93 0 0 93 0 0 93 0 0 93 0 0 93 0 0 93 0 0 93 0 0 93 0 0 93 0 0 93 0 0 93 0 0 93 0 0 93 0 0 93 0 0 93 0 0 93 0 0 93 0 0 94 0 0 94 0 0 94 0 0 94 0 0 94 0 0 94 0 0 94 0 0 94 0 0 94 0 0 94 0 0 94 0 0 94 0 0 94 0 0 94 0 0 94 0 0 94 0 0 94 0 0 94 0 0 94 0 0 94 0 0 94 0 0 94 0 0 94 0 0 94 0 0 94 0 0 95 0 0 95 0 0 95 0 0 95 0 0 95 0 0 95 0 0 95 0 0 95 0 0 95 0 0 95 0 0 95 0 0 95 0 0 95 0 0 95 0 0 95 0 0 95 0 0 95 0 0 95 0 0 95 0 0 95 0 0 95 0 0 95 0 0 95 0 0 95 0 0 95 0 0 95 0 0 95 0 0 95 0 0 95 0 0 95 0 0 95 0 0 95 0 0 95 0 0 95 0 0 95 0 0 95 0 0 95 0 0 95 0 0 95 0 0 95 0 0 95 0 0 95 0 0 95 0 0 95 0 0 95 0 0 95 0 0 95 0 0 95 0 0 95 0 0 95 0 0 95 0 0 95 0 0 95 0 0 95 0 0 95 0 0 95 0 0 95 0 0 95 0 0 95 0 0 95 0 0 95 0 0 95 0 0 95 0 0 95 0 0 95 0 0 95 0 0 95 0 0 95 0 0 95 0 0 95 0 0 95 0 0 95 0 0 95 0 0 95 0 0 95 0 0 95 0 0 95 0 0 95 0 0 95 0 0 95 0 0 95 0 0 95 0 0 94 0 0 94 0 0 94 0 0 94 0 0 94 0 0 94 0 0 94 0 0 94 0 0 94 0 0 94 0 0 94 0 0 94 0 0 94 0 0 94 0 0 94 0 0 94 0 0 94 0 0 94 0 0 94 0 0 94 0 0 94 0 0 94 0 0 94 0 0 94 0 0 94 0 0 93 0 0 93 0 0 93 0 0 93 0 0 93 0 0 93 0 0 93 0 0 93 0 0 93 0 0 93 0 0 93 0 0 93 0 0 93 0 0 93 0 0 93 0 0 93 0 0 93 0 0 93 0 0 93 0 0 92 0 0 92 0 0 92 0 0 92 0 0 92 0 0 92 0 0 92 0 0 92 0 0 92 0 0 92 0 0 92 0 0 92 0 0 92 0 0 92 0 0 92 0 0 92 0 0 91 0 0 91 0 0 91 0 0 91 0 0 91 0 0 91 0 0 91 0 0 91 0 0 91 0 0 91 0 0 91 0 0 91 0 0 91 0 0 91 0 0 90 0 0 90 0 0 90 0 0 90 0 0 90 0 0 90 0 0 90 0 0 90 0 0 90 0 0 90 0 0 90 0 0 90 0 0 90 0 0 90 0 0 89 0 0 89 0 0 89 0 0 89 0 0 89 0 0 89 0 0 89 0 0 89 0 0 89 0 0 89 0 0 89 0 0 89 0 0 89 0 0 88 0 0 88 0 0 88 0 0 88 0 0 88 0 0 88 0 0 88 0 0 88 0 0 88 0 0 88 0 0 88 0 0 88 0 0 87 0 0 87 0 0 87 0 0 87 0 0 87 0 0 87 0 0 87 0 0 87 0 0 87 0 0 87 0 0 87 0 0 87 0 0 86 0 0 86 0 0 86 0 0 86 0 0 86 0 0 86 0 0 86 0 0 86 0 0 86 0 0 86 0 0 86 0 0 86 0 0 85 0 0 85 0 0 85 0 0 85 0 0 85 0 0 85 0 0 85 0 0 85 0 0 85 0 0 85 0 0 85 0 0 84 0 0 84 0 0 84 0 0 84 0 0 84 0 0 84 0 0 84 0 0 84 0 0 84 0 0 84 0 0 84 0 0 84 0 0 83 0 0 83 0 0 83 0 0 83 0 0 83 0 0 83 
0 0 88 0 0 88 0 0 88 0 0 88 0 0 88 0 0 89 0 0 89 0 0 89 0 0 89 0 0 89 0 0 89 0 0 89 0 0 89 0 0 89 0 0 89 0 0 89 0 0 89 0 0 89 0 0 89 0 0 89 0 0 89 0 0 89 0 0 89 0 0 89 0 0 90 0 0 90 0 0 90 0 0 90 0 0 90 0 0 90 0 0 90 0 0 90 0 0 90 0 0 90 0 0 90 0 0 90 0 0 90 0 0 90 0 0 90 0 0 90 0 0 90 0 0 90 0 0 90 0 0 90 0 0 90 0 0 90 0 0 90 0 0 90 0 0 91 0 0 91 0 0 91 0 0 91 0 0 91 0 0 91 0 0 91 0 0 91 0 0 91 0 0 91 0 0 91 0 0 91 0 0 91 0 0 91 0 0 91 0 0 91 0 0 91 0 0 91 0 0 91 0 0 91 0 0 91 0 0 91 0 0 91 0 0 91 0 0 91 0 0 91 0 0 91 0 0 91 0 0 91 0 0 91 0 0 91 0 0 91 0 0 91 0 0 91 0 0 91 0 0 91 0 0 91 0 0 91 0 0 91 0 0 91 0 0 91 0 0 91 0 0 91 0 0 91 0 0 91 0 0 91 0 0 91 0 0 91 0 0 91 0 0 91 0 0 91 0 0 91 0 0 91 0 0 91 0 0 91 0 0 91 0 0 91 0 0 91 0 0 91 0 0 91 0 0 91 0 0 91 0 0 91 0 0 91 0 0 91 0 0 91 0 0 91 0 0 91 0 0 91 0 0 91 0 0 91 0 0 91 0 0 91 0 0 91 0 0 91 0 0 91 0 0 91 0 0 91 0 0 91 0 0 91 0 0 91 0 0 91 0 0 91 0 0 91 0 0 91 0 0 91 0 0 91 0 0 91 0 0 91 0 0 91 0 0 91 0 0 91 0 0 91 0 0 91 0 0 91 0 0 91 0 0 91 0 0 90 0 0 90 0 0 90 0 0 90 0 0 90 0 0 90 0 0 90 0 0 90 0 0 90 0 0 90 0 0 90 0 0 90 0 0 90 0 0 90 0 0 90 0 0 90 0 0 90 0 0 90 0 0 90 0 0 90 0 0 90 0 0 90 0 0 90 0 0 90 0 0 89 0 0 89 0 0 89 0 0 89 0 0 89 0 0 89 0 0 89 0 0 89 0 0 89 0 0 89 0 0 89 0 0 89 0 0 89 0 0 89 0 0 89 0 0 89 0 0 89 0 0 89 0 0 89 0 0 88 0 0 88 0 0 88 0 0 88 0 0 88 0 0 88 0 0 88 0 0 88 0 0 88 0 0 88 0 0 88 0 0 88 0 0 88 0 0 88 0 0 88 0 0 88 0 0 87 0 0 87 0 0 87 0 0 87 0 0 87 0 0 87 0 0 87 0 0 87 0 0 87 0 0 87 0 0 87 0 0 87 0 0 87 0 0 87 0 0 87 0 0 86 0 0 86 0 0 86 0 0 86 0 0 86 0 0 86 0 0 86 0 0 86 0 0 86 0 0 86 0 0 86 0 0 86 0 0 86 0 0 85 0 0 85 0 0 85 0 0 85 0 0 85 0 0 85 0 0 85 0 0 85 0 0 85 0 0 85 0 0 85 0 0 85 0 0 85 0 0 85 0 0 84 0 0 84 0 0 84 0 0 84 0 0 84 0 0 84 0 0 84 0 0 84 0 0 84 0 0 84 0 0 84 0 0 84 0 0 84 0 0 83 0 0 83 0 0 83 0 0 83 0 0 83 0 0 83 0 0 83 0 0 83 0 0 83 0 0 83 0 0 83 0 0 83 0 0 82 0 0 82 0 0 82 0 0 82 0 0 82 0 0 82 0 0 82 0 0 82 0 0 82 0 0 82 0 0 82 0 0 82 0 0 81 0 0 81 0 0 81 0 0 81 0 0 81 0 0 81 0 0 81 0 0 81 0 0 81 0 0 81 0 0 81 0 0 81 0 0 81 0 0 80 0 0 80 0 0 80 0 0 80 
0 0 84 0 0 84 0 0 85 0 0 85 0 0 85 0 0 85 0 0 85 0 0 85 0 0 85 0 0 85 0 0 85 0 0 85 0 0 85 0 0 85 0 0 85 0 0 85 0 0 85 0 0 85 0 0 85 0 0 85 0 0 86 0 0 86 0 0 86 0 0 86 0 0 86 0 0 86 0 0 86 0 0 86 0 0 86 0 0 86 0 0 86 0 0 86 0 0 86 0 0 86 0 0 86 0 0 86 0 0 86 0 0 86 0 0 86 0 0 86 0 0 86 0 0 86 0 0 86 0 0 86 0 0 87 0 0 87 0 0 87 0 0 87 0 0 87 0 0 87 0 0 87 0 0 87 0 0 87 0 0 87 0 0 87 0 0 87 0 0 87 0 0 87 0 0 87 0 0 87 0 0 87 0 0 87 0 0 87 0 0 87 0 0 87 0 0 87 0 0 87 0 0 87 0 0 87 0 0 87 0 0 87 0 0 87 0 0 87 0 0 87 0 0 87 0 0 87 0 0 87 0 0 87 0 0 87 0 0 87 0 0 87 0 0 87 0 0 87 0 0 87 0 0 87 0 0 87 0 0 87 0 0 87 0 0 87 0 0 87 0 0 88 0 0 88 0 0 88 0 0 88 0 0 88 0 0 88 0 0 88 0 0 88 0 0 88 0 0 88 0 0 88 0 0 88 0 0 88 0 0 88 0 0 88 0 0 88 0 0 88 0 0 88 0 0 88 0 0 87 0 0 87 0 0 87 0 0 87 0 0 87 0 0 87 0 0 87 0 0 87 0 0 87 0 0 87 0 0 87 0 0 87 0 0 87 0 0 87 0 0 87 0 0 87 0 0 87 0 0 87 0 0 87 0 0 87 0 0 87 0 0 87 0 0 87 0 0 87 0 0 87 0 0 87 0 0 87 0 0 87 0 0 87 0 0 87 0 0 87 0 0 87 0 0 87 0 0 87 0 0 87 0 0 87 0 0 87 0 0 87 0 0 87 0 0 87 0 0 87 0 0 87 0 0 87 0 0 87 0 0 87 0 0 87 0 0 86 0 0 86 0 0 86 0 0 86 0 0 86 0 0 86 0 0 86 0 0 86 0 0 86 0 0 86 0 0 86 0 0 86 0 0 86 0 0 86 0 0 86 0 0 86 0 0 86 0 0 86 0 0 86 0 0 86 0 0 86 0 0 86 0 0 86 0 0 86 0 0 85 0 0 85 0 0 85 0 0 85 0 0 85 0 0 85 0 0 85 0 0 85 0 0 85 0 0 85 0 0 85 0 0 85 0 0 85 0 0 85 0 0 85 0 0 85 0 0 85 0 0 85 0 0 85 0 0 84 0 0 84 0 0 84 0 0 84 0 0 84 0 0 84 0 0 84 0 0 84 0 0 84 0 0 84 0 0 84 0 0 84 0 0 84 0 0 84 0 0 84 0 0 84 0 0 83 0 0 83 0 0 83 0 0 83 0 0 83 0 0 83 0 0 83 0 0 83 0 0 83 0 0 83 0 0 83 0 0 83 0 0 83 0 0 83 0 0 83 0 0 82 0 0 82 0 0 82 0 0 82 0 0 82 0 0 82 0 0 82 0 0 82 0 0 82 0 0 82 0 0 82 0 0 82 0 0 82 0 0 82 0 0 82 0 0 81 0 0 81 0 0 81 0 0 81 0 0 81 0 0 81 0 0 81 0 0 81 0 0 81 0 0 81 0 0 81 0 0 81 0 0 81 0 0 81 0 0 80 0 0 80 0 0 80 0 0 80 0 0 80 0 0 80 0 0 80 0 0 80 0 0 80 0 0 80 0 0 80 0 0 80 0 0 80 0 0 79 0 0 79 0 0 79 0 0 79 0 0 79 0 0 79 0 0 79 0 0 79 0 0 79 0 0 79 0 0 79 0 0 79 0 0 79 0 0 78 0 0 78 0 0 78 0 0 78 0 0 78 0 0 78 0 0 78 0 0 78 0 0 78 0 0 78 0 0 78 0 0 78 0 0 78 0 0 77 0 0 77 0 0 77 
0 0 81 0 0 81 0 0 81 0 0 81 0 0 81 0 0 81 0 0 81 0 0 81 0 0 81 0 0 81 0 0 81 0 0 81 0 0 81 0 0 81 0 0 81 0 0 81 0 0 81 0 0 82 0 0 82 0 0 82 0 0 82 0 0 82 0 0 82 0 0 82 0 0 82 0 0 82 0 0 82 0 0 82 0 0 82 0 0 82 0 0 82 0 0 82 0 0 82 0 0 82 0 0 82 0 0 82 0 0 82 0 0 82 0 0 82 0 0 82 0 0 83 0 0 83 0 0 83 0 0 83 0 0 83 0 0 83 0 0 83 0 0 83 0 0 83 0 0 83 0 0 83 0 0 83 0 0 83 0 0 83 0 0 83 0 0 83 0 0 83 0 0 83 0 0 83 0 0 83 0 0 83 0 0 83 0 0 83 0 0 83 0 0 83 0 0 83 0 0 83 0 0 83 0 0 83 0 0 83 0 0 83 0 0 83 0 0 83 0 0 83 0 0 83 0 0 83 0 0 83 0 0 84 0 0 84 0 0 84 0 0 84 0 0 84 0 0 84 0 0 84 0 0 84 0 0 84 0 0 84 0 0 84 0 0 84 0 0 84 0 0 84 0 0 84 0 0 84 0 0 84 0 0 84 0 0 84 0 0 84 0 0 84 0 0 84 0 0 84 0 0 84 0 0 84 0 0 84 0 0 84 0 0 84 0 0 84 0 0 84 0 0 84 0 0 84 0 0 84 0 0 84 0 0 84 0 0 84 0 0 84 0 0 84 0 0 84 0 0 84 0 0 84 0 0 84 0 0 84 0 0 84 0 0 84 0 0 84 0 0 84 0 0 84 0 0 84 0 0 84 0 0 84 0 0 84 0 0 83 0 0 83 0 0 83 0 0 83 0 0 83 0 0 83 0 0 83 0 0 83 0 0 83 0 0 83 0 0 83 0 0 83 0 0 83 0 0 83 0 0 83 0 0 83 0 0 83 0 0 83 0 0 83 0 0 83 0 0 83 0 0 83 0 0 83 0 0 83 0 0 83 0 0 83 0 0 83 0 0 83 0 0 83 0 0 83 0 0 83 0 0 83 0 0 83 0 0 83 0 0 83 0 0 83 0 0 83 0 0 82 0 0 82 0 0 82 0 0 82 0 0 82 0 0 82 0 0 82 0 0 82 0 0 82 0 0 82 0 0 82 0 0 82 0 0 82 0 0 82 0 0 82 0 0 82 0 0 82 0 0 82 0 0 82 0 0 82 0 0 82 0 0 82 0 0 82 0 0 81 0 0 81 0 0 81 0 0 81 0 0 81 0 0 81 0 0 81 0 0 81 0 0 81 0 0 81 0 0 81 0 0 81 0 0 81 0 0 81 0 0 81 0 0 81 0 0 81 0 0 81 0 0 81 0 0 80 0 0 80 0 0 80 0 0 80 0 0 80 0 0 80 0 0 80 0 0 80 0 0 80 0 0 80 0 0 80 0 0 80 0 0 80 0 0 80 0 0 80 0 0 80 0 0 80 0 0 79 0 0 79 0 0 79 0 0 79 0 0 79 0 0 79 0 0 79 0 0 79 0 0 79 0 0 79 0 0 79 0 0 79 0 0 79 0 0 79 0 0 79 0 0 79 0 0 78 0 0 78 0 0 78 0 0 78 0 0 78 0 0 78 0 0 78 0 0 78 0 0 78 0 0 78 0 0 78 0 0 78 0 0 78 0 0 78 0 0 78 0 0 77 0 0 77 0 0 77 0 0 77 0 0 77 0 0 77 0 0 77 0 0 77 0 0 77 0 0 77 0 0 77 0 0 77 0 0 77 0 0 77 0 0 76 0 0 76 0 0 76 0 0 76 0 0 76 0 0 76 0 0 76 0 0 76 0 0 76 0 0 76 0 0 76 0 0 76 0 0 76 0 0 76 0 0 76 0 0 75 0 0 75 0 0 75 0 0 75 0 0 75 0 0 75 0 0 75 0 0 75 0 0 75 0 0 75 0 0 75 0 0 75 0 0 75 0 0 75 0 0 74 
0 0 77 0 0 77 0 0 77 0 0 77 0 0 77 0 0 77 0 0 77 0 0 77 0 0 77 0 0 77 0 0 77 0 0 77 0 0 77 0 0 78 0 0 78 0 0 78 0 0 78 0 0 78 0 0 78 0 0 78 0 0 78 0 0 78 0 0 78 0 0 78 0 0 78 0 0 78 0 0 78 0 0 78 0 0 78 0 0 78 0 0 78 0 0 78 0 0 78 0 0 78 0 0 78 0 0 78 0 0 79 0 0 79 0 0 79 0 0 79 0 0 79 0 0 79 0 0 79 0 0 79 0 0 79 0 0 79 0 0 79 0 0 79 0 0 79 0 0 79 0 0 79 0 0 79 0 0 79 0 0 79 0 0 79 0 0 79 0 0 79 0 0 79 0 0 79 0 0 79 0 0 79 0 0 79 0 0 79 0 0 79 0 0 79 0 0 79 0 0 79 0 0 79 0 0 79 0 0 80 0 0 80 0 0 80 0 0 80 0 0 80 0 0 80 0 0 80 0 0 80 0 0 80 0 0 80 0 0 80 0 0 80 0 0 80 0 0 80 0 0 80 0 0 80 0 0 80 0 0 80 0 0 80 0 0 80 0 0 80 0 0 80 0 0 80 0 0 80 0 0 80 0 0 80 0 0 80 0 0 80 0 0 80 0 0 80 0 0 80 0 0 80 0 0 80 0 0 80 0 0 80 0 0 80 0 0 80 0 0 80 0 0 80 0 0 80 0 0 80 0 0 80 0 0 80 0 0 80 0 0 80 0 0 80 0 0 80 0 0 80 0 0 80 0 0 80 0 0 80 0 0 80 0 0 80 0 0 80 0 0 80 0 0 80 0 0 80 0 0 80 0 0 80 0 0 80 0 0 80 0 0 80 0 0 80 0 0 80 0 0 80 0 0 80 0 0 80 0 0 80 0 0 80 0 0 80 0 0 80 0 0 80 0 0 80 0 0 80 0 0 79 0 0 79 0 0 79 0 0 79 0 0 79 0 0 79 0 0 79 0 0 79 0 0 79 0 0 79 0 0 79 0 0 79 0 0 79 0 0 79 0 0 79 0 0 79 0 0 79 0 0 79 0 0 79 0 0 79 0 0 79 0 0 79 0 0 79 0 0 79 0 0 79 0 0 79 0 0 79 0 0 79 0 0 79 0 0 79 0 0 79 0 0 79 0 0 79 0 0 78 0 0 78 0 0 78 0 0 78 0 0 78 0 0 78 0 0 78 0 0 78 0 0 78 0 0 78 0 0 78 0 0 78 0 0 78 0 0 78 0 0 78 0 0 78 0 0 78 0 0 78 0 0 78 0 0 78 0 0 78 0 0 78 0 0 78 0 0 77 0 0 77 0 0 77 0 0 77 0 0 77 0 0 77 0 0 77 0 0 77 0 0 77 0 0 77 0 0 77 0 0 77 0 0 77 0 0 77 0 0 77 0 0 77 0 0 77 0 0 77 0 0 77 0 0 77 0 0 76 0 0 76 0 0 76 0 0 76 0 0 76 0 0 76 0 0 76 0 0 76 0 0 76 0 0 76 0 0 76 0 0 76 0 0 76 0 0 76 0 0 76 0 0 76 0 0 76 0 0 76 0 0 75 0 0 75 0 0 75 0 0 75 0 0 75 0 0 75 0 0 75 0 0 75 0 0 75 0 0 75 0 0 75 0 0 75 0 0 75 0 0 75 0 0 75 0 0 75 0 0 74 0 0 74 0 0 74 0 0 74 0 0 74 0 0 74 0 0 74 0 0 74 0 0 74 0 0 74 0 0 74 0 0 74 0 0 74 0 0 74 0 0 74 0 0 74 0 0 73 0 0 73 0 0 73 0 0 73 0 0 73 0 0 73 0 0 73 0 0 73 0 0 73 0 0 73 0 0 73 0 0 73 0 0 73 0 0 73 0 0 73 0 0 72 0 0 72 0 0 72 0 0 72 0 0 72 0 0 72 0 0 72 0 0 72 0 0 72 0 0 72 0 0 72 0 0 72 0 0 72 0 0 72 0 0 72 0 0 72 
0 0 73 0 0 73 0 0 73 0 0 73 0 0 73 0 0 73 0 0 73 0 0 73 0 0 74 0 0 74 0 0 74 0 0 74 0 0 74 0 0 74 0 0 74 0 0 74 0 0 74 0 0 74 0 0 74 0 0 74 0 0 74 0 0 74 0 0 74 0 0 74 0 0 74 0 0 74 0 0 74 0 0 74 0 0 74 0 0 74 0 0 74 0 0 74 0 0 75 0 0 75 0 0 75 0 0 75 0 0 75 0 0 75 0 0 75 0 0 75 0 0 75 0 0 75 0 0 75 0 0 75 0 0 75 0 0 75 0 0 75 0 0 75 0 0 75 0 0 75 0 0 75 0 0 75 0 0 75 0 0 75 0 0 75 0 0 75 0 0 75 0 0 75 0 0 75 0 0 75 0 0 75 0 0 75 0 0 75 0 0 76 0 0 76 0 0 76 0 0 76 0 0 76 0 0 76 0 0 76 0 0 76 0 0 76 0 0 76 0 0 76 0 0 76 0 0 76 0 0 76 0 0 76 0 0 76 0 0 76 0 0 76 0 0 76 0 0 76 0 0 76 0 0 76 0 0 76 0 0 76 0 0 76 0 0 76 0 0 76 0 0 76 0 0 76 0 0 76 0 0 76 0 0 76 0 0 76 0 0 76 0 0 76 0 0 76 0 0 76 0 0 76 0 0 76 0 0 76 0 0 76 0 0 76 0 0 76 0 0 76 0 0 76 0 0 76 0 0 76 0 0 76 0 0 76 0 0 76 0 0 76 0 0 76 0 0 76 0 0 76 0 0 76 0 0 76 0 0 76 0 0 76 0 0 76 0 0 76 0 0 76 0 0 76 0 0 76 0 0 76 0 0 76 0 0 76 0 0 76 0 0 76 0 0 76 0 0 76 0 0 76 0 0 76 0 0 76 0 0 76 0 0 76 0 0 76 0 0 76 0 0 76 0 0 76 0 0 76 0 0 76 0 0 76 0 0 76 0 0 76 0 0 76 0 0 76 0 0 76 0 0 76 0 0 76 0 0 76 0 0 76 0 0 76 0 0 76 0 0 75 0 0 75 0 0 75 0 0 75 0 0 75 0 0 75 0 0 75 0 0 75 0 0 75 0 0 75 0 0 75 0 0 75 0 0 75 0 0 75 0 0 75 0 0 75 0 0 75 0 0 75 0 0 75 0 0 75 0 0 75 0 0 75 0 0 75 0 0 75 0 0 75 0 0 75 0 0 75 0 0 75 0 0 75 0 0 75 0 0 75 0 0 74 0 0 74 0 0 74 0 0 74 0 0 74 0 0 74 0 0 74 0 0 74 0 0 74 0 0 74 0 0 74 0 0 74 0 0 74 0 0 74 0 0 74 0 0 74 0 0 74 0 0 74 0 0 74 0 0 74 0 0 74 0 0 74 0 0 74 0 0 74 0 0 73 0 0 73 0 0 73 0 0 73 0 0 73 0 0 73 0 0 73 0 0 73 0 0 73 0 0 73 0 0 73 0 0 73 0 0 73 0 0 73 0 0 73 0 0 73 0 0 73 0 0 73 0 0 73 0 0 73 0 0 72 0 0 72 0 0 72 0 0 72 0 0 72 0 0 72 0 0 72 0 0 72 0 0 72 0 0 72 0 0 72 0 0 72 0 0 72 0 0 72 0 0 72 0 0 72 0 0 72 0 0 72 0 0 71 0 0 71 0 0 71 0 0 71 0 0 71 0 0 71 0 0 71 0 0 71 0 0 71 0 0 71 0 0 71 0 0 71 0 0 71 0 0 71 0 0 71 0 0 71 0 0 71 0 0 71 0 0 70 0 0 70 0 0 70 0 0 70 0 0 70 0 0 70 0 0 70 0 0 70 0 0 70 0 0 70 0 0 70 0 0 70 0 0 70 0 0 70 0 0 70 0 0 70 0 0 70 0 0 69 0 0 69 0 0 69 0 0 69 0 0 69 0 0 69 0 0 69 0 0 69 0 0 69 0 0 69 0 0 69 0 0 69 0 0 69 0 0 69 0 0 69 0 0 69 
0 0 69 0 0 69 0 0 69 0 0 70 0 0 70 0 0 70 0 0 70 0 0 70 0 0 70 0 0 70 0 0 70 0 0 70 0 0 70 0 0 70 0 0 70 0 0 70 0 0 70 0 0 70 0 0 70 0 0 70 0 0 70 0 0 70 0 0 70 0 0 70 0 0 70 0 0 70 0 0 70 0 0 71 0 0 71 0 0 71 0 0 71 0 0 71 0 0 71 0 0 71 0 0 71 0 0 71 0 0 71 0 0 71 0 0 71 0 0 71 0 0 71 0 0 71 0 0 71 0 0 71 0 0 71 0 0 71 0 0 71 0 0 71 0 0 71 0 0 71 0 0 71 0 0 71 0 0 71 0 0 71 0 0 71 0 0 71 0 0 71 0 0 72 0 0 72 0 0 72 0 0 72 0 0 72 0 0 72 0 0 72 0 0 72 0 0 72 0 0 72 0 0 72 0 0 72 0 0 72 0 0 72 0 0 72 0 0 72 0 0 72 0 0 72 0 0 72 0 0 72 0 0 72 0 0 72 0 0 72 0 0 72 0 0 72 0 0 72 0 0 72 0 0 72 0 0 72 0 0 72 0 0 72 0 0 72 0 0 72 0 0 72 0 0 72 0 0 72 0 0 72 0 0 72 0 0 72 0 0 72 0 0 72 0 0 72 0 0 72 0 0 72 0 0 72 0 0 72 0 0 72 0 0 72 0 0 72 0 0 72 0 0 72 0 0 72 0 0 72 0 0 72 0 0 72 0 0 72 0 0 72 0 0 72 0 0 72 0 0 72 0 0 72 0 0 72 0 0 72 0 0 72 0 0 72 0 0 72 0 0 72 0 0 72 0 0 72 0 0 72 0 0 72 0 0 72 0 0 72 0 0 72 0 0 72 0 0 72 0 0 72 0 0 72 0 0 72 0 0 72 0 0 72 0 0 72 0 0 72 0 0 72 0 0 72 0 0 72 0 0 72 0 0 72 0 0 72 0 0 72 0 0 72 0 0 72 0 0 72 0 0 72 0 0 72 0 0 72 0 0 72 0 0 72 0 0 72 0 0 72 0 0 72 0 0 72 0 0 72 0 0 72 0 0 72 0 0 72 0 0 72 0 0 72 0 0 72 0 0 72 0 0 72 0 0 71 0 0 71 0 0 71 0 0 71 0 0 71 0 0 71 0 0 71 0 0 71 0 0 71 0 0 71 0 0 71 0 0 71 0 0 71 0 0 71 0 0 71 0 0 71 0 0 71 0 0 71 0 0 71 0 0 71 0 0 71 0 0 71 0 0 71 0 0 71 0 0 71 0 0 71 0 0 71 0 0 71 0 0 71 0 0 71 0 0 71 0 0 70 0 0 70 0 0 70 0 0 70 0 0 70 0 0 70 0 0 70 0 0 70 0 0 70 0 0 70 0 0 70 0 0 70 0 0 70 0 0 70 0 0 70 0 0 70 0 0 70 0 0 70 0 0 70 0 0 70 0 0 70 0 0 70 0 0 70 0 0 70 0 0 69 0 0 69 0 0 69 0 0 69 0 0 69 0 0 69 0 0 69 0 0 69 0 0 69 0 0 69 0 0 69 0 0 69 0 0 69 0 0 69 0 0 69 0 0 69 0 0 69 0 0 69 0 0 69 0 0 69 0 0 69 0 0 68 0 0 68 0 0 68 0 0 68 0 0 68 0 0 68 0 0 68 0 0 68 0 0 68 0 0 68 0 0 68 0 0 68 0 0 68 0 0 68 0 0 68 0 0 68 0 0 68 0 0 68 0 0 68 0 0 67 0 0 67 0 0 67 0 0 67 0 0 67 0 0 67 0 0 67 0 0 67 0 0 67 0 0 67 0 0 67 0 0 67 0 0 67 0 0 67 0 0 67 0 0 67 0 0 67 0 0 67 0 0 67 0 0 66 0 0 66 0 0 66 0 0 66 0 0 66 0 0 66 0 0 66 0 0 66 0 0 66 0 0 66 0 0 66 0 0 66 0 0 66 0 0 66 0 0 66 0 0 66 0 0 66 0 0 66 
0 0 66 0 0 66 0 0 66 0 0 66 0 0 66 0 0 66 0 0 66 0 0 66 0 0 66 0 0 66 0 0 66 0 0 66 0 0 66 0 0 66 0 0 66 0 0 66 0 0 66 0 0 66 0 0 66 0 0 66 0 0 67 0 0 67 0 0 67 0 0 67 0 0 67 0 0 67 0 0 67 0 0 67 0 0 67 0 0 67 0 0 67 0 0 67 0 0 67 0 0 67 0 0 67 0 0 67 0 0 67 0 0 67 0 0 67 0 0 67 0 0 67 0 0 67 0 0 67 0 0 67 0 0 67 0 0 67 0 0 67 0 0 67 0 0 67 0 0 67 0 0 67 0 0 68 0 0 68 0 0 68 0 0 68 0 0 68 0 0 68 0 0 68 0 0 68 0 0 68 0 0 68 0 0 68 0 0 68 0 0 68 0 0 68 0 0 68 0 0 68 0 0 68 0 0 68 0 0 68 0 0 68 0 0 68 0 0 68 0 0 68 0 0 68 0 0 68 0 0 68 0 0 68 0 0 68 0 0 68 0 0 68 0 0 68 0 0 68 0 0 68 0 0 68 0 0 68 0 0 68 0 0 68 0 0 68 0 0 68 0 0 68 0 0 68 0 0 68 0 0 68 0 0 68 0 0 68 0 0 68 0 0 68 0 0 68 0 0 68 0 0 68 0 0 68 0 0 68 0 0 68 0 0 68 0 0 68 0 0 68 0 0 68 0 0 68 0 0 68 0 0 68 0 0 68 0 0 68 0 0 68 0 0 68 0 0 68 0 0 68 0 0 68 0 0 68 0 0 68 0 0 68 0 0 68 0 0 68 0 0 68 0 0 68 0 0 68 0 0 68 0 0 68 0 0 68 0 0 68 0 0 68 0 0 68 0 0 68 0 0 68 0 0 68 0 0 68 0 0 68 0 0 68 0 0 68 0 0 68 0 0 68 0 0 68 0 0 68 0 0 68 0 0 68 0 0 68 0 0 68 0 0 68 0 0 68 0 0 68 0 0 68 0 0 68 0 0 68 0 0 68 0 0 68 0 0 68 0 0 68 0 0 68 0 0 68 0 0 68 0 0 68 0 0 68 0 0 68 0 0 68 0 0 68 0 0 68 0 0 68 0 0 68 0 0 68 0 0 68 0 0 68 0 0 68 0 0 68 0 0 68 0 0 68 0 0 68 0 0 68 0 0 68 0 0 68 0 0 68 0 0 68 0 0 67 0 0 67 0 0 67 0 0 67 0 0 67 0 0 67 0 0 67 0 0 67 0 0 67 0 0 67 0 0 67 0 0 67 0 0 67 0 0 67 0 0 67 0 0 67 0 0 67 0 0 67 0 0 67 0 0 67 0 0 67 0 0 67 0 0 67 0 0 67 0 0 67 0 0 67 0 0 67 0 0 67 0 0 67 0 0 67 0 0 67 0 0 66 0 0 66 0 0 66 0 0 66 0 0 66 0 0 66 0 0 66 0 0 66 0 0 66 0 0 66 0 0 66 0 0 66 0 0 66 0 0 66 0 0 66 0 0 66 0 0 66 0 0 66 0 0 66 0 0 66 0 0 66 0 0 66 0 0 66 0 0 66 0 0 66 0 0 65 0 0 65 0 0 65 0 0 65 0 0 65 0 0 65 0 0 65 0 0 65 0 0 65 0 0 65 0 0 65 0 0 65 0 0 65 0 0 65 0 0 65 0 0 65 0 0 65 0 0 65 0 0 65 0 0 65 0 0 65 0 0 65 0 0 64 0 0 64 0 0 64 0 0 64 0 0 64 0 0 64 0 0 64 0 0 64 0 0 64 0 0 64 0 0 64 0 0 64 0 0 64 0 0 64 0 0 64 0 0 64 0 0 64 0 0 64 0 0 64 0 0 64 0 0 63 0 0 63 0 0 63 0 0 63 0 0 63 0 0 63 0 0 63 0 0 63 0 0 63 0 0 63 0 0 63 0 0 63 0 0 63 0 0 63 0 0 63 0 0 63 0 0 63 0 0 63 0 0 63 0 0 63 0 0 62 
0 0 62 0 0 62 0 0 62 0 0 62 0 0 62 0 0 62 0 0 62 0 0 62 0 0 62 0 0 62 0 0 62 0 0 62 0 0 62 0 0 63 0 0 63 0 0 63 0 0 63 0 0 63 0 0 63 0 0 63 0 0 63 0 0 63 0 0 63 0 0 63 0 0 63 0 0 63 0 0 63 0 0 63 0 0 63 0 0 63 0 0 63 0 0 63 0 0 63 0 0 63 0 0 63 0 0 63 0 0 63 0 0 63 0 0 63 0 0 63 0 0 63 0 0 63 0 0 63 0 0 63 0 0 64 0 0 64 0 0 64 0 0 64 0 0 64 0 0 64 0 0 64 0 0 64 0 0 64 0 0 64 0 0 64 0 0 64 0 0 64 0 0 64 0 0 64 0 0 64 0 0 64 0 0 64 0 0 64 0 0 64 0 0 64 0 0 64 0 0 64 0 0 64 0 0 64 0 0 64 0 0 64 0 0 64 0 0 64 0 0 64 0 0 64 0 0 64 0 0 64 0 0 64 0 0 64 0 0 64 0 0 64 0 0 64 0 0 64 0 0 64 0 0 64 0 0 64 0 0 64 0 0 64 0 0 64 0 0 64 0 0 64 0 0 64 0 0 64 0 0 64 0 0 64 0 0 64 0 0 65 0 0 65 0 0 65 0 0 65 0 0 65 0 0 65 0 0 65 0 0 65 0 0 65 0 0 65 0 0 65 0 0 65 0 0 65 0 0 65 0 0 65 0 0 65 0 0 65 0 0 65 0 0 65 0 0 65 0 0 65 0 0 65 0 0 65 0 0 65 0 0 65 0 0 65 0 0 65 0 0 65 0 0 65 0 0 65 0 0 65 0 0 65 0 0 65 0 0 65 0 0 65 0 0 65 0 0 65 0 0 65 0 0 65 0 0 65 0 0 65 0 0 65 0 0 65 0 0 65 0 0 65 0 0 65 0 0 64 0 0 64 0 0 64 0 0 64 0 0 64 0 0 64 0 0 64 0 0 64 0 0 64 0 0 64 0 0 64 0 0 64 0 0 64 0 0 64 0 0 64 0 0 64 0 0 64 0 0 64 0 0 64 0 0 64 0 0 64 0 0 64 0 0 64 0 0 64 0 0 64 0 0 64 0 0 64 0 0 64 0 0 64 0 0 64 0 0 64 0 0 64 0 0 64 0 0 64 0 0 64 0 0 64 0 0 64 0 0 64 0 0 64 0 0 64 0 0 64 0 0 64 0 0 64 0 0 64 0 0 64 0 0 64 0 0 64 0 0 64 0 0 64 0 0 64 0 0 64 0 0 64 0 0 64 0 0 63 0 0 63 0 0 63 0 0 63 0 0 63 0 0 63 0 0 63 0 0 63 0 0 63 0 0 63 0 0 63 0 0 63 0 0 63 0 0 63 0 0 63 0 0 63 0 0 63 0 0 63 0 0 63 0 0 63 0 0 63 0 0 63 0 0 63 0 0 63 0 0 63 0 0 63 0 0 63 0 0 63 0 0 63 0 0 63 0 0 63 0 0 62 0 0 62 0 0 62 0 0 62 0 0 62 0 0 62 0 0 62 0 0 62 0 0 62 0 0 62 0 0 62 0 0 62 0 0 62 0 0 62 0 0 62 0 0 62 0 0 62 0 0 62 0 0 62 0 0 62 0 0 62 0 0 62 0 0 62 0 0 62 0 0 62 0 0 62 0 0 61 0 0 61 0 0 61 0 0 61 0 0 61 0 0 61 0 0 61 0 0 61 0 0 61 0 0 61 0 0 61 0 0 61 0 0 61 0 0 61 0 0 61 0 0 61 0 0 61 0 0 61 0 0 61 0 0 61 0 0 61 0 0 61 0 0 61 0 0 60 0 0 60 0 0 60 0 0 60 0 0 60 0 0 60 0 0 60 0 0 60 0 0 60 0 0 60 0 0 60 0 0 60 0 0 60 0 0 60 0 0 60 0 0 60 0 0 60 0 0 60 0 0 60 0 0 60 0 0 60 0 0 60 0 0 60 0 0 59 0 0 59 
0 0 58 0 0 58 0 0 58 0 0 59 0 0 59 0 0 59 0 0 59 0 0 59 0 0 59 0 0 59 0 0 59 0 0 59 0 0 59 0 0 59 0 0 59 0 0 59 0 0 59 0 0 59 0 0 59 0 0 59 0 0 59 0 0 59 0 0 59 0 0 59 0 0 59 0 0 59 0 0 59 0 0 59 0 0 59 0 0 59 0 0 59 0 0 59 0 0 59 0 0 59 0 0 59 0 0 60 0 0 60 0 0 60 0 0 60 0 0 60 0 0 60 0 0 60 0 0 60 0 0 60 0 0 60 0 0 60 0 0 60 0 0 60 0 0 60 0 0 60 0 0 60 0 0 60 0 0 60 0 0 60 0 0 60 0 0 60 0 0 60 0 0 60 0 0 60 0 0 60 0 0 60 0 0 60 0 0 60 0 0 60 0 0 60 0 0 60 0 0 60 0 0 60 0 0 60 0 0 60 0 0 60 0 0 60 0 0 60 0 0 60 0 0 60 0 0 60 0 0 60 0 0 60 0 0 60 0 0 60 0 0 60 0 0 60 0 0 61 0 0 61 0 0 61 0 0 61 0 0 61 0 0 61 0 0 61 0 0 61 0 0 61 0 0 61 0 0 61 0 0 61 0 0 61 0 0 61 0 0 61 0 0 61 0 0 61 0 0 61 0 0 61 0 0 61 0 0 61 0 0 61 0 0 61 0 0 61 0 0 61 0 0 61 0 0 61 0 0 61 0 0 61 0 0 61 0 0 61 0 0 61 0 0 61 0 0 61 0 0 61 0 0 61 0 0 61 0 0 61 0 0 61 0 0 61 0 0 61 0 0 61 0 0 61 0 0 61 0 0 61 0 0 61 0 0 61 0 0 61 0 0 61 0 0 61 0 0 61 0 0 61 0 0 61 0 0 61 0 0 61 0 0 61 0 0 61 0 0 61 0 0 61 0 0 61 0 0 61 0 0 61 0 0 61 0 0 61 0 0 61 0 0 61 0 0 61 0 0 61 0 0 61 0 0 61 0 0 61 0 0 61 0 0 61 0 0 61 0 0 61 0 0 61 0 0 61 0 0 61 0 0 61 0 0 61 0 0 61 0 0 61 0 0 60 0 0 60 0 0 60 0 0 60 0 0 60 0 0 60 0 0 60 0 0 60 0 0 60 0 0 60 0 0 60 0 0 60 0 0 60 0 0 60 0 0 60 0 0 60 0 0 60 0 0 60 0 0 60 0 0 60 0 0 60 0 0 60 0 0 60 0 0 60 0 0 60 0 0 60 0 0 60 0 0 60 0 0 60 0 0 60 0 0 60 0 0 60 0 0 60 0 0 60 0 0 60 0 0 60 0 0 60 0 0 60 0 0 60 0 0 60 0 0 60 0 0 60 0 0 60 0 0 60 0 0 60 0 0 60 0 0 59 0 0 59 0 0 59 0 0 59 0 0 59 0 0 59 0 0 59 0 0 59 0 0 59 0 0 59 0 0 59 0 0 59 0 0 59 0 0 59 0 0 59 0 0 59 0 0 59 0 0 59 0 0 59 0 0 59 0 0 59 0 0 59 0 0 59 0 0 59 0 0 59 0 0 59 0 0 59 0 0 59 0 0 59 0 0 59 0 0 59 0 0 59 0 0 58 0 0 58 0 0 58 0 0 58 0 0 58 0 0 58 0 0 58 0 0 58 0 0 58 0 0 58 0 0 58 0 0 58 0 0 58 0 0 58 0 0 58 0 0 58 0 0 58 0 0 58 0 0 58 0 0 58 0 0 58 0 0 58 0 0 58 0 0 58 0 0 58 0 0 58 0 0 58 0 0 58 0 0 57 0 0 57 0 0 57 0 0 57 0 0 57 0 0 57 0 0 57 0 0 57 0 0 57 0 0 57 0 0 57 0 0 57 0 0 57 0 0 57 0 0 57 0 0 57 0 0 57 0 0 57 0 0 57 0 0 57 0 0 57 0 0 57 0 0 57 0 0 57 0 0 57 0 0 56 0 0 56 0 0 56 0 0 56 0 0 56 
0 0 55 0 0 55 0 0 55 0 0 55 0 0 55 0 0 55 0 0 55 0 0 55 0 0 55 0 0 55 0 0 55 0 0 55 0 0 55 0 0 55 0 0 55 0 0 55 0 0 55 0 0 55 0 0 55 0 0 55 0 0 55 0 0 55 0 0 55 0 0 55 0 0 56 0 0 56 0 0 56 0 0 56 0 0 56 0 0 56 0 0 56 0 0 56 0 0 56 0 0 56 0 0 56 0 0 56 0 0 56 0 0 56 0 0 56 0 0 56 0 0 56 0 0 56 0 0 56 0 0 56 0 0 56 0 0 56 0 0 56 0 0 56 0 0 56 0 0 56 0 0 56 0 0 56 0 0 56 0 0 56 0 0 56 0 0 56 0 0 56 0 0 56 0 0 56 0 0 56 0 0 56 0 0 56 0 0 56 0 0 56 0 0 56 0 0 56 0 0 56 0 0 56 0 0 56 0 0 57 0 0 57 0 0 57 0 0 57 0 0 57 0 0 57 0 0 57 0 0 57 0 0 57 0 0 57 0 0 57 0 0 57 0 0 57 0 0 57 0 0 57 0 0 57 0 0 57 0 0 57 0 0 57 0 0 57 0 0 57 0 0 57 0 0 57 0 0 57 0 0 57 0 0 57 0 0 57 0 0 57 0 0 57 0 0 57 0 0 57 0 0 57 0 0 57 0 0 57 0 0 57 0 0 57 0 0 57 0 0 57 0 0 57 0 0 57 0 0 57 0 0 57 0 0 57 0 0 57 0 0 57 0 0 57 0 0 57 0 0 57 0 0 57 0 0 57 0 0 57 0 0 57 0 0 57 0 0 57 0 0 57 0 0 57 0 0 57 0 0 57 0 0 57 0 0 57 0 0 57 0 0 57 0 0 57 0 0 57 0 0 57 0 0 57 0 0 57 0 0 57 0 0 57 0 0 57 0 0 57 0 0 57 0 0 57 0 0 57 0 0 57 0 0 57 0 0 57 0 0 57 0 0 57 0 0 57 0 0 57 0 0 57 0 0 57 0 0 57 0 0 57 0 0 57 0 0 57 0 0 57 0 0 57 0 0 57 0 0 57 0 0 57 0 0 57 0 0 57 0 0 57 0 0 57 0 0 57 0 0 57 0 0 57 0 0 57 0 0 57 0 0 57 0 0 57 0 0 57 0 0 57 0 0 57 0 0 57 0 0 57 0 0 57 0 0 57 0 0 57 0 0 57 0 0 57 0 0 57 0 0 56 0 0 56 0 0 56 0 0 56 0 0 56 0 0 56 0 0 56 0 0 56 0 0 56 0 0 56 0 0 56 0 0 56 0 0 56 0 0 56 0 0 56 0 0 56 0 0 56 0 0 56 0 0 56 0 0 56 0 0 56 0 0 56 0 0 56 0 0 56 0 0 56 0 0 56 0 0 56 0 0 56 0 0 56 0 0 56 0 0 56 0 0 56 0 0 56 0 0 56 0 0 56 0 0 56 0 0 56 0 0 56 0 0 56 0 0 56 0 0 56 0 0 56 0 0 56 0 0 56 0 0 56 0 0 55 0 0 55 0 0 55 0 0 55 0 0 55 0 0 55 0 0 55 0 0 55 0 0 55 0 0 55 0 0 55 0 0 55 0 0 55 0 0 55 0 0 55 0 0 55 0 0 55 0 0 55 0 0 55 0 0 55 0 0 55 0 0 55 0 0 55 0 0 55 0 0 55 0 0 55 0 0 55 0 0 55 0 0 55 0 0 55 0 0 55 0 0 55 0 0 55 0 0 54 0 0 54 0 0 54 0 0 54 0 0 54 0 0 54 0 0 54 0 0 54 0 0 54 0 0 54 0 0 54 0 0 54 0 0 54 0 0 54 0 0 54 0 0 54 0 0 54 0 0 54 0 0 54 0 0 54 0 0 54 0 0 54 0 0 54 0 0 54 0 0 54 0 0 54 0 0 54 0 0 54 0 0 54 0 0 54 0 0 53 0 0 53 0 0 53 0 0 53 0 0 53 0 0 53 0 0 53 0 0 53 0 0 53 
0 0 51 0 0 51 0 0 51 0 0 51 0 0 51 0 0 51 0 0 51 0 0 51 0 0 51 0 0 51 0 0 52 0 0 52 0 0 52 0 0 52 0 0 52 0 0 52 0 0 52 0 0 52 0 0 52 0 0 52 0 0 52 0 0 52 0 0 52 0 0 52 0 0 52 0 0 52 0 0 52 0 0 52 0 0 52 0 0 52 0 0 52 0 0 52 0 0 52 0 0 52 0 0 52 0 0 52 0 0 52 0 0 52 0 0 52 0 0 52 0 0 52 0 0 52 0 0 52 0 0 52 0 0 52 0 0 52 0 0 52 0 0 52 0 0 52 0 0 52 0 0 52 0 0 52 0 0 52 0 0 52 0 0 52 0 0 53 0 0 53 0 0 53 0 0 53 0 0 53 0 0 53 0 0 53 0 0 53 0 0 53 0 0 53 0 0 53 0 0 53 0 0 53 0 0 53 0 0 53 0 0 53 0 0 53 0 0 53 0 0 53 0 0 53 0 0 53 0 0 53 0 0 53 0 0 53 0 0 53 0 0 53 0 0 53 0 0 53 0 0 53 0 0 53 0 0 53 0 0 53 0 0 53 0 0 53 0 0 53 0 0 53 0 0 53 0 0 53 0 0 53 0 0 53 0 0 53 0 0 53 0 0 53 0 0 53 0 0 53 0 0 53 0 0 53 0 0 53 0 0 53 0 0 53 0 0 53 0 0 53 0 0 53 0 0 53 0 0 53 0 0 53 0 0 53 0 0 53 0 0 53 0 0 53 0 0 53 0 0 53 0 0 53 0 0 53 0 0 53 0 0 53 0 0 53 0 0 53 0 0 53 0 0 53 0 0 53 0 0 53 0 0 53 0 0 53 0 0 53 0 0 53 0 0 53 0 0 53 0 0 53 0 0 53 0 0 53 0 0 53 0 0 53 0 0 53 0 0 53 0 0 53 0 0 53 0 0 53 0 0 53 0 0 53 0 0 53 0 0 53 0 0 53 0 0 53 0 0 53 0 0 53 0 0 53 0 0 53 0 0 53 0 0 53 0 0 53 0 0 53 0 0 53 0 0 53 0 0 53 0 0 53 0 0 53 0 0 53 0 0 53 0 0 53 0 0 53 0 0 53 0 0 53 0 0 53 0 0 53 0 0 53 0 0 53 0 0 53 0 0 53 0 0 53 0 0 53 0 0 53 0 0 53 0 0 53 0 0 53 0 0 53 0 0 53 0 0 53 0 0 53 0 0 53 0 0 53 0 0 53 0 0 53 0 0 53 0 0 53 0 0 53 0 0 53 0 0 53 0 0 53 0 0 53 0 0 53 0 0 53 0 0 53 0 0 53 0 0 53 0 0 53 0 0 53 0 0 53 0 0 53 0 0 52 0 0 52 0 0 52 0 0 52 0 0 52 0 0 52 0 0 52 0 0 52 0 0 52 0 0 52 0 0 52 0 0 52 0 0 52 0 0 52 0 0 52 0 0 52 0 0 52 0 0 52 0 0 52 0 0 52 0 0 52 0 0 52 0 0 52 0 0 52 0 0 52 0 0 52 0 0 52 0 0 52 0 0 52 0 0 52 0 0 52 0 0 52 0 0 52 0 0 52 0 0 52 0 0 52 0 0 52 0 0 52 0 0 52 0 0 52 0 0 52 0 0 52 0 0 52 0 0 52 0 0 51 0 0 51 0 0 51 0 0 51 0 0 51 0 0 51 0 0 51 0 0 51 0 0 51 0 0 51 0 0 51 0 0 51 0 0 51 0 0 51 0 0 51 0 0 51 0 0 51 0 0 51 0 0 51 0 0 51 0 0 51 0 0 51 0 0 51 0 0 51 0 0 51 0 0 51 0 0 51 0 0 51 0 0 51 0 0 51 0 0 51 0 0 51 0 0 51 0 0 51 0 0 51 0 0 51 0 0 50 0 0 50 0 0 50 0 0 50 0 0 50 0 0 50 0 0 50 0 0 50 0 0 50 0 0 50 0 0 50 0 0 50 0 0 50 0 0 50 0 0 50 0 0 50 
0 0 48 0 0 48 0 0 48 0 0 48 0 0 48 0 0 48 0 0 48 0 0 48 0 0 48 0 0 48 0 0 48 0 0 48 0 0 48 0 0 48 0 0 48 0 0 48 0 0 48 0 0 48 0 0 48 0 0 48 0 0 48 0 0 48 0 0 48 0 0 48 0 0 48 0 0 48 0 0 48 0 0 48 0 0 48 0 0 48 0 0 48 0 0 48 0 0 48 0 0 48 0 0 48 0 0 48 0 0 48 0 0 48 0 0 49 0 0 49 0 0 49 0 0 49 0 0 49 0 0 49 0 0 49 0 0 49 0 0 49 0 0 49 0 0 49 0 0 49 0 0 49 0 0 49 0 0 49 0 0 49 0 0 49 0 0 49 0 0 49 0 0 49 0 0 49 0 0 49 0 0 49 0 0 49 0 0 49 0 0 49 0 0 49 0 0 49 0 0 49 0 0 49 0 0 49 0 0 49 0 0 49 0 0 49 0 0 49 0 0 49 0 0 49 0 0 49 0 0 49 0 0 49 0 0 49 0 0 49 0 0 49 0 0 49 0 0 49 0 0 49 0 0 49 0 0 49 0 0 49 0 0 49 0 0 49 0 0 49 0 0 49 0 0 49 0 0 49 0 0 49 0 0 49 0 0 49 0 0 49 0 0 49 0 0 49 0 0 49 0 0 49 0 0 49 0 0 49 0 0 49 0 0 49 0 0 49 0 0 49 0 0 49 0 0 49 0 0 49 0 0 49 0 0 49 0 0 49 0 0 49 0 0 49 0 0 49 0 0 49 0 0 49 0 0 49 0 0 49 0 0 49 0 0 49 0 0 49 0 0 49 0 0 49 0 0 49 0 0 49 0 0 49 0 0 49 0 0 49 0 0 49 0 0 49 0 0 49 0 0 49 0 0 49 0 0 49 0 0 49 0 0 49 0 0 49 0 0 49 0 0 49 0 0 49 0 0 49 0 0 49 0 0 49 0 0 49 0 0 49 0 0 49 0 0 49 0 0 49 0 0 49 0 0 49 0 0 49 0 0 49 0 0 49 0 0 49 0 0 49 0 0 49 0 0 49 0 0 49 0 0 49 0 0 49 0 0 49 0 0 49 0 0 49 0 0 49 0 0 49 0 0 49 0 0 49 0 0 49 0 0 49 0 0 49 0 0 49 0 0 49 0 0 49 0 0 49 0 0 49 0 0 49 0 0 49 0 0 49 0 0 49 0 0 49 0 0 49 0 0 49 0 0 49 0 0 49 0 0 49 0 0 49 0 0 49 0 0 49 0 0 49 0 0 49 0 0 49 0 0 49 0 0 49 0 0 49 0 0 49 0 0 49 0 0 49 0 0 49 0 0 49 0 0 49 0 0 49 0 0 49 0 0 49 0 0 49 0 0 49 0 0 49 0 0 49 0 0 49 0 0 49 0 0 49 0 0 49 0 0 49 0 0 49 0 0 49 0 0 49 0 0 49 0 0 49 0 0 49 0 0 49 0 0 49 0 0 49 0 0 49 0 0 49 0 0 49 0 0 49 0 0 48 0 0 48 0 0 48 0 0 48 0 0 48 0 0 48 0 0 48 0 0 48 0 0 48 0 0 48 0 0 48 0 0 48 0 0 48 0 0 48 0 0 48 0 0 48 0 0 48 0 0 48 0 0 48 0 0 48 0 0 48 0 0 48 0 0 48 0 0 48 0 0 48 0 0 48 0 0 48 0 0 48 0 0 48 0 0 48 0 0 48 0 0 48 0 0 48 0 0 48 0 0 48 0 0 48 0 0 48 0 0 48 0 0 48 0 0 48 0 0 48 0 0 48 0 0 48 0 0 48 0 0 48 0 0 48 0 0 48 0 0 47 0 0 47 0 0 47 0 0 47 0 0 47 0 0 47 0 0 47 0 0 47 0 0 47 0 0 47 0 0 47 0 0 47 0 0 47 0 0 47 0 0 47 0 0 47 0 0 47 0 0 47 0 0 47 0 0 47 0 0 47 0 0 47 0 0 47 0 0 47 0 0 47 0 0 47 
0 0 44 0 0 44 0 0 44 0 0 44 0 0 44 0 0 44 0 0 44 0 0 44 0 0 44 0 0 44 0 0 44 0 0 44 0 0 44 0 0 44 0 0 44 0 0 45 0 0 45 0 0 45 0 0 45 0 0 45 0 0 45 0 0 45 0 0 45 0 0 45 0 0 45 0 0 45 0 0 45 0 0 45 0 0 45 0 0 45 0 0 45 0 0 45 0 0 45 0 0 45 0 0 45 0 0 45 0 0 45 0 0 45 0 0 45 0 0 45 0 0 45 0 0 45 0 0 45 0 0 45 0 0 45 0 0 45 0 0 45 0 0 45 0 0 45 0 0 45 0 0 45 0 0 45 0 0 45 0 0 45 0 0 45 0 0 45 0 0 45 0 0 45 0 0 45 0 0 45 0 0 45 0 0 45 0 0 45 0 0 45 0 0 45 0 0 45 0 0 45 0 0 45 0 0 45 0 0 45 0 0 45 0 0 45 0 0 45 0 0 45 0 0 45 0 0 45 0 0 45 0 0 45 0 0 45 0 0 45 0 0 45 0 0 45 0 0 45 0 0 45 0 0 45 0 0 45 0 0 45 0 0 45 0 0 45 0 0 45 0 0 46 0 0 46 0 0 46 0 0 46 0 0 46 0 0 46 0 0 46 0 0 46 0 0 46 0 0 46 0 0 46 0 0 46 0 0 46 0 0 46 0 0 46 0 0 46 0 0 46 0 0 46 0 0 46 0 0 46 0 0 46 0 0 46 0 0 46 0 0 46 0 0 46 0 0 46 0 0 46 0 0 46 0 0 46 0 0 46 0 0 46 0 0 46 0 0 46 0 0 46 0 0 46 0 0 46 0 0 46 0 0 46 0 0 46 0 0 46 0 0 46 0 0 46 0 0 46 0 0 46 0 0 46 0 0 46 0 0 46 0 0 46 0 0 46 0 0 46 0 0 46 0 0 46 0 0 46 0 0 46 0 0 46 0 0 46 0 0 46 0 0 46 0 0 46 0 0 46 0 0 46 0 0 46 0 0 46 0 0 46 0 0 46 0 0 46 0 0 46 0 0 46 0 0 46 0 0 46 0 0 46 0 0 46 0 0 46 0 0 46 0 0 46 0 0 46 0 0 46 0 0 46 0 0 46 0 0 46 0 0 46 0 0 46 0 0 46 0 0 46 0 0 46 0 0 46 0 0 46 0 0 46 0 0 46 0 0 46 0 0 46 0 0 46 0 0 45 0 0 45 0 0 45 0 0 45 0 0 45 0 0 45 0 0 45 0 0 45 0 0 45 0 0 45 0 0 45 0 0 45 0 0 45 0 0 45 0 0 45 0 0 45 0 0 45 0 0 45 0 0 45 0 0 45 0 0 45 0 0 45 0 0 45 0 0 45 0 0 45 0 0 45 0 0 45 0 0 45 0 0 45 0 0 45 0 0 45 0 0 45 0 0 45 0 0 45 0 0 45 0 0 45 0 0 45 0 0 45 0 0 45 0 0 45 0 0 45 0 0 45 0 0 45 0 0 45 0 0 45 0 0 45 0 0 45 0 0 45 0 0 45 0 0 45 0 0 45 0 0 45 0 0 45 0 0 45 0 0 45 0 0 45 0 0 45 0 0 45 0 0 45 0 0 45 0 0 45 0 0 45 0 0 45 0 0 45 0 0 45 0 0 45 0 0 45 0 0 45 0 0 45 0 0 45 0 0 45 0 0 45 0 0 45 0 0 45 0 0 45 0 0 44 0 0 44 0 0 44 0 0 44 0 0 44 0 0 44 0 0 44 0 0 44 0 0 44 0 0 44 0 0 44 0 0 44 0 0 44 0 0 44 0 0 44 0 0 44 0 0 44 0 0 44 0 0 44 0 0 44 0 0 44 0 0 44 0 0 44 0 0 44 0 0 44 0 0 44 0 0 44 0 0 44 0 0 44 0 0 44 0 0 44 0 0 44 0 0 44 0 0 44 0 0 44 0 0 44 0 0 44 0 0 44 0 0 44 0 0 44 0 0 44 0 0 44 0 0 44 
0 0 41 0 0 41 0 0 41 0 0 41 0 0 41 0 0 41 0 0 41 0 0 41 0 0 41 0 0 41 0 0 41 0 0 41 0 0 41 0 0 41 0 0 41 0 0 41 0 0 41 0 0 41 0 0 41 0 0 41 0 0 41 0 0 41 0 0 41 0 0 41 0 0 41 0 0 41 0 0 41 0 0 41 0 0 41 0 0 41 0 0 41 0 0 41 0 0 41 0 0 41 0 0 41 0 0 41 0 0 41 0 0 41 0 0 41 0 0 41 0 0 41 0 0 41 0 0 41 0 0 41 0 0 41 0 0 41 0 0 41 0 0 41 0 0 41 0 0 41 0 0 41 0 0 41 0 0 41 0 0 41 0 0 41 0 0 41 0 0 42 0 0 42 0 0 42 0 0 42 0 0 42 0 0 42 0 0 42 0 0 42 0 0 42 0 0 42 0 0 42 0 0 42 0 0 42 0 0 42 0 0 42 0 0 42 0 0 42 0 0 42 0 0 42 0 0 42 0 0 42 0 0 42 0 0 42 0 0 42 0 0 42 0 0 42 0 0 42 0 0 42 0 0 42 0 0 42 0 0 42 0 0 42 0 0 42 0 0 42 0 0 42 0 0 42 0 0 42 0 0 42 0 0 42 0 0 42 0 0 42 0 0 42 0 0 42 0 0 42 0 0 42 0 0 42 0 0 42 0 0 42 0 0 42 0 0 42 0 0 42 0 0 42 0 0 42 0 0 42 0 0 42 0 0 42 0 0 42 0 0 42 0 0 42 0 0 42 0 0 42 0 0 42 0 0 42 0 0 42 0 0 42 0 0 42 0 0 42 0 0 42 0 0 42 0 0 42 0 0 42 0 0 42 0 0 42 0 0 42 0 0 42 0 0 42 0 0 42 0 0 42 0 0 42 0 0 42 0 0 42 0 0 42 0 0 42 0 0 42 0 0 42 0 0 42 0 0 42 0 0 42 0 0 42 0 0 42 0 0 42 0 0 42 0 0 42 0 0 42 0 0 42 0 0 42 0 0 42 0 0 42 0 0 42 0 0 42 0 0 42 0 0 42 0 0 42 0 0 42 0 0 42 0 0 42 0 0 42 0 0 42 0 0 42 0 0 42 0 0 42 0 0 42 0 0 42 0 0 42 0 0 42 0 0 42 0 0 42 0 0 42 0 0 42 0 0 42 0 0 42 0 0 42 0 0 42 0 0 42 0 0 42 0 0 42 0 0 42 0 0 42 0 0 42 0 0 42 0 0 42 0 0 42 0 0 42 0 0 42 0 0 42 0 0 42 0 0 42 0 0 42 0 0 42 0 0 42 0 0 42 0 0 42 0 0 42 0 0 42 0 0 42 0 0 42 0 0 42 0 0 42 0 0 42 0 0 42 0 0 42 0 0 42 0 0 42 0 0 42 0 0 42 0 0 42 0 0 42 0 0 42 0 0 42 0 0 42 0 0 42 0 0 42 0 0 42 0 0 42 0 0 42 0 0 42 0 0 41 0 0 41 0 0 41 0 0 41 0 0 41 0 0 41 0 0 41 0 0 41 0 0 41 0 0 41 0 0 41 0 0 41 0 0 41 0 0 41 0 0 41 0 0 41 0 0 41 0 0 41 0 0 41 0 0 41 0 0 41 0 0 41 0 0 41 0 0 41 0 0 41 0 0 41 0 0 41 0 0 41 0 0 41 0 0 41 0 0 41 0 0 41 0 0 41 0 0 41 0 0 41 0 0 41 0 0 41 0 0 41 0 0 41 0 0 41 0 0 41 0 0 41 0 0 41 0 0 41 0 0 41 0 0 41 0 0 41 0 0 41 0 0 41 0 0 41 0 0 41 0 0 41 0 0 41 0 0 41 0 0 41 0 0 41 0 0 41 0 0 41 0 0 41 0 0 41 0 0 41 0 0 41 0 0 41 0 0 41 0 0 41 0 0 41 0 0 41 0 0 41 0 0 41 0 0 41 0 0 41 0 0 41 0 0 41 0 0 41 0 0 41 0 0 41 0 0 40 0 0 40 
0 0 37 0 0 37 0 0 37 0 0 37 0 0 37 0 0 37 0 0 37 0 0 37 0 0 37 0 0 37 0 0 38 0 0 38 0 0 38 0 0 38 0 0 38 0 0 38 0 0 38 0 0 38 0 0 38 0 0 38 0 0 38 0 0 38 0 0 38 0 0 38 0 0 38 0 0 38 0 0 38 0 0 38 0 0 38 0 0 38 0 0 38 0 0 38 0 0 38 0 0 38 0 0 38 0 0 38 0 0 38 0 0 38 0 0 38 0 0 38 0 0 38 0 0 38 0 0 38 0 0 38 0 0 38 0 0 38 0 0 38 0 0 38 0 0 38 0 0 38 0 0 38 0 0 38 0 0 38 0 0 38 0 0 38 0 0 38 0 0 38 0 0 38 0 0 38 0 0 38 0 0 38 0 0 38 0 0 38 0 0 38 0 0 38 0 0 38 0 0 38 0 0 38 0 0 38 0 0 38 0 0 38 0 0 38 0 0 38 0 0 38 0 0 38 0 0 38 0 0 38 0 0 38 0 0 38 0 0 38 0 0 38 0 0 38 0 0 38 0 0 38 0 0 38 0 0 38 0 0 38 0 0 38 0 0 38 0 0 38 0 0 38 0 0 38 0 0 38 0 0 38 0 0 38 0 0 38 0 0 38 0 0 38 0 0 38 0 0 38 0 0 38 0 0 38 0 0 38 0 0 38 0 0 38 0 0 38 0 0 38 0 0 38 0 0 38 0 0 38 0 0 38 0 0 38 0 0 38 0 0 38 0 0 38 0 0 38 0 0 38 0 0 38 0 0 38 0 0 38 0 0 38 0 0 38 0 0 38 0 0 38 0 0 38 0 0 38 0 0 38 0 0 38 0 0 38 0 0 38 0 0 38 0 0 38 0 0 38 0 0 38 0 0 38 0 0 38 0 0 38 0 0 38 0 0 38 0 0 38 0 0 38 0 0 38 0 0 38 0 0 38 0 0 38 0 0 38 0 0 38 0 0 38 0 0 38 0 0 38 0 0 38 0 0 38 0 0 38 0 0 38 0 0 38 0 0 38 0 0 38 0 0 38 0 0 38 0 0 38 0 0 38 0 0 38 0 0 38 0 0 38 0 0 38 0 0 38 0 0 38 0 0 38 0 0 38 0 0 38 0 0 38 0 0 38 0 0 38 0 0 38 0 0 38 0 0 38 0 0 38 0 0 38 0 0 38 0 0 38 0 0 38 0 0 38 0 0 38 0 0 38 0 0 38 0 0 38 0 0 38 0 0 38 0 0 38 0 0 38 0 0 38 0 0 38 0 0 38 0 0 38 0 0 38 0 0 38 0 0 38 0 0 38 0 0 38 0 0 38 0 0 38 0 0 38 0 0 38 0 0 38 0 0 38 0 0 38 0 0 38 0 0 38 0 0 38 0 0 38 0 0 38 0 0 38 0 0 38 0 0 38 0 0 38 0 0 38 0 0 38 0 0 38 0 0 38 0 0 38 0 0 38 0 0 38 0 0 38 0 0 38 0 0 38 0 0 38 0 0 38 0 0 38 0 0 38 0 0 38 0 0 38 0 0 38 0 0 38 0 0 38 0 0 38 0 0 38 0 0 38 0 0 38 0 0 38 0 0 38 0 0 38 0 0 38 0 0 38 0 0 38 0 0 38 0 0 38 0 0 38 0 0 38 0 0 38 0 0 38 0 0 38 0 0 38 0 0 38 0 0 38 0 0 38 0 0 38 0 0 38 0 0 38 0 0 38 0 0 38 0 0 38 0 0 38 0 0 38 0 0 38 0 0 38 0 0 38 0 0 38 0 0 38 0 0 38 0 0 38 0 0 38 0 0 38 0 0 38 0 0 38 0 0 38 0 0 37 0 0 37 0 0 37 0 0 37 0 0 37 0 0 37 0 0 37 0 0 37 0 0 37 0 0 37 0 0 37 0 0 37 0 0 37 0 0 37 0 0 37 0 0 37 0 0 37 0 0 37 0 0 37 0 0 37 0 0 37 0 0 37 0 0 37 0 0 37 0 0 37 
0 0 34 0 0 34 0 0 34 0 0 34 0 0 34 0 0 34 0 0 34 0 0 34 0 0 34 0 0 34 0 0 34 0 0 34 0 0 34 0 0 34 0 0 34 0 0 34 0 0 34 0 0 34 0 0 34 0 0 34 0 0 34 0 0 34 0 0 34 0 0 34 0 0 34 0 0 34 0 0 34 0 0 34 0 0 34 0 0 34 0 0 34 0 0 34 0 0 34 0 0 34 0 0 34 0 0 34 0 0 34 0 0 34 0 0 34 0 0 34 0 0 34 0 0 34 0 0 34 0 0 34 0 0 34 0 0 34 0 0 34 0 0 34 0 0 34 0 0 34 0 0 34 0 0 34 0 0 34 0 0 34 0 0 34 0 0 34 0 0 34 0 0 34 0 0 34 0 0 34 0 0 34 0 0 34 0 0 34 0 0 34 0 0 34 0 0 34 0 0 34 0 0 34 0 0 34 0 0 34 0 0 34 0 0 34 0 0 34 0 0 34 0 0 34 0 0 34 0 0 34 0 0 34 0 0 34 0 0 34 0 0 34 0 0 34 0 0 34 0 0 34 0 0 34 0 0 34 0 0 34 0 0 34 0 0 34 0 0 34 0 0 34 0 0 34 0 0 34 0 0 34 0 0 34 0 0 34 0 0 34 0 0 34 0 0 34 0 0 35 0 0 35 0 0 35 0 0 35 0 0 35 0 0 35 0 0 35 0 0 35 0 0 35 0 0 35 0 0 35 0 0 35 0 0 35 0 0 35 0 0 35 0 0 35 0 0 35 0 0 35 0 0 35 0 0 35 0 0 35 0 0 35 0 0 35 0 0 35 0 0 35 0 0 35 0 0 35 0 0 35 0 0 35 0 0 35 0 0 35 0 0 35 0 0 35 0 0 35 0 0 35 0 0 35 0 0 35 0 0 35 0 0 35 0 0 35 0 0 35 0 0 35 0 0 35 0 0 35 0 0 35 0 0 35 0 0 35 0 0 35 0 0 35 0 0 35 0 0 35 0 0 35 0 0 35 0 0 35 0 0 35 0 0 35 0 0 35 0 0 35 0 0 35 0 0 35 0 0 35 0 0 35 0 0 35 0 0 35 0 0 35 0 0 35 0 0 35 0 0 35 0 0 35 0 0 35 0 0 35 0 0 35 0 0 35 0 0 35 0 0 35 0 0 35 0 0 35 0 0 35 0 0 35 0 0 35 0 0 35 0 0 35 0 0 35 0 0 35 0 0 35 0 0 35 0 0 35 0 0 35 0 0 35 0 0 35 0 0 35 0 0 35 0 0 35 0 0 35 0 0 34 0 0 34 0 0 34 0 0 34 0 0 34 0 0 34 0 0 34 0 0 34 0 0 34 0 0 34 0 0 34 0 0 34 0 0 34 0 0 34 0 0 34 0 0 34 0 0 34 0 0 34 0 0 34 0 0 34 0 0 34 0 0 34 0 0 34 0 0 34 0 0 34 0 0 34 0 0 34 0 0 34 0 0 34 0 0 34 0 0 34 0 0 34 0 0 34 0 0 34 0 0 34 0 0 34 0 0 34 0 0 34 0 0 34 0 0 34 0 0 34 0 0 34 0 0 34 0 0 34 0 0 34 0 0 34 0 0 34 0 0 34 0 0 34 0 0 34 0 0 34 0 0 34 0 0 34 0 0 34 0 0 34 0 0 34 0 0 34 0 0 34 0 0 34 0 0 34 0 0 34 0 0 34 0 0 34 0 0 34 0 0 34 0 0 34 0 0 34 0 0 34 0 0 34 0 0 34 0 0 34 0 0 34 0 0 34 0 0 34 0 0 34 0 0 34 0 0 34 0 0 34 0 0 34 0 0 34 0 0 34 0 0 34 0 0 34 0 0 34 0 0 34 0 0 34 0 0 34 0 0 34 0 0 34 0 0 34 0 0 34 0 0 34 0 0 34 0 0 34 0 0 34 0 0 34 0 0 34 0 0 34 0 0 34 0 0 34 0 0 34 0 0 34 0 0 34 0 0 34 0 0 34 0 0 34 0 0 34 
0 0 31 0 0 31 0 0 31 0 0 31 0 0 31 0 0 31 0 0 31 0 0 31 0 0 31 0 0 31 0 0 31 0 0 31 0 0 31 0 0 31 0 0 31 0 0 31 0 0 31 0 0 31 0 0 31 0 0 31 0 0 31 0 0 31 0 0 31 0 0 31 0 0 31 0 0 31 0 0 31 0 0 31 0 0 31 0 0 31 0 0 31 0 0 31 0 0 31 0 0 31 0 0 31 0 0 31 0 0 31 0 0 31 0 0 31 0 0 31 0 0 31 0 0 31 0 0 31 0 0 31 0 0 31 0 0 31 0 0 31 0 0 31 0 0 31 0 0 31 0 0 31 0 0 31 0 0 31 0 0 31 0 0 31 0 0 31 0 0 31 0 0 31 0 0 31 0 0 31 0 0 31 0 0 31 0 0 31 0 0 31 0 0 31 0 0 31 0 0 31 0 0 31 0 0 31 0 0 31 0 0 31 0 0 31 0 0 31 0 0 31 0 0 31 0 0 31 0 0 31 0 0 31 0 0 31 0 0 31 0 0 31 0 0 31 0 0 31 0 0 31 0 0 31 0 0 31 0 0 31 0 0 31 0 0 31 0 0 31 0 0 31 0 0 31 0 0 31 0 0 31 0 0 31 0 0 31 0 0 31 0 0 31 0 0 31 0 0 31 0 0 31 0 0 31 0 0 31 0 0 31 0 0 31 0 0 31 0 0 31 0 0 31 0 0 31 0 0 31 0 0 31 0 0 31 0 0 31 0 0 31 0 0 31 0 0 31 0 0 31 0 0 31 0 0 31 0 0 31 0 0 31 0 0 31 0 0 31 0 0 31 0 0 31 0 0 31 0 0 31 0 0 31 0 0 31 0 0 31 0 0 31 0 0 31 0 0 31 0 0 31 0 0 31 0 0 31 0 0 31 0 0 31 0 0 31 0 0 31 0 0 31 0 0 31 0 0 31 0 0 31 0 0 31 0 0 31 0 0 31 0 0 31 0 0 31 0 0 31 0 0 31 0 0 31 0 0 31 0 0 31 0 0 31 0 0 31 0 0 31 0 0 31 0 0 31 0 0 31 0 0 31 0 0 31 0 0 31 0 0 31 0 0 31 0 0 31 0 0 31 0 0 31 0 0 31 0 0 31 0 0 31 0 0 31 0 0 31 0 0 31 0 0 31 0 0 31 0 0 31 0 0 31 0 0 31 0 0 31 0 0 31 0 0 31 0 0 31 0 0 31 0 0 31 0 0 31 0 0 31 0 0 31 0 0 31 0 0 31 0 0 31 0 0 31 0 0 31 0 0 31 0 0 31 0 0 31 0 0 31 0 0 31 0 0 31 0 0 31 0 0 31 0 0 31 0 0 31 0 0 31 0 0 31 0 0 31 0 0 31 0 0 31 0 0 31 0 0 31 0 0 31 0 0 31 0 0 31 0 0 31 0 0 31 0 0 31 0 0 31 0 0 31 0 0 31 0 0 31 0 0 31 0 0 31 0 0 31 0 0 31 0 0 31 0 0 31 0 0 31 0 0 31 0 0 31 0 0 31 0 0 31 0 0 31 0 0 31 0 0 31 0 0 31 0 0 31 0 0 31 0 0 31 0 0 31 0 0 31 0 0 31 0 0 31 0 0 31 0 0 31 0 0 31 0 0 31 0 0 31 0 0 31 0 0 31 0 0 31 0 0 31 0 0 31 0 0 31 0 0 31 0 0 31 0 0 31 0 0 31 0 0 31 0 0 31 0 0 31 0 0 31 0 0 31 0 0 31 0 0 31 0 0 31 0 0 31 0 0 31 0 0 31 0 0 31 0 0 31 0 0 31 0 0 31 0 0 31 0 0 31 0 0 31 0 0 31 0 0 31 0 0 31 0 0 31 0 0 31 0 0 31 0 0 31 0 0 31 0 0 31 0 0 31 0 0 31 0 0 31 0 0 31 0 0 31 0 0 31 0 0 31 0 0 31 0 0 31 0 0 31 0 0 31 0 0 31 0 0 31 0 0 31 0 0 31 0 0 31 
0 0 30 0 0 30 0 0 30 0 0 30 0 0 30 0 0 30 0 0 30 0 0 30 0 0 30 0 0 30 0 0 30 0 0 30 0 0 30 0 0 30 0 0 30 0 0 30 0 0 30 0 0 30 0 0 30 0 0 30 0 0 30 0 0 30 0 0 30 0 0 30 0 0 30 0 0 30 0 0 30 0 0 30 0 0 30 0 0 30 0 0 30 0 0 30 0 0 30 0 0 30 0 0 30 0 0 30 0 0 30 0 0 30 0 0 30 0 0 30 0 0 30 0 0 30 0 0 30 0 0 30 0 0 30 0 0 30 0 0 30 0 0 30 0 0 30 0 0 30 0 0 30 0 0 30 0 0 30 0 0 30 0 0 30 0 0 30 0 0 30 0 0 30 0 0 30 0 0 30 0 0 30 0 0 30 0 0 30 0 0 30 0 0 30 0 0 30 0 0 30 0 0 30 0 0 30 0 0 30 0 0 30 0 0 30 0 0 30 0 0 30 0 0 30 0 0 30 0 0 30 0 0 30 0 0 30 0 0 30 0 0 30 0 0 30 0 0 30 0 0 30 0 0 30 0 0 30 0 0 30 0 0 30 0 0 30 0 0 30 0 0 30 0 0 30 0 0 30 0 0 30 0 0 30 0 0 30 0 0 30 0 0 30 0 0 30 0 0 30 0 0 30 0 0 30 0 0 30 0 0 30 0 0 30 0 0 30 0 0 30 0 0 30 0 0 30 0 0 30 0 0 30 0 0 30 0 0 30 0 0 30 0 0 30 0 0 30 0 0 30 0 0 30 0 0 30 0 0 30 0 0 30 0 0 30 0 0 30 0 0 30 0 0 30 0 0 30 0 0 30 0 0 30 0 0 30 0 0 30 0 0 30 0 0 30 0 0 30 0 0 30 0 0 30 0 0 30 0 0 30 0 0 30 0 0 30 0 0 30 0 0 30 0 0 30 0 0 30 0 0 30 0 0 30 0 0 30 0 0 30 0 0 30 0 0 30 0 0 30 0 0 30 0 0 30 0 0 30 0 0 30 0 0 30 0 0 30 0 0 30 0 0 30 0 0 30 0 0 30 0 0 30 0 0 30 0 0 30 0 0 30 0 0 30 0 0 30 0 0 30 0 0 30 0 0 30 0 0 30 0 0 30 0 0 30 0 0 30 0 0 30 0 0 30 0 0 30 0 0 30 0 0 30 0 0 30 0 0 30 0 0 30 0 0 30 0 0 30 0 0 30 0 0 30 0 0 30 0 0 30 0 0 30 0 0 30 0 0 30 0 0 30 0 0 30 0 0 30 0 0 30 0 0 30 0 0 30 0 0 30 0 0 30 0 0 30 0 0 30 0 0 30 0 0 30 0 0 30 0 0 30 0 0 30 0 0 30 0 0 30 0 0 30 0 0 30 0 0 30 0 0 30 0 0 30 0 0 30 0 0 30 0 0 30 0 0 30 0 0 30 0 0 30 0 0 30 0 0 30 0 0 30 0 0 30 0 0 30 0 0 30 0 0 30 0 0 30 0 0 30 0 0 30 0 0 30 0 0 30 0 0 30 0 0 30 0 0 30 0 0 30 0 0 30 0 0 30 0 0 30 0 0 30 0 0 30 0 0 30 0 0 30 0 0 30 0 0 30 0 0 30 0 0 30 0 0 30 0 0 30 0 0 30 0 0 30 0 0 30 0 0 30 0 0 30 0 0 30 0 0 30 0 0 30 0 0 30 0 0 30 0 0 30 0 0 30 0 0 30 0 0 30 0 0 30 0 0 30 0 0 30 0 0 30 0 0 30 0 0 30 0 0 30 0 0 30 0 0 30 0 0 30 0 0 30 0 0 30 0 0 30 0 0 30 0 0 30 0 0 30 0 0 30 0 0 30 0 0 30 0 0 30 0 0 30 0 0 30 0 0 30 0 0 30 0 0 30 0 0 30 0 0 30 0 0 30 0 0 30 0 0 30 0 0 30 0 0 30 0 0 30 0 0 30 0 0 30 0 0 30 0 0 30 0 0 30 0 0 30 
0 0 30 0 0 30 0 0 30 0 0 30 0 0 30 0 0 30 0 0 30 0 0 30 0 0 30 0 0 30 0 0 30 0 0 30 0 0 30 0 0 30 0 0 30 0 0 30 0 0 30 0 0 30 0 0 30 0 0 30 0 0 30 0 0 30 0 0 30 0 0 30 0 0 30 0 0 30 0 0 30 0 0 30 0 0 30 0 0 30 0 0 30 0 0 30 0 0 30 0 0 30 0 0 30 0 0 30 0 0 30 0 0 30 0 0 30 0 0 30 0 0 30 0 0 30 0 0 30 0 0 30 0 0 30 0 0 30 0 0 30 0 0 30 0 0 30 0 0 30 0 0 30 0 0 30 0 0 30 0 0 30 0 0 30 0 0 30 0 0 30 0 0 30 0 0 30 0 0 30 0 0 30 0 0 30 0 0 30 0 0 30 0 0 30 0 0 30 0 0 30 0 0 30 0 0 30 0 0 30 0 0 30 0 0 30 0 0 30 0 0 30 0 0 30 0 0 30 0 0 30 0 0 30 0 0 30 0 0 30 0 0 30 0 0 30 0 0 30 0 0 30 0 0 30 0 0 30 0 0 30 0 0 30 0 0 30 0 0 30 0 0 30 0 0 30 0 0 30 0 0 30 0 0 30 0 0 30 0 0 30 0 0 30 0 0 30 0 0 30 0 0 30 0 0 30 0 0 30 0 0 30 0 0 30 0 0 30 0 0 30 0 0 30 0 0 30 0 0 30 0 0 30 0 0 30 0 0 30 0 0 30 0 0 30 0 0 30 0 0 30 0 0 30 0 0 30 0 0 30 0 0 30 0 0 30 0 0 30 0 0 30 0 0 30 0 0 30 0 0 30 0 0 30 0 0 30 0 0 30 0 0 30 0 0 30 0 0 30 0 0 30 0 0 30 0 0 30 0 0 30 0 0 30 0 0 30 0 0 30 0 0 30 0 0 30 0 0 30 0 0 30 0 0 30 0 0 30 0 0 30 0 0 30 0 0 30 0 0 30 0 0 30 0 0 30 0 0 30 0 0 30 0 0 30 0 0 30 0 0 30 0 0 30 0 0 30 0 0 30 0 0 30 0 0 30 0 0 30 0 0 30 0 0 30 0 0 30 0 0 30 0 0 30 0 0 30 0 0 30 0 0 30 0 0 30 0 0 30 0 0 30 0 0 30 0 0 30 0 0 30 0 0 30 0 0 30 0 0 30 0 0 30 0 0 30 0 0 30 0 0 30 0 0 30 0 0 30 0 0 30 0 0 30 0 0 30 0 0 30 0 0 30 0 0 30 0 0 30 0 0 30 0 0 30 0 0 30 0 0 30 0 0 30 0 0 30 0 0 30 0 0 30 0 0 30 0 0 30 0 0 30 0 0 30 0 0 30 0 0 30 0 0 30 0 0 30 0 0 30 0 0 30 0 0 30 0 0 30 0 0 30 0 0 30 0 0 30 0 0 30 0 0 30 0 0 30 0 0 30 0 0 30 0 0 30 0 0 30 0 0 30 0 0 30 0 0 30 0 0 30 0 0 30 0 0 30 0 0 30 0 0 30 0 0 30 0 0 30 0 0 30 0 0 30 0 0 30 0 0 30 0 0 30 0 0 30 0 0 30 0 0 30 0 0 30 0 0 30 0 0 30 0 0 30 0 0 30 0 0 30 0 0 30 0 0 30 0 0 30 0 0 30 0 0 30 0 0 30 0 0 30 0 0 30 0 0 30 0 0 30 0 0 30 0 0 30 0 0 30 0 0 30 0 0 30 0 0 30 0 0 30 0 0 30 0 0 30 0 0 30 0 0 30 0 0 30 0 0 30 0 0 30 0 0 30 0 0 30 0 0 30 0 0 30 0 0 30 0 0 30 0 0 30 0 0 30 0 0 30 0 0 30 0 0 30 0 0 30 0 0 30 0 0 30 0 0 30 0 0 30 0 0 30 0 0 30 0 0 30 0 0 30 0 0 30 0 0 30 0 0 30 0 0 30 0 0 30 0 0 30 0 0 30 0 0 30 0 0 30 
0 0 30 0 0 30 0 0 30 0 0 30 0 0 30 0 0 30 0 0 30 0 0 30 0 0 30 0 0 30 0 0 30 0 0 30 0 0 30 0 0 30 0 0 30 0 0 30 0 0 30 0 0 30 0 0 30 0 0 30 0 0 30 0 0 30 0 0 30 0 0 30 0 0 30 0 0 30 0 0 30 0 0 30 0 0 30 0 0 30 0 0 30 0 0 30 0 0 30 0 0 30 0 0 30 0 0 30 0 0 30 0 0 30 0 0 30 0 0 30 0 0 30 0 0 30 0 0 30 0 0 30 0 0 30 0 0 30 0 0 30 0 0 30 0 0 30 0 0 30 0 0 30 0 0 30 0 0 30 0 0 30 0 0 30 0 0 30 0 0 30 0 0 30 0 0 30 0 0 30 0 0 30 0 0 30 0 0 30 0 0 30 0 0 30 0 0 30 0 0 30 0 0 30 0 0 30 0 0 30 0 0 30 0 0 30 0 0 30 0 0 30 0 0 30 0 0 30 0 0 30 0 0 30 0 0 30 0 0 30 0 0 30 0 0 30 0 0 30 0 0 30 0 0 30 0 0 30 0 0 30 0 0 30 0 0 30 0 0 30 0 0 30 0 0 30 0 0 30 0 0 30 0 0 30 0 0 30 0 0 30 0 0 30 0 0 30 0 0 30 0 0 30 0 0 30 0 0 30 0 0 30 0 0 30 0 0 30 0 0 30 0 0 30 0 0 30 0 0 30 0 0 30 0 0 30 0 0 30 0 0 30 0 0 30 0 0 30 0 0 30 0 0 30 0 0 30 0 0 30 0 0 30 0 0 30 0 0 30 0 0 30 0 0 30 0 0 30 0 0 30 0 0 30 0 0 30 0 0 30 0 0 30 0 0 30 0 0 30 0 0 30 0 0 30 0 0 30 0 0 30 0 0 30 0 0 30 0 0 30 0 0 30 0 0 30 0 0 30 0 0 30 0 0 30 0 0 30 0 0 30 0 0 30 0 0 30 0 0 30 0 0 30 0 0 30 0 0 30 0 0 30 0 0 30 0 0 30 0 0 30 0 0 30 0 0 30 0 0 30 0 0 30 0 0 30 0 0 30 0 0 30 0 0 30 0 0 30 0 0 30 0 0 30 0 0 30 0 0 30 0 0 30 0 0 30 0 0 30 0 0 30 0 0 30 0 0 30 0 0 30 0 0 30 0 0 30 0 0 30 0 0 30 0 0 30 0 0 30 0 0 30 0 0 30 0 0 30 0 0 30 0 0 30 0 0 30 0 0 30 0 0 30 0 0 30 0 0 30 0 0 30 0 0 30 0 0 30 0 0 30 0 0 30 0 0 30 0 0 30 0 0 30 0 0 30 0 0 30 0 0 30 0 0 30 0 0 30 0 0 30 0 0 30 0 0 30 0 0 30 0 0 30 0 0 30 0 0 30 0 0 30 0 0 30 0 0 30 0 0 30 0 0 30 0 0 30 0 0 30 0 0 30 0 0 30 0 0 30 0 0 30 0 0 30 0 0 30 0 0 30 0 0 30 0 0 30 0 0 30 0 0 30 0 0 30 0 0 30 0 0 30 0 0 30 0 0 30 0 0 30 0 0 30 0 0 30 0 0 30 0 0 30 0 0 30 0 0 30 0 0 30 0 0 30 0 0 30 0 0 30 0 0 30 0 0 30 0 0 30 0 0 30 0 0 30 0 0 30 0 0 30 0 0 30 0 0 30 0 0 30 0 0 30 0 0 30 0 0 30 0 0 30 0 0 30 0 0 30 0 0 30 0 0 30 0 0 30 0 0 30 0 0 30 0 0 30 0 0 30 0 0 30 0 0 30 0 0 30 0 0 30 0 0 30 0 0 30 0 0 30 0 0 30 0 0 30 0 0 30 0 0 30 0 0 30 0 0 30 0 0 30 0 0 30 0 0 30 0 0 30 0 0 30 0 0 30 0 0 30 0 0 30 0 0 30 0 0 30 0 0 30 0 0 30 0 0 30 0 0 30 0 0 30 0 0 30 0 0 30 
0 0 30 0 0 30 0 0 30 0 0 30 0 0 30 0 0 30 0 0 30 0 0 30 0 0 30 0 0 30 0 0 30 0 0 30 0 0 30 0 0 30 0 0 30 0 0 30 0 0 30 0 0 30 0 0 30 0 0 30 0 0 30 0 0 30 0 0 30 0 0 30 0 0 30 0 0 30 0 0 30 0 0 30 0 0 30 0 0 30 0 0 30 0 0 30 0 0 30 0 0 30 0 0 30 0 0 30 0 0 30 0 0 30 0 0 30 0 0 30 0 0 30 0 0 30 0 0 30 0 0 30 0 0 30 0 0 30 0 0 30 0 0 30 0 0 30 0 0 30 0 0 30 0 0 30 0 0 30 0 0 30 0 0 30 0 0 30 0 0 30 0 0 30 0 0 30 0 0 30 0 0 30 0 0 30 0 0 30 0 0 30 0 0 30 0 0 30 0 0 30 0 0 30 0 0 30 0 0 30 0 0 30 0 0 30 0 0 30 0 0 30 0 0 30 0 0 30 0 0 30 0 0 30 0 0 30 0 0 30 0 0 30 0 0 30 0 0 30 0 0 30 0 0 30 0 0 30 0 0 30 0 0 30 0 0 30 0 0 30 0 0 30 0 0 30 0 0 30 0 0 30 0 0 30 0 0 30 0 0 30 0 0 30 0 0 30 0 0 30 0 0 30 0 0 30 0 0 30 0 0 30 0 0 30 0 0 30 0 0 30 0 0 30 0 0 30 0 0 30 0 0 30 0 0 30 0 0 30 0 0 30 0 0 30 0 0 30 0 0 30 0 0 30 0 0 30 0 0 30 0 0 30 0 0 30 0 0 30 0 0 30 0 0 30 0 0 30 0 0 30 0 0 30 0 0 30 0 0 30 0 0 30 0 0 30 0 0 30 0 0 30 0 0 30 0 0 30 0 0 30 0 0 30 0 0 30 0 0 30 0 0 30 0 0 30 0 0 30 0 0 30 0 0 30 0 0 30 0 0 30 0 0 30 0 0 30 0 0 30 0 0 30 0 0 30 0 0 30 0 0 30 0 0 30 0 0 30 0 0 30 0 0 30 0 0 30 0 0 30 0 0 30 0 0 30 0 0 30 0 0 30 0 0 30 0 0 30 0 0 30 0 0 30 0 0 30 0 0 30 0 0 30 0 0 30 0 0 30 0 0 30 0 0 30 0 0 30 0 0 30 0 0 30 0 0 30 0 0 30 0 0 30 0 0 30 0 0 30 0 0 30 0 0 30 0 0 30 0 0 30 0 0 30 0 0 30 0 0 30 0 0 30 0 0 30 0 0 30 0 0 30 0 0 30 0 0 30 0 0 30 0 0 30 0 0 30 0 0 30 0 0 30 0 0 30 0 0 30 0 0 30 0 0 30 0 0 30 0 0 30 0 0 30 0 0 30 0 0 30 0 0 30 0 0 30 0 0 30 0 0 30 0 0 30 0 0 30 0 0 30 0 0 30 0 0 30 0 0 30 0 0 30 0 0 30 0 0 30 0 0 30 0 0 30 0 0 30 0 0 30 0 0 30 0 0 30 0 0 30 0 0 30 0 0 30 0 0 30 0 0 30 0 0 30 0 0 30 0 0 30 0 0 30 0 0 30 0 0 30 0 0 30 0 0 30 0 0 30 0 0 30 0 0 30 0 0 30 0 0 30 0 0 30 0 0 30 0 0 30 0 0 30 0 0 30 0 0 30 0 0 30 0 0 30 0 0 30 0 0 30 0 0 30 0 0 30 0 0 30 0 0 30 0 0 30 0 0 30 0 0 30 0 0 30 0 0 30 0 0 30 0 0 30 0 0 30 0 0 30 0 0 30 0 0 30 0 0 30 0 0 30 0 0 30 0 0 30 0 0 30 0 0 30 0 0 30 0 0 30 0 0 30 0 0 30 0 0 30 0 0 30 0 0 30 0 0 30 0 0 30 0 0 30 0 0 30 0 0 30 0 0 30 0 0 30 0 0 30 0 0 30 0 0 30 0 0 30 0 0 30 0 0 30 0 0 30 0 0 30 
0 0 30 0 0 30 0 0 30 0 0 30 0 0 30 0 0 30 0 0 30 0 0 30 0 0 30 0 0 30 0 0 30 0 0 30 0 0 30 0 0 30 0 0 30 0 0 30 0 0 30 0 0 30 0 0 30 0 0 30 0 0 30 0 0 30 0 0 30 0 0 30 0 0 30 0 0 30 0 0 30 0 0 30 0 0 30 0 0 30 0 0 30 0 0 30 0 0 30 0 0 30 0 0 30 0 0 30 0 0 30 0 0 30 0 0 30 0 0 30 0 0 30 0 0 30 0 0 30 0 0 30 0 0 30 0 0 30 0 0 30 0 0 30 0 0 30 0 0 30 0 0 30 0 0 30 0 0 30 0 0 30 0 0 30 0 0 30 0 0 30 0 0 30 0 0 30 0 0 30 0 0 30 0 0 30 0 0 30 0 0 30 0 0 30 0 0 30 0 0 30 0 0 30 0 0 30 0 0 30 0 0 30 0 0 30 0 0 30 0 0 30 0 0 30 0 0 30 0 0 30 0 0 30 0 0 30 0 0 30 0 0 30 0 0 30 0 0 30 0 0 30 0 0 30 0 0 30 0 0 30 0 0 30 0 0 30 0 0 30 0 0 30 0 0 30 0 0 30 0 0 30 0 0 30 0 0 30 0 0 30 0 0 30 0 0 30 0 0 30 0 0 30 0 0 30 0 0 30 0 0 30 0 0 30 0 0 30 0 0 30 0 0 30 0 0 30 0 0 30 0 0 30 0 0 30 0 0 30 0 0 30 0 0 30 0 0 30 0 0 30 0 0 30 0 0 30 0 0 30 0 0 30 0 0 30 0 0 30 0 0 30 0 0 30 0 0 30 0 0 30 0 0 30 0 0 30 0 0 30 0 0 30 0 0 30 0 0 30 0 0 30 0 0 30 0 0 30 0 0 30 0 0 30 0 0 30 0 0 30 0 0 30 0 0 30 0 0 30 0 0 30 0 0 30 0 0 30 0 0 30 0 0 30 0 0 30 0 0 30 0 0 30 0 0 30 0 0 30 0 0 30 0 0 30 0 0 30 0 0 30 0 0 30 0 0 30 0 0 30 0 0 30 0 0 30 0 0 30 0 0 30 0 0 30 0 0 30 0 0 30 0 0 30 0 0 30 0 0 30 0 0 30 0 0 30 0 0 30 0 0 30 0 0 30 0 0 30 0 0 30 0 0 30 0 0 30 0 0 30 0 0 30 0 0 30 0 0 30 0 0 30 0 0 30 0 0 30 0 0 30 0 0 30 0 0 30 0 0 30 0 0 30 0 0 30 0 0 30 0 0 30 0 0 30 0 0 30 0 0 30 0 0 30 0 0 30 0 0 30 0 0 30 0 0 30 0 0 30 0 0 30 0 0 30 0 0 30 0 0 30 0 0 30 0 0 30 0 0 30 0 0 30 0 0 30 0 0 30 0 0 30 0 0 30 0 0 30 0 0 30 0 0 30 0 0 30 0 0 30 0 0 30 0 0 30 0 0 30 0 0 30 0 0 30 0 0 30 0 0 30 0 0 30 0 0 30 0 0 30 0 0 30 0 0 30 0 0 30 0 0 30 0 0 30 0 0 30 0 0 30 0 0 30 0 0 30 0 0 30 0 0 30 0 0 30 0 0 30 0 0 30 0 0 30 0 0 30 0 0 30 0 0 30 0 0 30 0 0 30 0 0 30 0 0 30 0 0 30 0 0 30 0 0 30 0 0 30 0 0 30 0 0 30 0 0 30 0 0 30 0 0 30 0 0 30 0 0 30 0 0 30 0 0 30 0 0 30 0 0 30 0 0 30 0 0 30 0 0 30 0 0 30 0 0 30 0 0 30 0 0 30 0 0 30 0 0 30 0 0 30 0 0 30 0 0 30 0 0 30 0 0 30 0 0 30 0 0 30 0 0 30 0 0 30 0 0 30 0 0 30 0 0 30 0 0 30 0 0 30 0 0 30 0 0 30 0 0 30 0 0 30 0 0 30 0 0 30 0 0 30 0 0 30 0 0 30 0 0 30 
0 0 30 0 0 30 0 0 30 0 0 30 0 0 30 0 0 30 0 0 30 0 0 30 0 0 30 0 0 30 0 0 30 0 0 30 0 0 30 0 0 30 0 0 30 0 0 30 0 0 30 0 0 30 0 0 30 0 0 30 0 0 30 0 0 30 0 0 30 0 0 30 0 0 30 0 0 30 0 0 30 0 0 30 0 0 30 0 0 30 0 0 30 0 0 30 0 0 30 0 0 30 0 0 30 0 0 30 0 0 30 0 0 30 0 0 30 0 0 30 0 0 30 0 0 30 0 0 30 0 0 30 0 0 30 0 0 30 0 0 30 0 0 30 0 0 30 0 0 30 0 0 30 0 0 30 0 0 30 0 0 30 0 0 30 0 0 30 0 0 30 0 0 30 0 0 30 0 0 30 0 0 30 0 0 30 0 0 30 0 0 30 0 0 30 0 0 30 0 0 30 0 0 30 0 0 30 0 0 30 0 0 30 0 0 30 0 0 30 0 0 30 0 0 30 0 0 30 0 0 30 0 0 30 0 0 30 0 0 30 0 0 30 0 0 30 0 0 30 0 0 30 0 0 30 0 0 30 0 0 30 0 0 30 0 0 30 0 0 30 0 0 30 0 0 30 0 0 30 0 0 30 0 0 30 0 0 30 0 0 30 0 0 30 0 0 30 0 0 30 0 0 30 0 0 30 0 0 30 0 0 30 0 0 30 0 0 30 0 0 30 0 0 30 0 0 30 0 0 30 0 0 30 0 0 30 0 0 30 0 0 30 0 0 30 0 0 30 0 0 30 0 0 30 0 0 30 0 0 30 0 0 30 0 0 30 0 0 30 0 0 30 0 0 30 0 0 30 0 0 30 0 0 30 0 0 30 0 0 30 0 0 30 0 0 30 0 0 30 0 0 30 0 0 30 0 0 30 0 0 30 0 0 30 0 0 30 0 0 30 0 0 30 0 0 30 0 0 30 0 0 30 0 0 30 0 0 30 0 0 30 0 0 30 0 0 30 0 0 30 0 0 30 0 0 30 0 0 30 0 0 30 0 0 30 0 0 30 0 0 30 0 0 30 0 0 30 0 0 30 0 0 30 0 0 30 0 0 30 0 0 30 0 0 30 0 0 30 0 0 30 0 0 30 0 0 30 0 0 30 0 0 30 0 0 30 0 0 30 0 0 30 0 0 30 0 0 30 0 0 30 0 0 30 0 0 30 0 0 30 0 0 30 0 0 30 0 0 30 0 0 30 0 0 30 0 0 30 0 0 30 0 0 30 0 0 30 0 0 30 0 0 30 0 0 30 0 0 30 0 0 30 0 0 30 0 0 30 0 0 30 0 0 30 0 0 30 0 0 30 0 0 30 0 0 30 0 0 30 0 0 30 0 0 30 0 0 30 0 0 30 0 0 30 0 0 30 0 0 30 0 0 30 0 0 30 0 0 30 0 0 30 0 0 30 0 0 30 0 0 30 0 0 30 0 0 30 0 0 30 0 0 30 0 0 30 0 0 30 0 0 30 0 0 30 0 0 30 0 0 30 0 0 30 0 0 30 0 0 30 0 0 30 0 0 30 0 0 30 0 0 30 0 0 30 0 0 30 0 0 30 0 0 30 0 0 30 0 0 30 0 0 30 0 0 30 0 0 30 0 0 30 0 0 30 0 0 30 0 0 30 0 0 30 0 0 30 0 0 30 0 0 30 0 0 30 0 0 30 0 0 30 0 0 30 0 0 30 0 0 30 0 0 30 0 0 30 0 0 30 0 0 30 0 0 30 0 0 30 0 0 30 0 0 30 0 0 30 0 0 30 0 0 30 0 0 30 0 0 30 0 0 30 0 0 30 0 0 30 0 0 30 0 0 30 0 0 30 0 0 30 0 0 30 0 0 30 0 0 30 0 0 30 0 0 30 0 0 30 0 0 30 0 0 30 0 0 30 0 0 30 0 0 30 0 0 30 0 0 30 0 0 30 0 0 30 0 0 30 0 0 30 0 0 30 0 0 30 0 0 30 0 0 30 0 0 30 0 0 30 
0 0 30 0 0 30 0 0 30 0 0 30 0 0 30 0 0 30 0 0 30 0 0 30 0 0 30 0 0 30 0 0 30 0 0 30 0 0 30 0 0 30 0 0 30 0 0 30 0 0 30 0 0 30 0 0 30 0 0 30 0 0 30 0 0 30 0 0 30 0 0 30 0 0 30 0 0 30 0 0 30 0 0 30 0 0 30 0 0 30 0 0 30 0 0 30 0 0 30 0 0 30 0 0 30 0 0 30 0 0 30 0 0 30 0 0 30 0 0 30 0 0 30 0 0 30 0 0 30 0 0 30 0 0 30 0 0 30 0 0 30 0 0 30 0 0 30 0 0 30 0 0 30 0 0 30 0 0 30 0 0 30 0 0 30 0 0 30 0 0 30 0 0 30 0 0 30 0 0 30 0 0 30 0 0 30 0 0 30 0 0 30 0 0 30 0 0 30 0 0 30 0 0 30 0 0 30 0 0 30 0 0 30 0 0 30 0 0 30 0 0 30 0 0 30 0 0 30 0 0 30 0 0 30 0 0 30 0 0 30 0 0 30 0 0 30 0 0 30 0 0 30 0 0 30 0 0 30 0 0 30 0 0 30 0 0 30 0 0 30 0 0 30 0 0 30 0 0 30 0 0 30 0 0 30 0 0 30 0 0 30 0 0 30 0 0 30 0 0 30 0 0 30 0 0 30 0 0 30 0 0 30 0 0 30 0 0 30 0 0 30 0 0 30 0 0 30 0 0 30 0 0 30 0 0 30 0 0 30 0 0 30 0 0 30 0 0 30 0 0 30 0 0 30 0 0 30 0 0 30 0 0 30 0 0 30 0 0 30 0 0 30 0 0 30 0 0 30 0 0 30 0 0 30 0 0 30 0 0 30 0 0 30 0 0 30 0 0 30 0 0 30 0 0 30 0 0 30 0 0 30 0 0 30 0 0 30 0 0 30 0 0 30 0 0 30 0 0 30 0 0 30 0 0 30 0 0 30 0 0 30 0 0 30 0 0 30 0 0 30 0 0 30 0 0 30 0 0 30 0 0 30 0 0 30 0 0 30 0 0 30 0 0 30 0 0 30 0 0 30 0 0 30 0 0 30 0 0 30 0 0 30 0 0 30 0 0 30 0 0 30 0 0 30 0 0 30 0 0 30 0 0 30 0 0 30 0 0 30 0 0 30 0 0 30 0 0 30 0 0 30 0 0 30 0 0 30 0 0 30 0 0 30 0 0 30 0 0 30 0 0 30 0 0 30 0 0 30 0 0 30 0 0 30 0 0 30 0 0 30 0 0 30 0 0 30 0 0 30 0 0 30 0 0 30 0 0 30 0 0 30 0 0 30 0 0 30 0 0 30 0 0 30 0 0 30 0 0 30 0 0 30 0 0 30 0 0 30 0 0 30 0 0 30 0 0 30 0 0 30 0 0 30 0 0 30 0 0 30 0 0 30 0 0 30 0 0 30 0 0 30 0 0 30 0 0 30 0 0 30 0 0 30 0 0 30 0 0 30 0 0 30 0 0 30 0 0 30 0 0 30 0 0 30 0 0 30 0 0 30 0 0 30 0 0 30 0 0 30 0 0 30 0 0 30 0 0 30 0 0 30 0 0 30 0 0 30 0 0 30 0 0 30 0 0 30 0 0 30 0 0 30 0 0 30 0 0 30 0 0 30 0 0 30 0 0 30 0 0 30 0 0 30 0 0 30 0 0 30 0 0 30 0 0 30 0 0 30 0 0 30 0 0 30 0 0 30 0 0 30 0 0 30 0 0 30 0 0 30 0 0 30 0 0 30 0 0 30 0 0 30 0 0 30 0 0 30 0 0 30 0 0 30 0 0 30 0 0 30 0 0 30 0 0 30 0 0 30 0 0 30 0 0 30 0 0 30 0 0 30 0 0 30 0 0 30 0 0 30 0 0 30 0 0 30 0 0 30 0 0 30 0 0 30 0 0 30 0 0 30 0 0 30 0 0 30 0 0 30 0 0 30 0 0 30 0 0 30 0 0 30 0 0 30 0 0 30 0 0 30 
0 0 30 0 0 30 0 0 30 0 0 30 0 0 30 0 0 30 0 0 30 0 0 30 0 0 30 0 0 30 0 0 30 0 0 30 0 0 30 0 0 30 0 0 30 0 0 30 0 0 30 0 0 30 0 0 30 0 0 30 0 0 30 0 0 30 0 0 30 0 0 30 0 0 30 0 0 30 0 0 30 0 0 30 0 0 30 0 0 30 0 0 30 0 0 30 0 0 30 0 0 30 0 0 30 0 0 30 0 0 30 0 0 30 0 0 30 0 0 30 0 0 30 0 0 30 0 0 30 0 0 30 0 0 30 0 0 30 0 0 30 0 0 30 0 0 30 0 0 30 0 0 30 0 0 30 0 0 30 0 0 30 0 0 30 0 0 30 0 0 30 0 0 30 0 0 30 0 0 30 0 0 30 0 0 30 0 0 30 0 0 30 0 0 30 0 0 30 0 0 30 0 0 30 0 0 30 0 0 30 0 0 30 0 0 30 0 0 30 0 0 30 0 0 30 0 0 30 0 0 30 0 0 30 0 0 30 0 0 30 0 0 30 0 0 30 0 0 30 0 0 30 0 0 30 0 0 30 0 0 30 0 0 30 0 0 30 0 0 30 0 0 30 0 0 30 0 0 30 0 0 30 0 0 30 0 0 30 0 0 30 0 0 30 0 0 30 0 0 30 0 0 30 0 0 30 0 0 30 0 0 30 0 0 30 0 0 30 0 0 30 0 0 30 0 0 30 0 0 30 0 0 30 0 0 30 0 0 30 0 0 30 0 0 30 0 0 30 0 0 30 0 0 30 0 0 30 0 0 30 0 0 30 0 0 30 0 0 30 0 0 30 0 0 30 0 0 30 0 0 30 0 0 30 0 0 30 0 0 30 0 0 30 0 0 30 0 0 30 0 0 30 0 0 30 0 0 30 0 0 30 0 0 30 0 0 30 0 0 30 0 0 30 0 0 30 0 0 30 0 0 30 0 0 30 0 0 30 0 0 30 0 0 30 0 0 30 0 0 30 0 0 30 0 0 30 0 0 30 0 0 30 0 0 30 0 0 30 0 0 30 0 0 30 0 0 30 0 0 30 0 0 30 0 0 30 0 0 30 0 0 30 0 0 30 0 0 30 0 0 30 0 0 30 0 0 30 0 0 30 0 0 30 0 0 30 0 0 30 0 0 30 0 0 30 0 0 30 0 0 30 0 0 30 0 0 30 0 0 30 0 0 30 0 0 30 0 0 30 0 0 30 0 0 30 0 0 30 0 0 30 0 0 30 0 0 30 0 0 30 0 0 30 0 0 30 0 0 30 0 0 30 0 0 30 0 0 30 0 0 30 0 0 30 0 0 30 0 0 30 0 0 30 0 0 30 0 0 30 0 0 30 0 0 30 0 0 30 0 0 30 0 0 30 0 0 30 0 0 30 0 0 30 0 0 30 0 0 30 0 0 30 0 0 30 0 0 30 0 0 30 0 0 30 0 0 30 0 0 30 0 0 30 0 0 30 0 0 30 0 0 30 0 0 30 0 0 30 0 0 30 0 0 30 0 0 30 0 0 30 0 0 30 0 0 30 0 0 30 0 0 30 0 0 30 0 0 30 0 0 30 0 0 30 0 0 30 0 0 30 0 0 30 0 0 30 0 0 30 0 0 30 0 0 30 0 0 30 0 0 30 0 0 30 0 0 30 0 0 30 0 0 30 0 0 30 0 0 30 0 0 30 0 0 30 0 0 30 0 0 30 0 0 30 0 0 30 0 0 30 0 0 30 0 0 30 0 0 30 0 0 30 0 0 30 0 0 30 0 0 30 0 0 30 0 0 30 0 0 30 0 0 30 0 0 30 0 0 30 0 0 30 0 0 30 0 0 30 0 0 30 0 0 30 0 0 30 0 0 30 0 0 30 0 0 30 0 0 30 0 0 30 0 0 30 0 0 30 0 0 30 0 0 30 0 0 30 0 0 30 0 0 30 0 0 30 0 0 30 0 0 30 0 0 30 0 0 30 0 0 30 0 0 30 0 0 30 0 0 30 
0 0 30 0 0 30 0 0 30 0 0 30 0 0 30 0 0 30 0 0 30 0 0 30 0 0 30 0 0 30 0 0 30 0 0 30 0 0 30 0 0 30 0 0 30 0 0 30 0 0 30 0 0 30 0 0 30 0 0 30 0 0 30 0 0 30 0 0 30 0 0 30 0 0 30 0 0 30 0 0 30 0 0 30 0 0 30 0 0 30 0 0 30 0 0 30 0 0 30 0 0 30 0 0 30 0 0 30 0 0 30 0 0 30 0 0 30 0 0 30 0 0 30 0 0 30 0 0 30 0 0 30 0 0 30 0 0 30 0 0 30 0 0 30 0 0 30 0 0 30 0 0 30 0 0 30 0 0 30 0 0 30 0 0 30 0 0 30 0 0 30 0 0 30 0 0 30 0 0 30 0 0 30 0 0 30 0 0 30 0 0 30 0 0 30 0 0 30 0 0 30 0 0 30 0 0 30 0 0 30 0 0 30 0 0 30 0 0 30 0 0 30 0 0 30 0 0 30 0 0 30 0 0 30 0 0 30 0 0 30 0 0 30 0 0 30 0 0 30 0 0 30 0 0 30 0 0 30 0 0 30 0 0 30 0 0 30 0 0 30 0 0 30 0 0 30 0 0 30 0 0 30 0 0 30 0 0 30 0 0 30 0 0 30 0 0 30 0 0 30 0 0 30 0 0 30 0 0 30 0 0 30 0 0 30 0 0 30 0 0 30 0 0 30 0 0 30 0 0 30 0 0 30 0 0 30 0 0 30 0 0 30 0 0 30 0 0 30 0 0 30 0 0 30 0 0 30 0 0 30 0 0 30 0 0 30 0 0 30 0 0 30 0 0 30 0 0 30 0 0 30 0 0 30 0 0 30 0 0 30 0 0 30 0 0 30 0 0 30 0 0 30 0 0 30 0 0 30 0 0 30 0 0 30 0 0 30 0 0 30 0 0 30 0 0 30 0 0 30 0 0 30 0 0 30 0 0 30 0 0 30 0 0 30 0 0 30 0 0 30 0 0 30 0 0 30 0 0 30 0 0 30 0 0 30 0 0 30 0 0 30 0 0 30 0 0 30 0 0 30 0 0 30 0 0 30 0 0 30 0 0 30 0 0 30 0 0 30 0 0 30 0 0 30 0 0 30 0 0 30 0 0 30 0 0 30 0 0 30 0 0 30 0 0 30 0 0 30 0 0 30 0 0 30 0 0 30 0 0 30 0 0 30 0 0 30 0 0 30 0 0 30 0 0 30 0 0 30 0 0 30 0 0 30 0 0 30 0 0 30 0 0 30 0 0 30 0 0 30 0 0 30 0 0 30 0 0 30 0 0 30 0 0 30 0 0 30 0 0 30 0 0 30 0 0 30 0 0 30 0 0 30 0 0 30 0 0 30 0 0 30 0 0 30 0 0 30 0 0 30 0 0 30 0 0 30 0 0 30 0 0 30 0 0 30 0 0 30 0 0 30 0 0 30 0 0 30 0 0 30 0 0 30 0 0 30 0 0 30 0 0 30 0 0 30 0 0 30 0 0 30 0 0 30 0 0 30 0 0 30 0 0 30 0 0 30 0 0 30 0 0 30 0 0 30 0 0 30 0 0 30 0 0 30 0 0 30 0 0 30 0 0 30 0 0 30 0 0 30 0 0 30 0 0 30 0 0 30 0 0 30 0 0 30 0 0 30 0 0 30 0 0 30 0 0 30 0 0 30 0 0 30 0 0 30 0 0 30 0 0 30 0 0 30 0 0 30 0 0 30 0 0 30 0 0 30 0 0 30 0 0 30 0 0 30 0 0 30 0 0 30 0 0 30 0 0 30 0 0 30 0 0 30 0 0 30 0 0 30 0 0 30 0 0 30 0 0 30 0 0 30 0 0 30 0 0 30 0 0 30 0 0 30 0 0 30 0 0 30 0 0 30 0 0 30 0 0 30 0 0 30 0 0 30 0 0 30 0 0 30 0 0 30 0 0 30 0 0 30 0 0 30 0 0 30 0 0 30 0 0 30 0 0 30 0 0 30 0 0 30 
0 0 30 0 0 30 0 0 30 0 0 30 0 0 30 0 0 30 0 0 30 0 0 30 0 0 30 0 0 30 0 0 30 0 0 30 0 0 30 0 0 30 0 0 30 0 0 30 0 0 30 0 0 30 0 0 30 0 0 30 0 0 30 0 0 30 0 0 30 0 0 30 0 0 30 0 0 30 0 0 30 0 0 30 0 0 30 0 0 30 0 0 30 0 0 30 0 0 30 0 0 30 0 0 30 0 0 30 0 0 30 0 0 30 0 0 30 0 0 30 0 0 30 0 0 30 0 0 30 0 0 30 0 0 30 0 0 30 0 0 30 0 0 30 0 0 30 0 0 30 0 0 30 0 0 30 0 0 30 0 0 30 0 0 30 0 0 30 0 0 30 0 0 30 0 0 30 0 0 30 0 0 30 0 0 30 0 0 30 0 0 30 0 0 30 0 0 30 0 0 30 0 0 30 0 0 30 0 0 30 0 0 30 0 0 30 0 0 30 0 0 30 0 0 30 0 0 30 0 0 30 0 0 30 0 0 30 0 0 30 0 0 30 0 0 30 0 0 30 0 0 30 0 0 30 0 0 30 0 0 30 0 0 30 0 0 30 0 0 30 0 0 30 0 0 30 0 0 30 0 0 30 0 0 30 0 0 30 0 0 30 0 0 30 0 0 30 0 0 30 0 0 30 0 0 30 0 0 30 0 0 30 0 0 30 0 0 30 0 0 30 0 0 30 0 0 30 0 0 30 0 0 30 0 0 30 0 0 30 0 0 30 0 0 30 0 0 30 0 0 30 0 0 30 0 0 30 0 0 30 0 0 30 0 0 30 0 0 30 0 0 30 0 0 30 0 0 30 0 0 30 0 0 30 0 0 30 0 0 30 0 0 30 0 0 30 0 0 30 0 0 30 0 0 30 0 0 30 0 0 30 0 0 30 0 0 30 0 0 30 0 0 30 0 0 30 0 0 30 0 0 30 0 0 30 0 0 30 0 0 30 0 0 30 0 0 30 0 0 30 0 0 30 0 0 30 0 0 30 0 0 30 0 0 30 0 0 30 0 0 30 0 0 30 0 0 30 0 0 30 0 0 30 0 0 30 0 0 30 0 0 30 0 0 30 0 0 30 0 0 30 0 0 30 0 0 30 0 0 30 0 0 30 0 0 30 0 0 30 0 0 30 0 0 30 0 0 30 0 0 30 0 0 30 0 0 30 0 0 30 0 0 30 0 0 30 0 0 30 0 0 30 0 0 30 0 0 30 0 0 30 0 0 30 0 0 30 0 0 30 0 0 30 0 0 30 0 0 30 0 0 30 0 0 30 0 0 30 0 0 30 0 0 30 0 0 30 0 0 30 0 0 30 0 0 30 0 0 30 0 0 30 0 0 30 0 0 30 0 0 30 0 0 30 0 0 30 0 0 30 0 0 30 0 0 30 0 0 30 0 0 30 0 0 30 0 0 30 0 0 30 0 0 30 0 0 30 0 0 30 0 0 30 0 0 30 0 0 30 0 0 30 0 0 30 0 0 30 0 0 30 0 0 30 0 0 30 0 0 30 0 0 30 0 0 30 0 0 30 0 0 30 0 0 30 0 0 30 0 0 30 0 0 30 0 0 30 0 0 30 0 0 30 0 0 30 0 0 30 0 0 30 0 0 30 0 0 30 0 0 30 0 0 30 0 0 30 0 0 30 0 0 30 0 0 30 0 0 30 0 0 30 0 0 30 0 0 30 0 0 30 0 0 30 0 0 30 0 0 30 0 0 30 0 0 30 0 0 30 0 0 30 0 0 30 0 0 30 0 0 30 0 0 30 0 0 30 0 0 30 0 0 30 0 0 30 0 0 30 0 0 30 0 0 30 0 0 30 0 0 30 0 0 30 0 0 30 0 0 30 0 0 30 0 0 30 0 0 30 0 0 30 0 0 30 0 0 30 0 0 30 0 0 30 0 0 30 0 0 30 0 0 30 0 0 30 0 0 30 0 0 30 0 0 30 0 0 30 0 0 30 0 0 30 0 0 30 0 0 30 
0 0 30 0 0 30 0 0 30 0 0 30 0 0 30 0 0 30 0 0 30 0 0 30 0 0 30 0 0 30 0 0 30 0 0 30 0 0 30 0 0 30 0 0 30 0 0 30 0 0 30 0 0 30 0 0 30 0 0 30 0 0 30 0 0 30 0 0 30 0 0 30 0 0 30 0 0 30 0 0 30 0 0 30 0 0 30 0 0 30 0 0 30 0 0 30 0 0 30 0 0 30 0 0 30 0 0 30 0 0 30 0 0 30 0 0 30 0 0 30 0 0 30 0 0 30 0 0 30 0 0 30 0 0 30 0 0 30 0 0 30 0 0 30 0 0 30 0 0 30 0 0 30 0 0 30 0 0 30 0 0 30 0 0 30 0 0 30 0 0 30 0 0 30 0 0 30 0 0 30 0 0 30 0 0 30 0 0 30 0 0 30 0 0 30 0 0 30 0 0 30 0 0 30 0 0 30 0 0 30 0 0 30 0 0 30 0 0 30 0 0 30 0 0 30 0 0 30 0 0 30 0 0 30 0 0 30 0 0 30 0 0 30 0 0 30 0 0 30 0 0 30 0 0 30 0 0 30 0 0 30 0 0 30 0 0 30 0 0 30 0 0 30 0 0 30 0 0 30 0 0 30 0 0 30 0 0 30 0 0 30 0 0 30 0 0 30 0 0 30 0 0 30 0 0 30 0 0 30 0 0 30 0 0 30 0 0 30 0 0 30 0 0 30 0 0 30 0 0 30 0 0 30 0 0 30 0 0 30 0 0 30 0 0 30 0 0 30 0 0 30 0 0 30 0 0 30 0 0 30 0 0 30 0 0 30 0 0 30 0 0 30 0 0 30 0 0 30 0 0 30 0 0 30 0 0 30 0 0 30 0 0 30 0 0 30 0 0 30 0 0 30 0 0 30 0 0 30 0 0 30 0 0 30 0 0 30 0 0 30 0 0 30 0 0 30 0 0 30 0 0 30 0 0 30 0 0 30 0 0 30 0 0 30 0 0 30 0 0 30 0 0 30 0 0 30 0 0 30 0 0 30 0 0 30 0 0 30 0 0 30 0 0 30 0 0 30 0 0 30 0 0 30 0 0 30 0 0 30 0 0 30 0 0 30 0 0 30 0 0 30 0 0 30 0 0 30 0 0 30 0 0 30 0 0 30 0 0 30 0 0 30 0 0 30 0 0 30 0 0 30 0 0 30 0 0 30 0 0 30 0 0 30 0 0 30 0 0 30 0 0 30 0 0 30 0 0 30 0 0 30 0 0 30 0 0 30 0 0 30 0 0 30 0 0 30 0 0 30 0 0 30 0 0 30 0 0 30 0 0 30 0 0 30 0 0 30 0 0 30 0 0 30 0 0 30 0 0 30 0 0 30 0 0 30 0 0 30 0 0 30 0 0 30 0 0 30 0 0 30 0 0 30 0 0 30 0 0 30 0 0 30 0 0 30 0 0 30 0 0 30 0 0 30 0 0 30 0 0 30 0 0 30 0 0 30 0 0 30 0 0 30 0 0 30 0 0 30 0 0 30 0 0 30 0 0 30 0 0 30 0 0 30 0 0 30 0 0 30 0 0 30 0 0 30 0 0 30 0 0 30 0 0 30 0 0 30 0 0 30 0 0 30 0 0 30 0 0 30 0 0 30 0 0 30 0 0 30 0 0 30 0 0 30 0 0 30 0 0 30 0 0 30 0 0 30 0 0 30 0 0 30 0 0 30 0 0 30 0 0 30 0 0 30 0 0 30 0 0 30 0 0 30 0 0 30 0 0 30 0 0 30 0 0 30 0 0 30 0 0 30 0 0 30 0 0 30 0 0 30 0 0 30 0 0 30 0 0 30 0 0 30 0 0 30 0 0 30 0 0 30 0 0 30 0 0 30 0 0 30 0 0 30 0 0 30 0 0 30 0 0 30 0 0 30 0 0 30 0 0 30 0 0 30 0 0 30 0 0 30 0 0 30 0 0 30 0 0 30 0 0 30 0 0 30 0 0 30 0 0 30 0 0 30 0 0 30 0 0 30 
0 0 30 0 0 30 0 0 30 0 0 30 0 0 30 0 0 30 0 0 30 0 0 30 0 0 30 0 0 30 0 0 30 0 0 30 0 0 30 0 0 30 0 0 30 0 0 30 0 0 30 0 0 30 0 0 30 0 0 30 0 0 30 0 0 30 0 0 30 0 0 30 0 0 30 0 0 30 0 0 30 0 0 30 0 0 30 0 0 30 0 0 30 0 0 30 0 0 30 0 0 30 0 0 30 0 0 30 0 0 30 0 0 30 0 0 30 0 0 30 0 0 30 0 0 30 0 0 30 0 0 30 0 0 30 0 0 30 0 0 30 0 0 30 0 0 30 0 0 30 0 0 30 0 0 30 0 0 30 0 0 30 0 0 30 0 0 30 0 0 30 0 0 30 0 0 30 0 0 30 0 0 30 0 0 30 0 0 30 0 0 30 0 0 30 0 0 30 0 0 30 0 0 30 0 0 30 0 0 30 0 0 30 0 0 30 0 0 30 0 0 30 0 0 30 0 0 30 0 0 30 0 0 30 0 0 30 0 0 30 0 0 30 0 0 30 0 0 30 0 0 30 0 0 30 0 0 30 0 0 30 0 0 30 0 0 30 0 0 30 0 0 30 0 0 30 0 0 30 0 0 30 0 0 30 0 0 30 0 0 30 0 0 30 0 0 30 0 0 30 0 0 30 0 0 30 0 0 30 0 0 30 0 0 30 0 0 30 0 0 30 0 0 30 0 0 30 0 0 30 0 0 30 0 0 30 0 0 30 0 0 30 0 0 30 0 0 30 0 0 30 0 0 30 0 0 30 0 0 30 0 0 30 0 0 30 0 0 30 0 0 30 0 0 30 0 0 30 0 0 30 0 0 30 0 0 30 0 0 30 0 0 30 0 0 30 0 0 30 0 0 30 0 0 30 0 0 30 0 0 30 0 0 30 0 0 30 0 0 30 0 0 30 0 0 30 0 0 30 0 0 30 0 0 30 0 0 30 0 0 30 0 0 30 0 0 30 0 0 30 0 0 30 0 0 30 0 0 30 0 0 30 0 0 30 0 0 30 0 0 30 0 0 30 0 0 30 0 0 30 0 0 30 0 0 30 0 0 30 0 0 30 0 0 30 0 0 30 0 0 30 0 0 30 0 0 30 0 0 30 0 0 30 0 0 30 0 0 30 0 0 30 0 0 30 0 0 30 0 0 30 0 0 30 0 0 30 0 0 30 0 0 30 0 0 30 0 0 30 0 0 30 0 0 30 0 0 30 0 0 30 0 0 30 0 0 30 0 0 30 0 0 30 0 0 30 0 0 30 0 0 30 0 0 30 0 0 30 0 0 30 0 0 30 0 0 30 0 0 30 0 0 30 0 0 30 0 0 30 0 0 30 0 0 30 0 0 30 0 0 30 0 0 30 0 0 30 0 0 30 0 0 30 0 0 30 0 0 30 0 0 30 0 0 30 0 0 30 0 0 30 0 0 30 0 0 30 0 0 30 0 0 30 0 0 30 0 0 30 0 0 30 0 0 30 0 0 30 0 0 30 0 0 30 0 0 30 0 0 30 0 0 30 0 0 30 0 0 30 0 0 30 0 0 30 0 0 30 0 0 30 0 0 30 0 0 30 0 0 30 0 0 30 0 0 30 0 0 30 0 0 30 0 0 30 0 0 30 0 0 30 0 0 30 0 0 30 0 0 30 0 0 30 0 0 30 0 0 30 0 0 30 0 0 30 0 0 30 0 0 30 0 0 30 0 0 30 0 0 30 0 0 30 0 0 30 0 0 30 0 0 30 0 0 30 0 0 30 0 0 30 0 0 30 0 0 30 0 0 30 0 0 30 0 0 30 0 0 30 0 0 30 0 0 30 0 0 30 0 0 30 0 0 30 0 0 30 0 0 30 0 0 30 0 0 30 0 0 30 0 0 30 0 0 30 0 0 30 0 0 30 0 0 30 0 0 30 0 0 30 0 0 30 0 0 30 0 0 30 0 0 30 0 0 30 0 0 30 0 0 30 0 0 30 0 0 30 0 0 30 
0 0 30 0 0 30 0 0 30 0 0 30 0 0 30 0 0 30 0 0 30 0 0 30 0 0 30 0 0 30 0 0 30 0 0 30 0 0 30 0 0 30 0 0 30 0 0 30 0 0 30 0 0 30 0 0 30 0 0 30 0 0 30 0 0 30 0 0 30 0 0 30 0 0 30 0 0 30 0 0 30 0 0 30 0 0 30 0 0 30 0 0 30 0 0 30 0 0 30 0 0 30 0 0 30 0 0 30 0 0 30 0 0 30 0 0 30 0 0 30 0 0 30 0 0 30 0 0 30 0 0 30 0 0 30 0 0 30 0 0 30 0 0 30 0 0 30 0 0 30 0 0 30 0 0 30 0 0 30 0 0 30 0 0 30 0 0 30 0 0 30 0 0 30 0 0 30 0 0 30 0 0 30 0 0 30 0 0 30 0 0 30 0 0 30 0 0 30 0 0 30 0 0 30 0 0 30 0 0 30 0 0 30 0 0 30 0 0 30 0 0 30 0 0 30 0 0 30 0 0 30 0 0 30 0 0 30 0 0 30 0 0 30 0 0 30 0 0 30 0 0 30 0 0 30 0 0 30 0 0 30 0 0 30 0 0 30 0 0 30 0 0 30 0 0 30 0 0 30 0 0 30 0 0 30 0 0 30 0 0 30 0 0 30 0 0 30 0 0 30 0 0 30 0 0 30 0 0 30 0 0 30 0 0 30 0 0 30 0 0 30 0 0 30 0 0 30 0 0 30 0 0 30 0 0 30 0 0 30 0 0 30 0 0 30 0 0 30 0 0 30 0 0 30 0 0 30 0 0 30 0 0 30 0 0 30 0 0 30 0 0 30 0 0 30 0 0 30 0 0 30 0 0 30 0 0 30 0 0 30 0 0 30 0 0 30 0 0 30 0 0 30 0 0 30 0 0 30 0 0 30 0 0 30 0 0 30 0 0 30 0 0 30 0 0 30 0 0 30 0 0 30 0 0 30 0 0 30 0 0 30 0 0 30 0 0 30 0 0 30 0 0 30 0 0 30 0 0 30 0 0 30 0 0 30 0 0 30 0 0 30 0 0 30 0 0 30 0 0 30 0 0 30 0 0 30 0 0 30 0 0 30 0 0 30 0 0 30 0 0 30 0 0 30 0 0 30 0 0 30 0 0 30 0 0 30 0 0 30 0 0 30 0 0 30 0 0 30 0 0 30 0 0 30 0 0 30 0 0 30 0 0 30 0 0 30 0 0 30 0 0 30 0 0 30 0 0 30 0 0 30 0 0 30 0 0 30 0 0 30 0 0 30 0 0 30 0 0 30 0 0 30 0 0 30 0 0 30 0 0 30 0 0 30 0 0 30 0 0 30 0 0 30 0 0 30 0 0 30 0 0 30 0 0 30 0 0 30 0 0 30 0 0 30 0 0 30 0 0 30 0 0 30 0 0 30 0 0 30 0 0 30 0 0 30 0 0 30 0 0 30 0 0 30 0 0 30 0 0 30 0 0 30 0 0 30 0 0 30 0 0 30 0 0 30 0 0 30 0 0 30 0 0 30 0 0 30 0 0 30 0 0 30 0 0 30 0 0 30 0 0 30 0 0 30 0 0 30 0 0 30 0 0 30 0 0 30 0 0 30 0 0 30 0 0 30 0 0 30 0 0 30 0 0 30 0 0 30 0 0 30 0 0 30 0 0 30 0 0 30 0 0 30 0 0 30 0 0 30 0 0 30 0 0 30 0 0 30 0 0 30 0 0 30 0 0 30 0 0 30 0 0 30 0 0 30 0 0 30 0 0 30 0 0 30 0 0 30 0 0 30 0 0 30 0 0 30 0 0 30 0 0 30 0 0 30 0 0 30 0 0 30 0 0 30 0 0 30 0 0 30 0 0 30 0 0 30 0 0 30 0 0 30 0 0 30 0 0 30 0 0 30 0 0 30 0 0 30 0 0 30 0 0 30 0 0 30 0 0 30 0 0 30 0 0 30 0 0 30 0 0 30 0 0 30 0 0 30 0 0 30 0 0 30 0 0 30 0 0 30 
0 0 30 0 0 30 0 0 30 0 0 30 0 0 30 0 0 30 0 0 30 0 0 30 0 0 30 0 0 30 0 0 30 0 0 30 0 0 30 0 0 30 0 0 30 0 0 30 0 0 30 0 0 30 0 0 30 0 0 30 0 0 30 0 0 30 0 0 30 0 0 30 0 0 30 0 0 30 0 0 30 0 0 30 0 0 30 0 0 30 0 0 30 0 0 30 0 0 30 0 0 30 0 0 30 0 0 30 0 0 30 0 0 30 0 0 30 0 0 30 0 0 30 0 0 30 0 0 30 0 0 30 0 0 30 0 0 30 0 0 30 0 0 30 0 0 30 0 0 30 0 0 30 0 0 30 0 0 30 0 0 30 0 0 30 0 0 30 0 0 30 0 0 30 0 0 30 0 0 30 0 0 30 0 0 30 0 0 30 0 0 30 0 0 30 0 0 30 0 0 30 0 0 30 0 0 30 0 0 30 0 0 30 0 0 30 0 0 30 0 0 30 0 0 30 0 0 30 0 0 30 0 0 30 0 0 30 0 0 30 0 0 30 0 0 30 0 0 30 0 0 30 0 0 30 0 0 30 0 0 30 0 0 30 0 0 30 0 0 30 0 0 30 0 0 30 0 0 30 0 0 30 0 0 30 0 0 30 0 0 30 0 0 30 0 0 30 0 0 30 0 0 30 0 0 30 0 0 30 0 0 30 0 0 30 0 0 30 0 0 30 0 0 30 0 0 30 0 0 30 0 0 30 0 0 30 0 0 30 0 0 30 0 0 30 0 0 30 0 0 30 0 0 30 0 0 30 0 0 30 0 0 30 0 0 30 0 0 30 0 0 30 0 0 30 0 0 30 0 0 30 0 0 30 0 0 30 0 0 30 0 0 30 0 0 30 0 0 30 0 0 30 0 0 30 0 0 30 0 0 30 0 0 30 0 0 30 0 0 30 0 0 30 0 0 30 0 0 30 0 0 30 0 0 30 0 0 30 0 0 30 0 0 30 0 0 30 0 0 30 0 0 30 0 0 30 0 0 30 0 0 30 0 0 30 0 0 30 0 0 30 0 0 30 0 0 30 0 0 30 0 0 30 0 0 30 0 0 30 0 0 30 0 0 30 0 0 30 0 0 30 0 0 30 0 0 30 0 0 30 0 0 30 0 0 30 0 0 30 0 0 30 0 0 30 0 0 30 0 0 30 0 0 30 0 0 30 0 0 30 0 0 30 0 0 30 0 0 30 0 0 30 0 0 30 0 0 30 0 0 30 0 0 30 0 0 30 0 0 30 0 0 30 0 0 30 0 0 30 0 0 30 0 0 30 0 0 30 0 0 30 0 0 30 0 0 30 0 0 30 0 0 30 0 0 30 0 0 30 0 0 30 0 0 30 0 0 30 0 0 30 0 0 30 0 0 30 0 0 30 0 0 30 0 0 30 0 0 30 0 0 30 0 0 30 0 0 30 0 0 30 0 0 30 0 0 30 0 0 30 0 0 30 0 0 30 0 0 30 0 0 30 0 0 30 0 0 30 0 0 30 0 0 30 0 0 30 0 0 30 0 0 30 0 0 30 0 0 30 0 0 30 0 0 30 0 0 30 0 0 30 0 0 30 0 0 30 0 0 30 0 0 30 0 0 30 0 0 30 0 0 30 0 0 30 0 0 30 0 0 30 0 0 30 0 0 30 0 0 30 0 0 30 0 0 30 0 0 30 0 0 30 0 0 30 0 0 30 0 0 30 0 0 30 0 0 30 0 0 30 0 0 30 0 0 30 0 0 30 0 0 30 0 0 30 0 0 30 0 0 30 0 0 30 0 0 30 0 0 30 0 0 30 0 0 30 0 0 30 0 0 30 0 0 30 0 0 30 0 0 30 0 0 30 0 0 30 0 0 30 0 0 30 0 0 30 0 0 30 0 0 30 0 0 30 0 0 30 0 0 30 0 0 30 0 0 30 0 0 30 0 0 30 0 0 30 0 0 30 0 0 30 0 0 30 0 0 30 0 0 30 0 0 30 0 0 30 0 0 30 
0 0 30 0 0 30 0 0 30 0 0 30 0 0 30 0 0 30 0 0 30 0 0 30 0 0 30 0 0 30 0 0 30 0 0 30 0 0 30 0 0 30 0 0 30 0 0 30 0 0 30 0 0 30 0 0 30 0 0 30 0 0 30 0 0 30 0 0 30 0 0 30 0 0 30 0 0 30 0 0 30 0 0 30 0 0 30 0 0 30 0 0 30 0 0 30 0 0 30 0 0 30 0 0 30 0 0 30 0 0 30 0 0 30 0 0 30 0 0 30 0 0 30 0 0 30 0 0 30 0 0 30 0 0 30 0 0 30 0 0 30 0 0 30 0 0 30 0 0 30 0 0 30 0 0 30 0 0 30 0 0 30 0 0 30 0 0 30 0 0 30 0 0 30 0 0 30 0 0 30 0 0 30 0 0 30 0 0 30 0 0 30 0 0 30 0 0 30 0 0 30 0 0 30 0 0 30 0 0 30 0 0 30 0 0 30 0 0 30 0 0 30 0 0 30 0 0 30 0 0 30 0 0 30 0 0 30 0 0 30 0 0 30 0 0 30 0 0 30 0 0 30 0 0 30 0 0 30 0 0 30 0 0 30 0 0 30 0 0 30 0 0 30 0 0 30 0 0 30 0 0 30 0 0 30 0 0 30 0 0 30 0 0 30 0 0 30 0 0 30 0 0 30 0 0 30 0 0 30 0 0 30 0 0 30 0 0 30 0 0 30 0 0 30 0 0 30 0 0 30 0 0 30 0 0 30 0 0 30 0 0 30 0 0 30 0 0 30 0 0 30 0 0 30 0 0 30 0 0 30 0 0 30 0 0 30 0 0 30 0 0 30 0 0 30 0 0 30 0 0 30 0 0 30 0 0 30 0 0 30 0 0 30 0 0 30 0 0 30 0 0 30 0 0 30 0 0 30 0 0 30 0 0 30 0 0 30 0 0 30 0 0 30 0 0 30 0 0 30 0 0 30 0 0 30 0 0 30 0 0 30 0 0 30 0 0 30 0 0 30 92 101 95 0 0 30 0 0 30 0 0 30 0 0 30 0 0 30 0 0 30 0 0 30 0 0 30 0 0 30 0 0 30 0 0 30 0 0 30 0 0 30 0 0 30 0 0 30 0 0 30 0 0 30 0 0 30 0 0 30 0 0 30 0 0 30 0 0 30 0 0 30 0 0 30 0 0 30 0 0 30 0 0 30 0 0 30 0 0 30 0 0 30 0 0 30 0 0 30 0 0 30 0 0 30 0 0 30 0 0 30 0 0 30 0 0 30 0 0 30 0 0 30 0 0 30 0 0 30 0 0 30 0 0 30 0 0 30 0 0 30 0 0 30 0 0 30 0 0 30 0 0 30 0 0 30 0 0 30 0 0 30 0 0 30 0 0 30 0 0 30 0 0 30 0 0 30 0 0 30 0 0 30 0 0 30 0 0 30 0 0 30 0 0 30 0 0 30 0 0 30 0 0 30 0 0 30 0 0 30 0 0 30 0 0 30 0 0 30 0 0 30 0 0 30 0 0 30 0 0 30 0 0 30 0 0 30 0 0 30 0 0 30 0 0 30 0 0 30 0 0 30 0 0 30 0 0 30 0 0 30 0 0 30 0 0 30 0 0 30 0 0 30 0 0 30 0 0 30 0 0 30 0 0 30 0 0 30 0 0 30 0 0 30 0 0 30 0 0 30 0 0 30 0 0 30 0 0 30 0 0 30 0 0 30 0 0 30 0 0 30 0 0 30 0 0 30 0 0 30 0 0 30 0 0 30 0 0 30 0 0 30 0 0 30 0 0 30 0 0 30 0 0 30 0 0 30 0 0 30 0 0 30 0 0 30 0 0 30 0 0 30 0 0 30 0 0 30 0 0 30 0 0 30 0 0 30 0 0 30 0 0 30 0 0 30 0 0 30 0 0 30 0 0 30 0 0 30 0 0 30 0 0 30 0 0 30 0 0 30 0 0 30 0 0 30 0 0 30 0 0 30 0 0 30 0 0 30 0 0 30 0 0 30 0 0 30 0 0 30 
0 0 30 0 0 30 0 0 30 0 0 30 0 0 30 0 0 30 0 0 30 0 0 30 0 0 30 0 0 30 0 0 30 0 0 30 0 0 30 0 0 30 0 0 30 0 0 30 0 0 30 0 0 30 0 0 30 0 0 30 0 0 30 0 0 30 0 0 30 0 0 30 0 0 30 0 0 30 0 0 30 0 0 30 0 0 30 0 0 30 0 0 30 0 0 30 0 0 30 0 0 30 0 0 30 0 0 30 0 0 30 0 0 30 0 0 30 0 0 30 0 0 30 0 0 30 0 0 30 0 0 30 0 0 30 0 0 30 0 0 30 0 0 30 0 0 30 0 0 30 0 0 30 0 0 30 0 0 30 0 0 30 0 0 30 0 0 30 0 0 30 0 0 30 0 0 30 0 0 30 0 0 30 0 0 30 0 0 30 0 0 30 0 0 30 0 0 30 0 0 30 0 0 30 0 0 30 0 0 30 0 0 30 0 0 30 0 0 30 0 0 30 0 0 30 0 0 30 0 0 30 0 0 30 0 0 30 0 0 30 0 0 30 0 0 30 0 0 30 0 0 30 0 0 30 0 0 30 0 0 30 0 0 30 0 0 30 0 0 30 0 0 30 0 0 30 0 0 30 0 0 30 0 0 30 0 0 30 0 0 30 0 0 30 0 0 30 0 0 30 0 0 30 0 0 30 0 0 30 0 0 30 0 0 30 0 0 30 0 0 30 0 0 30 0 0 30 0 0 30 0 0 30 0 0 30 0 0 30 0 0 30 0 0 30 0 0 30 0 0 30 0 0 30 0 0 30 0 0 30 0 0 30 0 0 30 0 0 30 0 0 30 0 0 30 0 0 30 0 0 30 0 0 30 0 0 30 0 0 30 0 0 30 0 0 30 0 0 30 0 0 30 0 0 30 0 0 30 0 0 30 0 0 30 0 0 30 0 0 30 0 0 30 0 0 30 0 0 30 0 0 30 0 0 30 0 0 30 0 0 30 0 0 30 86 5 5 87 5 5 91 101 95 7 119 46 7 119 46 0 0 30 0 0 30 0 0 30 0 0 30 0 0 30 0 0 30 0 0 30 0 0 30 0 0 30 0 0 30 0 0 30 0 0 30 0 0 30 0 0 30 0 0 30 0 0 30 0 0 30 0 0 30 0 0 30 0 0 30 0 0 30 0 0 30 0 0 30 0 0 30 0 0 30 0 0 30 0 0 30 0 0 30 0 0 30 0 0 30 0 0 30 0 0 30 0 0 30 0 0 30 0 0 30 0 0 30 0 0 30 0 0 30 0 0 30 0 0 30 0 0 30 0 0 30 0 0 30 0 0 30 0 0 30 0 0 30 0 0 30 0 0 30 0 0 30 0 0 30 0 0 30 0 0 30 0 0 30 0 0 30 0 0 30 0 0 30 0 0 30 0 0 30 0 0 30 0 0 30 0 0 30 0 0 30 0 0 30 0 0 30 0 0 30 0 0 30 0 0 30 0 0 30 0 0 30 0 0 30 0 0 30 0 0 30 0 0 30 0 0 30 0 0 30 0 0 30 0 0 30 0 0 30 0 0 30 0 0 30 0 0 30 0 0 30 0 0 30 0 0 30 0 0 30 0 0 30 0 0 30 0 0 30 0 0 30 0 0 30 0 0 30 0 0 30 0 0 30 0 0 30 0 0 30 0 0 30 0 0 30 0 0 30 0 0 30 0 0 30 0 0 30 0 0 30 0 0 30 0 0 30 0 0 30 0 0 30 0 0 30 0 0 30 0 0 30 0 0 30 0 0 30 0 0 30 0 0 30 0 0 30 0 0 30 0 0 30 0 0 30 0 0 30 0 0 30 0 0 30 0 0 30 0 0 30 0 0 30 0 0 30 0 0 30 0 0 30 0 0 30 0 0 30 0 0 30 0 0 30 0 0 30 0 0 30 0 0 30 0 0 30 0 0 30 0 0 30 0 0 30 0 0 30 0 0 30 0 0 30 0 0 30 0 0 30 0 0 30 0 0 30 0 0 30 0 0 30 0 0 30 
0 0 30 0 0 30 0 0 30 0 0 30 0 0 30 0 0 30 0 0 30 0 0 30 0 0 30 0 0 30 0 0 30 0 0 30 0 0 30 0 0 30 0 0 30 0 0 30 0 0 30 0 0 30 0 0 30 0 0 30 0 0 30 0 0 30 0 0 30 0 0 30 0 0 30 0 0 30 0 0 30 0 0 30 0 0 30 0 0 30 0 0 30 0 0 30 0 0 30 0 0 30 0 0 30 0 0 30 0 0 30 0 0 30 0 0 30 0 0 30 0 0 30 0 0 30 0 0 30 0 0 30 0 0 30 0 0 30 0 0 30 0 0 30 0 0 30 0 0 30 0 0 30 0 0 30 0 0 30 0 0 30 0 0 30 0 0 30 0 0 30 0 0 30 0 0 30 0 0 30 0 0 30 0 0 30 0 0 30 0 0 30 0 0 30 0 0 30 0 0 30 0 0 30 0 0 30 0 0 30 0 0 30 0 0 30 0 0 30 0 0 30 0 0 30 0 0 30 0 0 30 0 0 30 0 0 30 0 0 30 0 0 30 0 0 30 0 0 30 0 0 30 0 0 30 0 0 30 0 0 30 0 0 30 0 0 30 0 0 30 0 0 30 0 0 30 0 0 30 0 0 30 0 0 30 0 0 30 0 0 30 0 0 30 0 0 30 0 0 30 0 0 30 0 0 30 0 0 30 0 0 30 0 0 30 0 0 30 0 0 30 0 0 30 0 0 30 0 0 30 0 0 30 0 0 30 0 0 30 0 0 30 0 0 30 0 0 30 0 0 30 0 0 30 0 0 30 0 0 30 0 0 30 0 0 30 0 0 30 0 0 30 0 0 30 0 0 30 0 0 30 0 0 30 0 0 30 0 0 30 0 0 30 0 0 30 0 0 30 0 0 30 0 0 30 0 0 30 0 0 30 0 0 30 0 0 30 0 0 30 0 0 30 0 0 30 0 0 30 0 0 30 0 0 30 85 5 5 86 5 5 87 5 5 116 7 7 116 7 7 67 186 108 117 226 155 116 225 154 7 120 47 7 120 47 7 119 46 0 0 30 0 0 30 0 0 30 0 0 30 0 0 30 0 0 30 0 0 30 0 0 30 0 0 30 0 0 30 0 0 30 0 0 30 0 0 30 0 0 30 0 0 30 0 0 30 0 0 30 0 0 30 0 0 30 0 0 30 0 0 30 0 0 30 0 0 30 0 0 30 0 0 30 0 0 30 0 0 30 0 0 30 0 0 30 0 0 30 0 0 30 0 0 30 0 0 30 0 0 30 0 0 30 0 0 30 0 0 30 0 0 30 0 0 30 0 0 30 0 0 30 0 0 30 0 0 30 0 0 30 0 0 30 0 0 30 0 0 30 0 0 30 0 0 30 0 0 30 0 0 30 0 0 30 0 0 30 0 0 30 0 0 30 0 0 30 0 0 30 0 0 30 0 0 30 0 0 30 0 0 30 0 0 30 0 0 30 0 0 30 0 0 30 0 0 30 0 0 30 0 0 30 0 0 30 0 0 30 0 0 30 0 0 30 0 0 30 0 0 30 0 0 30 0 0 30 0 0 30 0 0 30 0 0 30 0 0 30 0 0 30 0 0 30 0 0 30 0 0 30 0 0 30 0 0 30 0 0 30 0 0 30 0 0 30 0 0 30 0 0 30 0 0 30 0 0 30 0 0 30 0 0 30 0 0 30 0 0 30 0 0 30 0 0 30 0 0 30 0 0 30 0 0 30 0 0 30 0 0 30 0 0 30 0 0 30 0 0 30 0 0 30 0 0 30 0 0 30 0 0 30 0 0 30 0 0 30 0 0 30 0 0 30 0 0 30 0 0 30 0 0 30 0 0 30 0 0 30 0 0 30 0 0 30 0 0 30 0 0 30 0 0 30 0 0 30 0 0 30 0 0 30 0 0 30 0 0 30 0 0 30 0 0 30 0 0 30 0 0 30 0 0 30 0 0 30 0 0 30 0 0 30 0 0 30 0 0 30 0 0 30 0 0 30 0 0 30 0 0 30 
0 0 30 0 0 30 0 0 30 0 0 30 0 0 30 0 0 30 0 0 30 0 0 30 0 0 30 0 0 30 0 0 30 0 0 30 0 0 30 0 0 30 0 0 30 0 0 30 0 0 30 0 0 30 0 0 30 0 0 30 0 0 30 0 0 30 0 0 30 0 0 30 0 0 30 0 0 30 0 0 30 0 0 30 0 0 30 0 0 30 0 0 30 0 0 30 0 0 30 0 0 30 0 0 30 0 0 30 0 0 30 0 0 30 0 0 30 0 0 30 0 0 30 0 0 30 0 0 30 0 0 30 0 0 30 0 0 30 0 0 30 0 0 30 0 0 30 0 0 30 0 0 30 0 0 30 0 0 30 0 0 30 0 0 30 0 0 30 0 0 30 0 0 30 0 0 30 0 0 30 0 0 30 0 0 30 0 0 30 0 0 30 0 0 30 0 0 30 0 0 30 0 0 30 0 0 30 0 0 30 0 0 30 0 0 30 0 0 30 0 0 30 0 0 30 0 0 30 0 0 30 0 0 30 0 0 30 0 0 30 0 0 30 0 0 30 0 0 30 0 0 30 0 0 30 0 0 30 0 0 30 0 0 30 0 0 30 0 0 30 0 0 30 0 0 30 0 0 30 0 0 30 0 0 30 0 0 30 0 0 30 0 0 30 0 0 30 0 0 30 0 0 30 0 0 30 0 0 30 0 0 30 0 0 30 0 0 30 0 0 30 0 0 30 0 0 30 0 0 30 0 0 30 0 0 30 0 0 30 0 0 30 0 0 30 0 0 30 0 0 30 0 0 30 0 0 30 0 0 30 0 0 30 0 0 30 0 0 30 0 0 30 0 0 30 0 0 30 0 0 30 0 0 30 0 0 30 0 0 30 0 0 30 0 0 30 0 0 30 0 0 30 0 0 30 0 0 30 0 0 30 0 0 30 0 0 30 0 0 30 0 0 30 0 0 30 0 0 30 84 5 5 85 5 5 115 7 7 115 7 7 116 7 7 116 7 7 67 186 108 67 186 109 67 186 109 117 225 155 116 225 154 115 224 153 114 223 152 7 121 47 7 120 47 0 0 30 0 0 30 0 0 30 0 0 30 0 0 30 0 0 30 0 0 30 0 0 30 0 0 30 0 0 30 0 0 30 0 0 30 0 0 30 0 0 30 0 0 30 0 0 30 0 0 30 0 0 30 0 0 30 0 0 30 0 0 30 0 0 30 0 0 30 0 0 30 0 0 30 0 0 30 0 0 30 0 0 30 0 0 30 0 0 30 0 0 30 0 0 30 0 0 30 0 0 30 0 0 30 0 0 30 0 0 30 0 0 30 0 0 30 0 0 30 0 0 30 0 0 30 0 0 30 0 0 30 0 0 30 0 0 30 0 0 30 0 0 30 0 0 30 0 0 30 0 0 30 0 0 30 0 0 30 0 0 30 0 0 30 0 0 30 0 0 30 0 0 30 0 0 30 0 0 30 0 0 30 0 0 30 0 0 30 0 0 30 0 0 30 0 0 30 0 0 30 0 0 30 0 0 30 0 0 30 0 0 30 0 0 30 0 0 30 0 0 30 0 0 30 0 0 30 0 0 30 0 0 30 0 0 30 0 0 30 0 0 30 0 0 30 0 0 30 0 0 30 0 0 30 0 0 30 0 0 30 0 0 30 0 0 30 0 0 30 0 0 30 0 0 30 0 0 30 0 0 30 0 0 30 0 0 30 0 0 30 0 0 30 0 0 30 0 0 30 0 0 30 0 0 30 0 0 30 0 0 30 0 0 30 0 0 30 0 0 30 0 0 30 0 0 30 0 0 30 0 0 30 0 0 30 0 0 30 0 0 30 0 0 30 0 0 30 0 0 30 0 0 30 0 0 30 0 0 30 0 0 30 0 0 30 0 0 30 0 0 30 0 0 30 0 0 30 0 0 30 0 0 30 0 0 30 0 0 30 0 0 30 0 0 30 0 0 30 0 0 30 0 0 30 0 0 30 0 0 30 0 0 30 0 0 30 0 0 30 0 0 30 0 0 30 
0 0 30 0 0 30 0 0 30 0 0 30 0 0 30 0 0 30 0 0 30 0 0 30 0 0 30 0 0 30 0 0 30 0 0 30 0 0 30 0 0 30 0 0 30 0 0 30 0 0 30 0 0 30 0 0 30 0 0 30 0 0 30 0 0 30 0 0 30 0 0 30 0 0 30 0 0 30 0 0 30 0 0 30 0 0 30 0 0 30 0 0 30 0 0 30 0 0 30 0 0 30 0 0 30 0 0 30 0 0 30 0 0 30 0 0 30 0 0 30 0 0 30 0 0 30 0 0 30 0 0 30 0 0 30 0 0 30 0 0 30 0 0 30 0 0 30 0 0 30 0 0 30 0 0 30 0 0 30 0 0 30 0 0 30 0 0 30 0 0 30 0 0 30 0 0 30 0 0 30 0 0 30 0 0 30 0 0 30 0 0 30 0 0 30 0 0 30 0 0 30 0 0 30 0 0 30 0 0 30 0 0 30 0 0 30 0 0 30 0 0 30 0 0 30 0 0 30 0 0 30 0 0 30 0 0 30 0 0 30 0 0 30 0 0 30 0 0 30 0 0 30 0 0 30 0 0 30 0 0 30 0 0 30 0 0 30 0 0 30 0 0 30 0 0 30 0 0 30 0 0 30 0 0 30 0 0 30 0 0 30 0 0 30 0 0 30 0 0 30 0 0 30 0 0 30 0 0 30 0 0 30 0 0 30 0 0 30 0 0 30 0 0 30 0 0 30 0 0 30 0 0 30 0 0 30 0 0 30 0 0 30 0 0 30 0 0 30 0 0 30 0 0 30 0 0 30 0 0 30 0 0 30 0 0 30 0 0 30 0 0 30 0 0 30 0 0 30 0 0 30 0 0 30 0 0 30 0 0 30 0 0 30 0 0 30 0 0 30 0 0 30 0 0 30 0 0 30 0 0 30 0 0 30 0 0 30 0 0 30 0 0 30 84 5 5 115 7 7 115 7 7 115 7 7 116 7 7 116 7 7 116 7 7 116 7 7 67 186 109 67 186 109 67 187 109 117 225 155 116 225 154 115 224 154 115 224 153 114 223 152 113 222 151 112 222 150 7 121 47 0 0 30 0 0 30 0 0 30 0 0 30 0 0 30 0 0 30 0 0 30 0 0 30 0 0 30 0 0 30 0 0 30 0 0 30 0 0 30 0 0 30 0 0 30 0 0 30 0 0 30 0 0 30 0 0 30 0 0 30 0 0 30 0 0 30 0 0 30 0 0 30 0 0 30 0 0 30 0 0 30 0 0 30 0 0 30 0 0 30 0 0 30 0 0 30 0 0 30 0 0 30 0 0 30 0 0 30 0 0 30 0 0 30 0 0 30 0 0 30 0 0 30 0 0 30 0 0 30 0 0 30 0 0 30 0 0 30 0 0 30 0 0 30 0 0 30 0 0 30 0 0 30 0 0 30 0 0 30 0 0 30 0 0 30 0 0 30 0 0 30 0 0 30 0 0 30 0 0 30 0 0 30 0 0 30 0 0 30 0 0 30 0 0 30 0 0 30 0 0 30 0 0 30 0 0 30 0 0 30 0 0 30 0 0 30 0 0 30 0 0 30 0 0 30 0 0 30 0 0 30 0 0 30 0 0 30 0 0 30 0 0 30 0 0 30 0 0 30 0 0 30 0 0 30 0 0 30 0 0 30 0 0 30 0 0 30 0 0 30 0 0 30 0 0 30 0 0 30 0 0 30 0 0 30 0 0 30 0 0 30 0 0 30 0 0 30 0 0 30 0 0 30 0 0 30 0 0 30 0 0 30 0 0 30 0 0 30 0 0 30 0 0 30 0 0 30 0 0 30 0 0 30 0 0 30 0 0 30 0 0 30 0 0 30 0 0 30 0 0 30 0 0 30 0 0 30 0 0 30 0 0 30 0 0 30 0 0 30 0 0 30 0 0 30 0 0 30 0 0 30 0 0 30 0 0 30 0 0 30 0 0 30 0 0 30 0 0 30 0 0 30 0 0 30 0 0 30 0 0 30 0 0 30 0 0 30 0 0 30 
0 0 30 0 0 30 0 0 30 0 0 30 0 0 30 0 0 30 0 0 30 0 0 30 0 0 30 0 0 30 0 0 30 0 0 30 0 0 30 0 0 30 0 0 30 0 0 30 0 0 30 0 0 30 0 0 30 0 0 30 0 0 30 0 0 30 0 0 30 0 0 30 0 0 30 0 0 30 0 0 30 0 0 30 0 0 30 0 0 30 0 0 30 0 0 30 0 0 30 0 0 30 0 0 30 0 0 30 0 0 30 0 0 30 0 0 30 0 0 30 0 0 30 0 0 30 0 0 30 0 0 30 0 0 30 0 0 30 0 0 30 0 0 30 0 0 30 0 0 30 0 0 30 0 0 30 0 0 30 0 0 30 0 0 30 0 0 30 0 0 30 0 0 30 0 0 30 0 0 30 0 0 30 0 0 30 0 0 30 0 0 30 0 0 30 0 0 30 0 0 30 0 0 30 0 0 30 0 0 30 0 0 30 0 0 30 0 0 30 0 0 30 0 0 30 0 0 30 0 0 30 0 0 30 0 0 30 0 0 30 0 0 30 0 0 30 0 0 30 0 0 30 0 0 30 0 0 30 0 0 30 0 0 30 0 0 30 0 0 30 0 0 30 0 0 30 0 0 30 0 0 30 0 0 30 0 0 30 0 0 30 0 0 30 0 0 30 0 0 30 0 0 30 0 0 30 0 0 30 0 0 30 0 0 30 0 0 30 0 0 30 0 0 30 0 0 30 0 0 30 0 0 30 0 0 30 0 0 30 0 0 30 0 0 30 0 0 30 0 0 30 0 0 30 0 0 30 0 0 30 0 0 30 0 0 30 0 0 30 0 0 30 0 0 30 0 0 30 0 0 30 0 0 30 0 0 30 0 0 30 0 0 30 0 0 30 0 0 30 0 0 30 0 0 30 0 0 30 0 0 30 0 0 30 82 5 5 115 7 7 115 7 7 115 7 7 115 7 7 116 7 7 116 7 7 116 7 7 116 7 7 116 7 7 67 186 109 67 186 109 67 187 109 68 187 109 68 187 110 117 225 155 116 224 154 115 224 153 114 223 152 113 222 151 112 222 151 111 221 150 110 220 149 109 219 148 7 121 47 0 0 30 0 0 30 0 0 30 0 0 30 0 0 30 0 0 30 0 0 30 0 0 30 0 0 30 0 0 30 0 0 30 0 0 30 0 0 30 0 0 30 0 0 30 0 0 30 0 0 30 0 0 30 0 0 30 0 0 30 0 0 30 0 0 30 0 0 30 0 0 30 0 0 30 0 0 30 0 0 30 0 0 30 0 0 30 0 0 30 0 0 30 0 0 30 0 0 30 0 0 30 0 0 30 0 0 30 0 0 30 0 0 30 0 0 30 0 0 30 0 0 30 0 0 30 0 0 30 0 0 30 0 0 30 0 0 30 0 0 30 0 0 30 0 0 30 0 0 30 0 0 30 0 0 30 0 0 30 0 0 30 0 0 30 0 0 30 0 0 30 0 0 30 0 0 30 0 0 30 0 0 30 0 0 30 0 0 30 0 0 30 0 0 30 0 0 30 0 0 30 0 0 30 0 0 30 0 0 30 0 0 30 0 0 30 0 0 30 0 0 30 0 0 30 0 0 30 0 0 30 0 0 30 0 0 30 0 0 30 0 0 30 0 0 30 0 0 30 0 0 30 0 0 30 0 0 30 0 0 30 0 0 30 0 0 30 0 0 30 0 0 30 0 0 30 0 0 30 0 0 30 0 0 30 0 0 30 0 0 30 0 0 30 0 0 30 0 0 30 0 0 30 0 0 30 0 0 30 0 0 30 0 0 30 0 0 30 0 0 30 0 0 30 0 0 30 0 0 30 0 0 30 0 0 30 0 0 30 0 0 30 0 0 30 0 0 30 0 0 30 0 0 30 0 0 30 0 0 30 0 0 30 0 0 30 0 0 30 0 0 30 0 0 30 0 0 30 0 0 30 0 0 30 0 0 30 0 0 30 0 0 30 0 0 30 0 0 30 0 0 30 0 0 30 0 0 30 0 0 30 
0 0 30 0 0 30 0 0 30 0 0 30 0 0 30 0 0 30 0 0 30 0 0 30 0 0 30 0 0 30 0 0 30 0 0 30 0 0 30 0 0 30 0 0 30 0 0 30 0 0 30 0 0 30 0 0 30 0 0 30 0 0 30 0 0 30 0 0 30 0 0 30 0 0 30 0 0 30 0 0 30 0 0 30 0 0 30 0 0 30 0 0 30 0 0 30 0 0 30 0 0 30 0 0 30 0 0 30 0 0 30 0 0 30 0 0 30 0 0 30 0 0 30 0 0 30 0 0 30 0 0 30 0 0 30 0 0 30 0 0 30 0 0 30 0 0 30 0 0 30 0 0 30 0 0 30 0 0 30 0 0 30 0 0 30 0 0 30 0 0 30 0 0 30 0 0 30 0 0 30 0 0 30 0 0 30 0 0 30 0 0 30 0 0 30 0 0 30 0 0 30 0 0 30 0 0 30 0 0 30 0 0 30 0 0 30 0 0 30 0 0 30 0 0 30 0 0 30 0 0 30 0 0 30 0 0 30 0 0 30 0 0 30 0 0 30 0 0 30 0 0 30 0 0 30 0 0 30 0 0 30 0 0 30 0 0 30 0 0 30 0 0 30 0 0 30 0 0 30 0 0 30 0 0 30 0 0 30 0 0 30 0 0 30 0 0 30 0 0 30 0 0 30 0 0 30 0 0 30 0 0 30 0 0 30 0 0 30 0 0 30 0 0 30 0 0 30 0 0 30 0 0 30 0 0 30 0 0 30 0 0 30 0 0 30 0 0 30 0 0 30 0 0 30 0 0 30 0 0 30 0 0 30 0 0 30 0 0 30 0 0 30 0 0 30 0 0 30 0 0 30 0 0 30 0 0 30 0 0 30 0 0 30 0 0 30 0 0 30 0 0 30 0 0 30 0 0 30 82 5 5 115 7 7 115 7 7 115 7 7 115 7 7 115 7 7 116 7 7 116 7 7 116 7 7 116 7 7 116 7 7 117 7 7 67 186 109 67 187 109 68 187 109 68 187 110 68 188 110 117 225 155 116 224 154 115 224 153 115 223 153 114 222 152 113 222 151 112 221 150 111 220 149 110 220 148 109 219 147 107 218 146 7 122 48 0 0 30 0 0 30 0 0 30 0 0 30 0 0 30 0 0 30 0 0 30 0 0 30 0 0 30 0 0 30 0 0 30 0 0 30 0 0 30 0 0 30 0 0 30 0 0 30 0 0 30 0 0 30 0 0 30 0 0 30 0 0 30 0 0 30 0 0 30 0 0 30 0 0 30 0 0 30 0 0 30 0 0 30 0 0 30 0 0 30 0 0 30 0 0 30 0 0 30 0 0 30 0 0 30 0 0 30 0 0 30 0 0 30 0 0 30 0 0 30 0 0 30 0 0 30 0 0 30 0 0 30 0 0 30 0 0 30 0 0 30 0 0 30 0 0 30 0 0 30 0 0 30 0 0 30 0 0 30 0 0 30 0 0 30 0 0 30 0 0 30 0 0 30 0 0 30 0 0 30 0 0 30 0 0 30 0 0 30 0 0 30 0 0 30 0 0 30 0 0 30 0 0 30 0 0 30 0 0 30 0 0 30 0 0 30 0 0 30 0 0 30 0 0 30 0 0 30 0 0 30 0 0 30 0 0 30 0 0 30 0 0 30 0 0 30 0 0 30 0 0 30 0 0 30 0 0 30 0 0 30 0 0 30 0 0 30 0 0 30 0 0 30 0 0 30 0 0 30 0 0 30 0 0 30 0 0 30 0 0 30 0 0 30 0 0 30 0 0 30 0 0 30 0 0 30 0 0 30 0 0 30 0 0 30 0 0 30 0 0 30 0 0 30 0 0 30 0 0 30 0 0 30 0 0 30 0 0 30 0 0 30 0 0 30 0 0 30 0 0 30 0 0 30 0 0 30 0 0 30 0 0 30 0 0 30 0 0 30 0 0 30 0 0 30 0 0 30 0 0 30 0 0 30 0 0 30 0 0 30 0 0 30 0 0 30 0 0 30 0 0 30 0 0 30 
0 0 30 0 0 30 0 0 30 0 0 30 0 0 30 0 0 30 0 0 30 0 0 30 0 0 30 0 0 30 0 0 30 0 0 30 0 0 30 0 0 30 0 0 30 0 0 30 0 0 30 0 0 30 0 0 30 0 0 30 0 0 30 0 0 30 0 0 30 0 0 30 0 0 30 0 0 30 0 0 30 0 0 30 0 0 30 0 0 30 0 0 30 0 0 30 0 0 30 0 0 30 0 0 30 0 0 30 0 0 30 0 0 30 0 0 30 0 0 30 0 0 30 0 0 30 0 0 30 0 0 30 0 0 30 0 0 30 0 0 30 0 0 30 0 0 30 0 0 30 0 0 30 0 0 30 0 0 30 0 0 30 0 0 30 0 0 30 0 0 30 0 0 30 0 0 30 0 0 30 0 0 30 0 0 30 0 0 30 0 0 30 0 0 30 0 0 30 0 0 30 0 0 30 0 0 30 0 0 30 0 0 30 0 0 30 0 0 30 0 0 30 0 0 30 0 0 30 0 0 30 0 0 30 0 0 30 0 0 30 0 0 30 0 0 30 0 0 30 0 0 30 0 0 30 0 0 30 0 0 30 0 0 30 0 0 30 0 0 30 0 0 30 0 0 30 0 0 30 0 0 30 0 0 30 0 0 30 0 0 30 0 0 30 0 0 30 0 0 30 0 0 30 0 0 30 0 0 30 0 0 30 0 0 30 0 0 30 0 0 30 0 0 30 0 0 30 0 0 30 0 0 30 0 0 30 0 0 30 0 0 30 0 0 30 0 0 30 0 0 30 0 0 30 0 0 30 0 0 30 0 0 30 0 0 30 0 0 30 0 0 30 0 0 30 0 0 30 0 0 30 0 0 30 0 0 30 0 0 30 0 0 30 0 0 30 0 0 30 80 5 5 114 7 7 114 7 7 115 7 7 115 7 7 115 7 7 115 7 7 116 7 7 116 7 7 116 7 7 116 7 7 116 7 7 117 7 7 117 7 7 67 186 109 67 187 109 68 187 109 68 187 110 68 187 110 68 188 110 69 188 111 117 224 154 116 224 154 115 223 153 114 223 152 113 222 151 112 221 150 111 220 149 110 220 148 109 219 148 108 218 147 107 217 146 106 216 144 105 215 143 7 123 48 0 0 30 0 0 30 0 0 30 0 0 30 0 0 30 0 0 30 0 0 30 0 0 30 0 0 30 0 0 30 0 0 30 0 0 30 0 0 30 0 0 30 0 0 30 0 0 30 0 0 30 0 0 30 0 0 30 0 0 30 0 0 30 0 0 30 0 0 30 0 0 30 0 0 30 0 0 30 0 0 30 0 0 30 0 0 30 0 0 30 0 0 30 0 0 30 0 0 30 0 0 30 0 0 30 0 0 30 0 0 30 0 0 30 0 0 30 0 0 30 0 0 30 0 0 30 0 0 30 0 0 30 0 0 30 0 0 30 0 0 30 0 0 30 0 0 30 0 0 30 0 0 30 0 0 30 0 0 30 0 0 30 0 0 30 0 0 30 0 0 30 0 0 30 0 0 30 0 0 30 0 0 30 0 0 30 0 0 30 0 0 30 0 0 30 0 0 30 0 0 30 0 0 30 0 0 30 0 0 30 0 0 30 0 0 30 0 0 30 0 0 30 0 0 30 0 0 30 0 0 30 0 0 30 0 0 30 0 0 30 0 0 30 0 0 30 0 0 30 0 0 30 0 0 30 0 0 30 0 0 30 0 0 30 0 0 30 0 0 30 0 0 30 0 0 30 0 0 30 0 0 30 0 0 30 0 0 30 0 0 30 0 0 30 0 0 30 0 0 30 0 0 30 0 0 30 0 0 30 0 0 30 0 0 30 0 0 30 0 0 30 0 0 30 0 0 30 0 0 30 0 0 30 0 0 30 0 0 30 0 0 30 0 0 30 0 0 30 0 0 30 0 0 30 0 0 30 0 0 30 0 0 30 0 0 30 0 0 30 0 0 30 0 0 30 0 0 30 0 0 30 0 0 30 0 0 30 0 0 30 0 0 30 0 0 30 
0 0 30 0 0 30 0 0 30 0 0 30 0 0 30 0 0 30 0 0 30 0 0 30 0 0 30 0 0 30 0 0 30 0 0 30 0 0 30 0 0 30 0 0 30 0 0 30 0 0 30 0 0 30 0 0 30 0 0 30 0 0 30 0 0 30 0 0 30 0 0 30 0 0 30 0 0 30 0 0 30 0 0 30 0 0 30 0 0 30 0 0 30 0 0 30 0 0 30 0 0 30 0 0 30 0 0 30 0 0 30 0 0 30 0 0 30 0 0 30 0 0 30 0 0 30 0 0 30 0 0 30 0 0 30 0 0 30 0 0 30 0 0 30 0 0 30 0 0 30 0 0 30 0 0 30 0 0 30 0 0 30 0 0 30 0 0 30 0 0 30 0 0 30 0 0 30 0 0 30 0 0 30 0 0 30 0 0 30 0 0 30 0 0 30 0 0 30 0 0 30 0 0 30 0 0 30 0 0 30 0 0 30 0 0 30 0 0 30 0 0 30 0 0 30 0 0 30 0 0 30 0 0 30 0 0 30 0 0 30 0 0 30 0 0 30 0 0 30 0 0 30 0 0 30 0 0 30 0 0 30 0 0 30 0 0 30 0 0 30 0 0 30 0 0 30 0 0 30 0 0 30 0 0 30 0 0 30 0 0 30 0 0 30 0 0 30 0 0 30 0 0 30 0 0 30 0 0 30 0 0 30 0 0 30 0 0 30 0 0 30 0 0 30 0 0 30 0 0 30 0 0 30 0 0 30 0 0 30 0 0 30 0 0 30 0 0 30 0 0 30 0 0 30 0 0 30 0 0 30 0 0 30 0 0 30 0 0 30 0 0 30 0 0 30 0 0 30 0 0 30 0 0 30 0 0 30 0 0 30 0 0 30 114 7 7 114 7 7 114 7 7 115 7 7 115 7 7 115 7 7 115 7 7 115 7 7 116 7 7 116 7 7 116 7 7 116 7 7 117 7 7 117 7 7 117 7 7 67 186 109 67 187 109 68 187 109 68 187 110 68 187 110 68 188 110 69 188 111 69 188 111 69 189 111 116 224 154 115 223 153 114 223 152 114 222 152 113 221 151 112 220 150 111 220 149 110 219 148 108 218 147 107 217 146 106 216 145 105 215 144 104 214 143 103 214 141 101 212 140 0 0 30 0 0 30 0 0 30 0 0 30 0 0 30 0 0 30 0 0 30 0 0 30 0 0 30 0 0 30 0 0 30 0 0 30 0 0 30 0 0 30 0 0 30 0 0 30 0 0 30 0 0 30 0 0 30 0 0 30 0 0 30 0 0 30 0 0 30 0 0 30 0 0 30 0 0 30 0 0 30 0 0 30 0 0 30 0 0 30 0 0 30 0 0 30 0 0 30 0 0 30 0 0 30 0 0 30 0 0 30 0 0 30 0 0 30 0 0 30 0 0 30 0 0 30 0 0 30 0 0 30 0 0 30 0 0 30 0 0 30 0 0 30 0 0 30 0 0 30 0 0 30 0 0 30 0 0 30 0 0 30 0 0 30 0 0 30 0 0 30 0 0 30 0 0 30 0 0 30 0 0 30 0 0 30 0 0 30 0 0 30 0 0 30 0 0 30 0 0 30 0 0 30 0 0 30 0 0 30 0 0 30 0 0 30 0 0 30 0 0 30 0 0 30 0 0 30 0 0 30 0 0 30 0 0 30 0 0 30 0 0 30 0 0 30 0 0 30 0 0 30 0 0 30 0 0 30 0 0 30 0 0 30 0 0 30 0 0 30 0 0 30 0 0 30 0 0 30 0 0 30 0 0 30 0 0 30 0 0 30 0 0 30 0 0 30 0 0 30 0 0 30 0 0 30 0 0 30 0 0 30 0 0 30 0 0 30 0 0 30 0 0 30 0 0 30 0 0 30 0 0 30 0 0 30 0 0 30 0 0 30 0 0 30 0 0 30 0 0 30 0 0 30 0 0 30 0 0 30 0 0 30 0 0 30 0 0 30 0 0 30 0 0 30 0 0 30 0 0 30 0 0 30 0 0 30 0 0 30 
0 0 30 0 0 30 0 0 30 0 0 30 0 0 30 0 0 30 0 0 30 0 0 30 0 0 30 0 0 30 0 0 30 0 0 30 0 0 30 0 0 30 0 0 30 0 0 30 0 0 30 0 0 30 0 0 30 0 0 30 0 0 30 0 0 30 0 0 30 0 0 30 0 0 30 0 0 30 0 0 30 0 0 30 0 0 30 0 0 30 0 0 30 0 0 30 0 0 30 0 0 30 0 0 30 0 0 30 0 0 30 0 0 30 0 0 30 0 0 30 0 0 30 0 0 30 0 0 30 0 0 30 0 0 30 0 0 30 0 0 30 0 0 30 0 0 30 0 0 30 0 0 30 0 0 30 0 0 30 0 0 30 0 0 30 0 0 30 0 0 30 0 0 30 0 0 30 0 0 30 0 0 30 0 0 30 0 0 30 0 0 30 0 0 30 0 0 30 0 0 30 0 0 30 0 0 30 0 0 30 0 0 30 0 0 30 0 0 30 0 0 30 0 0 30 0 0 30 0 0 30 0 0 30 0 0 30 0 0 30 0 0 30 0 0 30 0 0 30 0 0 30 0 0 30 0 0 30 0 0 30 0 0 30 0 0 30 0 0 30 0 0 30 0 0 30 0 0 30 0 0 30 0 0 30 0 0 30 0 0 30 0 0 30 0 0 30 0 0 30 0 0 30 0 0 30 0 0 30 0 0 30 0 0 30 0 0 30 0 0 30 0 0 30 0 0 30 0 0 30 0 0 30 0 0 30 0 0 30 0 0 30 0 0 30 0 0 30 0 0 30 0 0 30 0 0 30 0 0 30 0 0 30 0 0 30 0 0 30 0 0 30 0 0 30 0 0 30 0 0 30 0 0 30 0 0 30 0 0 30 0 0 30 114 7 7 114 7 7 115 7 7 115 7 7 115 7 7 115 7 7 116 7 7 116 7 7 116 7 7 116 7 7 116 7 7 117 7 7 117 7 7 117 7 7 117 7 7 67 187 109 68 187 110 68 187 110 68 188 110 68 188 110 69 188 111 69 188 111 69 189 111 69 189 111 117 224 154 116 223 153 115 223 153 114 222 152 113 221 151 112 221 150 111 220 149 110 219 148 109 218 147 108 217 146 107 216 145 106 216 144 104 215 143 103 214 142 102 213 141 0 0 30 0 0 30 0 0 30 0 0 30 0 0 30 0 0 30 0 0 30 0 0 30 0 0 30 0 0 30 0 0 30 0 0 30 0 0 30 0 0 30 0 0 30 0 0 30 0 0 30 0 0 30 0 0 30 0 0 30 0 0 30 0 0 30 0 0 30 0 0 30 0 0 30 0 0 30 0 0 30 0 0 30 0 0 30 0 0 30 0 0 30 0 0 30 0 0 30 0 0 30 0 0 30 0 0 30 0 0 30 0 0 30 0 0 30 0 0 30 0 0 30 0 0 30 0 0 30 0 0 30 0 0 30 0 0 30 0 0 30 0 0 30 0 0 30 0 0 30 0 0 30 0 0 30 0 0 30 0 0 30 0 0 30 0 0 30 0 0 30 0 0 30 0 0 30 0 0 30 0 0 30 0 0 30 0 0 30 0 0 30 0 0 30 0 0 30 0 0 30 0 0 30 0 0 30 0 0 30 0 0 30 0 0 30 0 0 30 0 0 30 0 0 30 0 0 30 0 0 30 0 0 30 0 0 30 0 0 30 0 0 30 0 0 30 0 0 30 0 0 30 0 0 30 0 0 30 0 0 30 0 0 30 0 0 30 0 0 30 0 0 30 0 0 30 0 0 30 0 0 30 0 0 30 0 0 30 0 0 30 0 0 30 0 0 30 0 0 30 0 0 30 0 0 30 0 0 30 0 0 30 0 0 30 0 0 30 0 0 30 0 0 30 0 0 30 0 0 30 0 0 30 0 0 30 0 0 30 0 0 30 0 0 30 0 0 30 0 0 30 0 0 30 0 0 30 0 0 30 0 0 30 0 0 30 0 0 30 0 0 30 0 0 30 0 0 30 0 0 30 0 0 30 0 0 30 0 0 30 
0 0 30 0 0 30 0 0 30 0 0 30 0 0 30 0 0 30 0 0 30 0 0 30 0 0 30 0 0 30 0 0 30 0 0 30 0 0 30 0 0 30 0 0 30 0 0 30 0 0 30 0 0 30 0 0 30 0 0 30 0 0 30 0 0 30 0 0 30 0 0 30 0 0 30 0 0 30 0 0 30 0 0 30 0 0 30 0 0 30 0 0 30 0 0 30 0 0 30 0 0 30 0 0 30 0 0 30 0 0 30 0 0 30 0 0 30 0 0 30 0 0 30 0 0 30 0 0 30 0 0 30 0 0 30 0 0 30 0 0 30 0 0 30 0 0 30 0 0 30 0 0 30 0 0 30 0 0 30 0 0 30 0 0 30 0 0 30 0 0 30 0 0 30 0 0 30 0 0 30 0 0 30 0 0 30 0 0 30 0 0 30 0 0 30 0 0 30 0 0 30 0 0 30 0 0 30 0 0 30 0 0 30 0 0 30 0 0 30 0 0 30 0 0 30 0 0 30 0 0 30 0 0 30 0 0 30 0 0 30 0 0 30 0 0 30 0 0 30 0 0 30 0 0 30 0 0 30 0 0 30 0 0 30 0 0 30 0 0 30 0 0 30 0 0 30 0 0 30 0 0 30 0 0 30 0 0 30 0 0 30 0 0 30 0 0 30 0 0 30 0 0 30 0 0 30 0 0 30 0 0 30 0 0 30 0 0 30 0 0 30 0 0 30 0 0 30 0 0 30 0 0 30 0 0 30 0 0 30 0 0 30 0 0 30 0 0 30 0 0 30 0 0 30 0 0 30 0 0 30 0 0 30 0 0 30 0 0 30 0 0 30 0 0 30 0 0 30 0 0 30 0 0 30 0 0 30 0 0 30 0 0 30 95 23 53 115 7 7 115 7 7 115 7 7 116 7 7 116 7 7 116 7 7 116 7 7 116 7 7 117 7 7 117 7 7 117 7 7 117 7 7 117 7 7 68 187 109 68 187 110 68 187 110 68 188 110 69 188 110 69 188 111 69 188 111 69 189 111 69 189 111 70 189 112 70 189 112 116 223 154 115 223 153 114 222 152 113 221 151 112 221 150 111 220 149 110 219 148 109 218 147 108 217 146 107 217 145 106 216 144 105 215 143 104 214 142 90 25 52 0 0 30 0 0 30 0 0 30 0 0 30 0 0 30 0 0 30 0 0 30 0 0 30 0 0 30 0 0 30 0 0 30 0 0 30 0 0 30 0 0 30 0 0 30 0 0 30 0 0 30 0 0 30 0 0 30 0 0 30 0 0 30 0 0 30 0 0 30 0 0 30 0 0 30 0 0 30 0 0 30 0 0 30 0 0 30 0 0 30 0 0 30 0 0 30 0 0 30 0 0 30 0 0 30 0 0 30 0 0 30 0 0 30 0 0 30 0 0 30 0 0 30 0 0 30 0 0 30 0 0 30 0 0 30 0 0 30 0 0 30 0 0 30 0 0 30 0 0 30 0 0 30 0 0 30 0 0 30 0 0 30 0 0 30 0 0 30 0 0 30 0 0 30 0 0 30 0 0 30 0 0 30 0 0 30 0 0 30 0 0 30 0 0 30 0 0 30 0 0 30 0 0 30 0 0 30 0 0 30 0 0 30 0 0 30 0 0 30 0 0 30 0 0 30 0 0 30 0 0 30 0 0 30 0 0 30 0 0 30 0 0 30 0 0 30 0 0 30 0 0 30 0 0 30 0 0 30 0 0 30 0 0 30 0 0 30 0 0 30 0 0 30 0 0 30 0 0 30 0 0 30 0 0 30 0 0 30 0 0 30 0 0 30 0 0 30 0 0 30 0 0 30 0 0 30 0 0 30 0 0 30 0 0 30 0 0 30 0 0 30 0 0 30 0 0 30 0 0 30 0 0 30 0 0 30 0 0 30 0 0 30 0 0 30 0 0 30 0 0 30 0 0 30 0 0 30 0 0 30 0 0 30 0 0 30 0 0 30 0 0 30 0 0 30 0 0 30 0 0 30 0 0 30 0 0 30 0 0 30 
0 0 30 0 0 30 0 0 30 0 0 30 0 0 30 0 0 30 0 0 30 0 0 30 0 0 30 0 0 30 0 0 30 0 0 30 0 0 30 0 0 30 0 0 30 0 0 30 0 0 30 0 0 30 0 0 30 0 0 30 0 0 30 0 0 30 0 0 30 0 0 30 0 0 30 0 0 30 0 0 30 0 0 30 0 0 30 0 0 30 0 0 30 0 0 30 0 0 30 0 0 30 0 0 30 0 0 30 0 0 30 0 0 30 0 0 30 0 0 30 0 0 30 0 0 30 0 0 30 0 0 30 0 0 30 0 0 30 0 0 30 0 0 30 0 0 30 0 0 30 0 0 30 0 0 30 0 0 30 0 0 30 0 0 30 0 0 30 0 0 30 0 0 30 0 0 30 0 0 30 0 0 30 0 0 30 0 0 30 0 0 30 0 0 30 0 0 30 0 0 30 0 0 30 0 0 30 0 0 30 0 0 30 0 0 30 0 0 30 0 0 30 0 0 30 0 0 30 0 0 30 0 0 30 0 0 30 0 0 30 0 0 30 0 0 30 0 0 30 0 0 30 0 0 30 0 0 30 0 0 30 0 0 30 0 0 30 0 0 30 0 0 30 0 0 30 0 0 30 0 0 30 0 0 30 0 0 30 0 0 30 0 0 30 0 0 30 0 0 30 0 0 30 0 0 30 0 0 30 0 0 30 0 0 30 0 0 30 0 0 30 0 0 30 0 0 30 0 0 30 0 0 30 0 0 30 0 0 30 0 0 30 0 0 30 0 0 30 0 0 30 0 0 30 0 0 30 0 0 30 0 0 30 0 0 30 0 0 30 0 0 30 0 0 30 0 0 30 0 0 30 0 0 30 0 0 30 0 0 30 0 0 30 95 23 53 115 7 7 115 7 7 116 7 7 116 7 7 116 7 7 116 7 7 117 7 7 117 7 7 117 7 7 117 7 7 117 7 7 118 7 7 118 7 7 68 187 110 68 187 110 68 188 110 69 188 110 69 188 111 69 188 111 69 189 111 69 189 111 70 189 112 70 189 112 70 190 112 116 223 154 116 223 153 115 222 152 114 221 151 113 221 151 112 220 150 111 219 149 110 218 148 109 217 147 108 217 146 106 216 145 105 215 144 104 214 143 90 25 52 0 0 30 0 0 30 0 0 30 0 0 30 0 0 30 0 0 30 0 0 30 0 0 30 0 0 30 0 0 30 0 0 30 0 0 30 0 0 30 0 0 30 0 0 30 0 0 30 0 0 30 0 0 30 0 0 30 0 0 30 0 0 30 0 0 30 0 0 30 0 0 30 0 0 30 0 0 30 0 0 30 0 0 30 0 0 30 0 0 30 0 0 30 0 0 30 0 0 30 0 0 30 0 0 30 0 0 30 0 0 30 0 0 30 0 0 30 0 0 30 0 0 30 0 0 30 0 0 30 0 0 30 0 0 30 0 0 30 0 0 30 0 0 30 0 0 30 0 0 30 0 0 30 0 0 30 0 0 30 0 0 30 0 0 30 0 0 30 0 0 30 0 0 30 0 0 30 0 0 30 0 0 30 0 0 30 0 0 30 0 0 30 0 0 30 0 0 30 0 0 30 0 0 30 0 0 30 0 0 30 0 0 30 0 0 30 0 0 30 0 0 30 0 0 30 0 0 30 0 0 30 0 0 30 0 0 30 0 0 30 0 0 30 0 0 30 0 0 30 0 0 30 0 0 30 0 0 30 0 0 30 0 0 30 0 0 30 0 0 30 0 0 30 0 0 30 0 0 30 0 0 30 0 0 30 0 0 30 0 0 30 0 0 30 0 0 30 0 0 30 0 0 30 0 0 30 0 0 30 0 0 30 0 0 30 0 0 30 0 0 30 0 0 30 0 0 30 0 0 30 0 0 30 0 0 30 0 0 30 0 0 30 0 0 30 0 0 30 0 0 30 0 0 30 0 0 30 0 0 30 0 0 30 0 0 30 0 0 30 0 0 30 0 0 30 0 0 30 0 0 30 0 0 30 0 0 30 0 0 30 
0 0 30 0 0 30 0 0 30 0 0 30 0 0 30 0 0 30 0 0 30 0 0 30 0 0 30 0 0 30 0 0 30 0 0 30 0 0 30 0 0 30 0 0 30 0 0 30 0 0 30 0 0 30 0 0 30 0 0 30 0 0 30 0 0 30 0 0 30 0 0 30 0 0 30 0 0 30 0 0 30 0 0 30 0 0 30 0 0 30 0 0 30 0 0 30 0 0 30 0 0 30 0 0 30 0 0 30 0 0 30 0 0 30 0 0 30 0 0 30 0 0 30 0 0 30 0 0 30 0 0 30 0 0 30 0 0 30 0 0 30 0 0 30 0 0 30 0 0 30 0 0 30 0 0 30 0 0 30 0 0 30 0 0 30 0 0 30 0 0 30 0 0 30 0 0 30 0 0 30 0 0 30 0 0 30 0 0 30 0 0 30 0 0 30 0 0 30 0 0 30 0 0 30 0 0 30 0 0 30 0 0 30 0 0 30 0 0 30 0 0 30 0 0 30 0 0 30 0 0 30 0 0 30 0 0 30 0 0 30 0 0 30 0 0 30 0 0 30 0 0 30 0 0 30 0 0 30 0 0 30 0 0 30 0 0 30 0 0 30 0 0 30 0 0 30 0 0 30 0 0 30 0 0 30 0 0 30 0 0 30 0 0 30 0 0 30 0 0 30 0 0 30 0 0 30 0 0 30 0 0 30 0 0 30 0 0 30 0 0 30 0 0 30 0 0 30 0 0 30 0 0 30 0 0 30 0 0 30 0 0 30 0 0 30 0 0 30 0 0 30 0 0 30 0 0 30 0 0 30 0 0 30 0 0 30 0 0 30 0 0 30 0 0 30 0 0 30 0 0 30 0 0 30 0 0 30 0 0 30 0 0 30 95 23 53 96 24 54 116 7 7 116 7 7 116 7 7 116 7 7 117 7 7 117 7 7 117 7 7 117 7 7 117 7 7 118 7 7 118 7 7 68 187 110 68 188 110 68 188 110 69 188 110 69 188 111 69 188 111 69 189 111 70 189 111 70 189 112 70 189 112 70 190 112 70 190 112 71 190 112 116 223 153 115 222 152 114 221 152 113 221 151 112 220 150 111 219 149 110 218 148 109 217 147 108 217 146 107 216 145 106 215 144 90 26 53 89 25 52 0 0 30 0 0 30 0 0 30 0 0 30 0 0 30 0 0 30 0 0 30 0 0 30 0 0 30 0 0 30 0 0 30 0 0 30 0 0 30 0 0 30 0 0 30 0 0 30 0 0 30 0 0 30 0 0 30 0 0 30 0 0 30 0 0 30 0 0 30 0 0 30 0 0 30 0 0 30 0 0 30 0 0 30 0 0 30 0 0 30 0 0 30 0 0 30 0 0 30 0 0 30 0 0 30 0 0 30 0 0 30 0 0 30 0 0 30 0 0 30 0 0 30 0 0 30 0 0 30 0 0 30 0 0 30 0 0 30 0 0 30 0 0 30 0 0 30 0 0 30 0 0 30 0 0 30 0 0 30 0 0 30 0 0 30 0 0 30 0 0 30 0 0 30 0 0 30 0 0 30 0 0 30 0 0 30 0 0 30 0 0 30 0 0 30 0 0 30 0 0 30 0 0 30 0 0 30 0 0 30 0 0 30 0 0 30 0 0 30 0 0 30 0 0 30 0 0 30 0 0 30 0 0 30 0 0 30 0 0 30 0 0 30 0 0 30 0 0 30 0 0 30 0 0 30 0 0 30 0 0 30 0 0 30 0 0 30 0 0 30 0 0 30 0 0 30 0 0 30 0 0 30 0 0 30 0 0 30 0 0 30 0 0 30 0 0 30 0 0 30 0 0 30 0 0 30 0 0 30 0 0 30 0 0 30 0 0 30 0 0 30 0 0 30 0 0 30 0 0 30 0 0 30 0 0 30 0 0 30 0 0 30 0 0 30 0 0 30 0 0 30 0 0 30 0 0 30 0 0 30 0 0 30 0 0 30 0 0 30 0 0 30 0 0 30 0 0 30 0 0 30 0 0 30 0 0 30 0 0 30 
0 0 30 0 0 30 0 0 30 0 0 30 0 0 30 0 0 30 0 0 30 0 0 30 0 0 30 0 0 30 0 0 30 0 0 30 0 0 30 0 0 30 0 0 30 0 0 30 0 0 30 0 0 30 0 0 30 0 0 30 0 0 30 0 0 30 0 0 30 0 0 30 0 0 30 0 0 30 0 0 30 0 0 30 0 0 30 0 0 30 0 0 30 0 0 30 0 0 30 0 0 30 0 0 30 0 0 30 0 0 30 0 0 30 0 0 30 0 0 30 0 0 30 0 0 30 0 0 30 0 0 30 0 0 30 0 0 30 0 0 30 0 0 30 0 0 30 0 0 30 0 0 30 0 0 30 0 0 30 0 0 30 0 0 30 0 0 30 0 0 30 0 0 30 0 0 30 0 0 30 0 0 30 0 0 30 0 0 30 0 0 30 0 0 30 0 0 30 0 0 30 0 0 30 0 0 30 0 0 30 0 0 30 0 0 30 0 0 30 0 0 30 0 0 30 0 0 30 0 0 30 0 0 30 0 0 30 0 0 30 0 0 30 0 0 30 0 0 30 0 0 30 0 0 30 0 0 30 0 0 30 0 0 30 0 0 30 0 0 30 0 0 30 0 0 30 0 0 30 0 0 30 0 0 30 0 0 30 0 0 30 0 0 30 0 0 30 0 0 30 0 0 30 0 0 30 0 0 30 0 0 30 0 0 30 0 0 30 0 0 30 0 0 30 0 0 30 0 0 30 0 0 30 0 0 30 0 0 30 0 0 30 0 0 30 0 0 30 0 0 30 0 0 30 0 0 30 0 0 30 0 0 30 0 0 30 0 0 30 0 0 30 0 0 30 0 0 30 0 0 30 0 0 30 0 0 30 0 0 30 0 0 30 96 24 54 96 24 54 116 7 7 116 7 7 117 7 7 117 7 7 117 7 7 117 7 7 117 7 7 118 7 7 118 7 7 118 7 7 68 187 110 68 188 110 69 188 110 69 188 111 69 188 111 69 189 111 69 189 111 70 189 111 70 189 112 70 189 112 70 190 112 70 190 112 71 190 112 71 190 113 71 190 113 115 222 153 114 221 152 113 221 151 112 220 150 111 219 149 110 218 148 109 217 147 108 217 146 107 216 145 106 215 144 89 25 52 88 25 51 0 0 30 0 0 30 0 0 30 0 0 30 0 0 30 0 0 30 0 0 30 0 0 30 0 0 30 0 0 30 0 0 30 0 0 30 0 0 30 0 0 30 0 0 30 0 0 30 0 0 30 0 0 30 0 0 30 0 0 30 0 0 30 0 0 30 0 0 30 0 0 30 0 0 30 0 0 30 0 0 30 0 0 30 0 0 30 0 0 30 0 0 30 0 0 30 0 0 30 0 0 30 0 0 30 0 0 30 0 0 30 0 0 30 0 0 30 0 0 30 0 0 30 0 0 30 0 0 30 0 0 30 0 0 30 0 0 30 0 0 30 0 0 30 0 0 30 0 0 30 0 0 30 0 0 30 0 0 30 0 0 30 0 0 30 0 0 30 0 0 30 0 0 30 0 0 30 0 0 30 0 0 30 0 0 30 0 0 30 0 0 30 0 0 30 0 0 30 0 0 30 0 0 30 0 0 30 0 0 30 0 0 30 0 0 30 0 0 30 0 0 30 0 0 30 0 0 30 0 0 30 0 0 30 0 0 30 0 0 30 0 0 30 0 0 30 0 0 30 0 0 30 0 0 30 0 0 30 0 0 30 0 0 30 0 0 30 0 0 30 0 0 30 0 0 30 0 0 30 0 0 30 0 0 30 0 0 30 0 0 30 0 0 30 0 0 30 0 0 30 0 0 30 0 0 30 0 0 30 0 0 30 0 0 30 0 0 30 0 0 30 0 0 30 0 0 30 0 0 30 0 0 30 0 0 30 0 0 30 0 0 30 0 0 30 0 0 30 0 0 30 0 0 30 0 0 30 0 0 30 0 0 30 0 0 30 0 0 30 0 0 30 0 0 30 0 0 30 0 0 30 0 0 30 0 0 30 0 0 30 
0 0 30 0 0 30 0 0 30 0 0 30 0 0 30 0 0 30 0 0 30 0 0 30 0 0 30 0 0 30 0 0 30 0 0 30 0 0 30 0 0 30 0 0 30 0 0 30 0 0 30 0 0 30 0 0 30 0 0 30 0 0 30 0 0 30 0 0 30 0 0 30 0 0 30 0 0 30 0 0 30 0 0 30 0 0 30 0 0 30 0 0 30 0 0 30 0 0 30 0 0 30 0 0 30 0 0 30 0 0 30 0 0 30 0 0 30 0 0 30 0 0 30 0 0 30 0 0 30 0 0 30 0 0 30 0 0 30 0 0 30 0 0 30 0 0 30 0 0 30 0 0 30 0 0 30 0 0 30 0 0 30 0 0 30 0 0 30 0 0 30 0 0 30 0 0 30 0 0 30 0 0 30 0 0 30 0 0 30 0 0 30 0 0 30 0 0 30 0 0 30 0 0 30 0 0 30 0 0 30 0 0 30 0 0 30 0 0 30 0 0 30 0 0 30 0 0 30 0 0 30 0 0 30 0 0 30 0 0 30 0 0 30 0 0 30 0 0 30 0 0 30 0 0 30 0 0 30 0 0 30 0 0 30 0 0 30 0 0 30 0 0 30 0 0 30 0 0 30 0 0 30 0 0 30 0 0 30 0 0 30 0 0 30 0 0 30 0 0 30 0 0 30 0 0 30 0 0 30 0 0 30 0 0 30 0 0 30 0 0 30 0 0 30 0 0 30 0 0 30 0 0 30 0 0 30 0 0 30 0 0 30 0 0 30 0 0 30 0 0 30 0 0 30 0 0 30 0 0 30 0 0 30 0 0 30 0 0 30 0 0 30 0 0 30 0 0 30 0 0 30 0 0 30 0 0 30 0 0 30 0 0 30 96 24 54 96 24 54 97 24 54 117 7 7 117 7 7 117 7 7 117 7 7 118 7 7 118 7 7 118 7 7 118 7 7 118 7 7 68 188 110 69 188 110 69 188 111 69 188 111 69 189 111 69 189 111 70 189 112 70 189 112 70 190 112 70 190 112 70 190 112 71 190 112 71 190 113 71 190 113 71 191 113 116 222 153 115 221 152 114 220 151 113 220 150 112 219 149 111 218 148 110 217 147 109 217 146 108 216 145 90 26 53 89 25 52 88 24 51 0 0 30 0 0 30 0 0 30 0 0 30 0 0 30 0 0 30 0 0 30 0 0 30 0 0 30 0 0 30 0 0 30 0 0 30 0 0 30 0 0 30 0 0 30 0 0 30 0 0 30 0 0 30 0 0 30 0 0 30 0 0 30 0 0 30 0 0 30 0 0 30 0 0 30 0 0 30 0 0 30 0 0 30 0 0 30 0 0 30 0 0 30 0 0 30 0 0 30 0 0 30 0 0 30 0 0 30 0 0 30 0 0 30 0 0 30 0 0 30 0 0 30 0 0 30 0 0 30 0 0 30 0 0 30 0 0 30 0 0 30 0 0 30 0 0 30 0 0 30 0 0 30 0 0 30 0 0 30 0 0 30 0 0 30 0 0 30 0 0 30 0 0 30 0 0 30 0 0 30 0 0 30 0 0 30 0 0 30 0 0 30 0 0 30 0 0 30 0 0 30 0 0 30 0 0 30 0 0 30 0 0 30 0 0 30 0 0 30 0 0 30 0 0 30 0 0 30 0 0 30 0 0 30 0 0 30 0 0 30 0 0 30 0 0 30 0 0 30 0 0 30 0 0 30 0 0 30 0 0 30 0 0 30 0 0 30 0 0 30 0 0 30 0 0 30 0 0 30 0 0 30 0 0 30 0 0 30 0 0 30 0 0 30 0 0 30 0 0 30 0 0 30 0 0 30 0 0 30 0 0 30 0 0 30 0 0 30 0 0 30 0 0 30 0 0 30 0 0 30 0 0 30 0 0 30 0 0 30 0 0 30 0 0 30 0 0 30 0 0 30 0 0 30 0 0 30 0 0 30 0 0 30 0 0 30 0 0 30 0 0 30 0 0 30 0 0 30 0 0 30 0 0 30 0 0 30 0 0 30 
0 0 30 0 0 30 0 0 30 0 0 30 0 0 30 0 0 30 0 0 30 0 0 30 0 0 30 0 0 30 0 0 30 0 0 30 0 0 30 0 0 30 0 0 30 0 0 30 0 0 30 0 0 30 0 0 30 0 0 30 0 0 30 0 0 30 0 0 30 0 0 30 0 0 30 0 0 30 0 0 30 0 0 30 0 0 30 0 0 30 0 0 30 0 0 30 0 0 30 0 0 30 0 0 30 0 0 30 0 0 30 0 0 30 0 0 30 0 0 30 0 0 30 0 0 30 0 0 30 0 0 30 0 0 30 0 0 30 0 0 30 0 0 30 0 0 30 0 0 30 0 0 30 0 0 30 0 0 30 0 0 30 0 0 30 0 0 30 0 0 30 0 0 30 0 0 30 0 0 30 0 0 30 0 0 30 0 0 30 0 0 30 0 0 30 0 0 30 0 0 30 0 0 30 0 0 30 0 0 30 0 0 30 0 0 30 0 0 30 0 0 30 0 0 30 0 0 30 0 0 30 0 0 30 0 0 30 0 0 30 0 0 30 0 0 30 0 0 30 0 0 30 0 0 30 0 0 30 0 0 30 0 0 30 0 0 30 0 0 30 0 0 30 0 0 30 0 0 30 0 0 30 0 0 30 0 0 30 0 0 30 0 0 30 0 0 30 0 0 30 0 0 30 0 0 30 0 0 30 0 0 30 0 0 30 0 0 30 0 0 30 0 0 30 0 0 30 0 0 30 0 0 30 0 0 30 0 0 30 0 0 30 0 0 30 0 0 30 0 0 30 0 0 30 0 0 30 0 0 30 0 0 30 0 0 30 0 0 30 0 0 30 0 0 30 0 0 30 0 0 30 0 0 30 0 0 30 0 0 30 0 0 30 96 24 54 97 24 54 97 24 55 117 7 7 117 7 7 117 7 7 118 7 7 118 7 7 118 7 7 118 7 7 119 7 7 69 188 110 69 188 111 69 188 111 69 189 111 69 189 111 70 189 111 70 189 112 70 189 112 70 190 112 70 190 112 70 190 112 71 190 113 71 190 113 71 191 113 71 191 113 71 191 113 72 191 113 115 221 152 114 220 151 113 220 150 112 219 150 111 218 149 110 217 148 109 217 147 108 216 146 89 26 52 88 25 51 87 24 50 0 0 30 0 0 30 0 0 30 0 0 30 0 0 30 0 0 30 0 0 30 0 0 30 0 0 30 0 0 30 0 0 30 0 0 30 0 0 30 0 0 30 0 0 30 0 0 30 0 0 30 0 0 30 0 0 30 0 0 30 0 0 30 0 0 30 0 0 30 0 0 30 0 0 30 0 0 30 0 0 30 0 0 30 0 0 30 0 0 30 0 0 30 0 0 30 0 0 30 0 0 30 0 0 30 0 0 30 0 0 30 0 0 30 0 0 30 0 0 30 0 0 30 0 0 30 0 0 30 0 0 30 0 0 30 0 0 30 0 0 30 0 0 30 0 0 30 0 0 30 0 0 30 0 0 30 0 0 30 0 0 30 0 0 30 0 0 30 0 0 30 0 0 30 0 0 30 0 0 30 0 0 30 0 0 30 0 0 30 0 0 30 0 0 30 0 0 30 0 0 30 0 0 30 0 0 30 0 0 30 0 0 30 0 0 30 0 0 30 0 0 30 0 0 30 0 0 30 0 0 30 0 0 30 0 0 30 0 0 30 0 0 30 0 0 30 0 0 30 0 0 30 0 0 30 0 0 30 0 0 30 0 0 30 0 0 30 0 0 30 0 0 30 0 0 30 0 0 30 0 0 30 0 0 30 0 0 30 0 0 30 0 0 30 0 0 30 0 0 30 0 0 30 0 0 30 0 0 30 0 0 30 0 0 30 0 0 30 0 0 30 0 0 30 0 0 30 0 0 30 0 0 30 0 0 30 0 0 30 0 0 30 0 0 30 0 0 30 0 0 30 0 0 30 0 0 30 0 0 30 0 0 30 0 0 30 0 0 30 0 0 30 0 0 30 0 0 30 0 0 30 0 0 30 0 0 30 0 0 30 
0 0 30 0 0 30 0 0 30 0 0 30 0 0 30 0 0 30 0 0 30 0 0 30 0 0 30 0 0 30 0 0 30 0 0 30 0 0 30 0 0 30 0 0 30 0 0 30 0 0 30 0 0 30 0 0 30 0 0 30 0 0 30 0 0 30 0 0 30 0 0 30 0 0 30 0 0 30 0 0 30 0 0 30 0 0 30 0 0 30 0 0 30 0 0 30 0 0 30 0 0 30 0 0 30 0 0 30 0 0 30 0 0 30 0 0 30 0 0 30 0 0 30 0 0 30 0 0 30 0 0 30 0 0 30 0 0 30 0 0 30 0 0 30 0 0 30 0 0 30 0 0 30 0 0 30 0 0 30 0 0 30 0 0 30 0 0 30 0 0 30 0 0 30 0 0 30 0 0 30 0 0 30 0 0 30 0 0 30 0 0 30 0 0 30 0 0 30 0 0 30 0 0 30 0 0 30 0 0 30 0 0 30 0 0 30 0 0 30 0 0 30 0 0 30 0 0 30 0 0 30 0 0 30 0 0 30 0 0 30 0 0 30 0 0 30 0 0 30 0 0 30 0 0 30 0 0 30 0 0 30 0 0 30 0 0 30 0 0 30 0 0 30 0 0 30 0 0 30 0 0 30 0 0 30 0 0 30 0 0 30 0 0 30 0 0 30 0 0 30 0 0 30 0 0 30 0 0 30 0 0 30 0 0 30 0 0 30 0 0 30 0 0 30 0 0 30 0 0 30 0 0 30 0 0 30 0 0 30 0 0 30 0 0 30 0 0 30 0 0 30 0 0 30 0 0 30 0 0 30 0 0 30 0 0 30 0 0 30 0 0 30 0 0 30 0 0 30 0 0 30 0 0 30 0 0 30 0 0 30 0 0 30 96 24 54 97 24 54 97 24 55 98 24 55 118 7 7 118 7 7 118 7 7 118 7 7 118 7 7 119 7 7 69 188 111 69 188 111 69 189 111 69 189 111 69 189 111 70 189 112 70 189 112 70 190 112 70 190 112 70 190 112 71 190 112 71 190 113 71 190 113 71 191 113 71 191 113 71 191 113 72 191 113 72 191 114 72 191 114 114 220 151 113 220 151 112 219 150 111 218 149 110 217 148 109 216 147 89 26 53 88 25 52 88 25 51 87 24 50 0 0 30 0 0 30 0 0 30 0 0 30 0 0 30 0 0 30 0 0 30 0 0 30 0 0 30 0 0 30 0 0 30 0 0 30 0 0 30 0 0 30 0 0 30 0 0 30 0 0 30 0 0 30 0 0 30 0 0 30 0 0 30 0 0 30 0 0 30 0 0 30 0 0 30 0 0 30 0 0 30 0 0 30 0 0 30 0 0 30 0 0 30 0 0 30 0 0 30 0 0 30 0 0 30 0 0 30 0 0 30 0 0 30 0 0 30 0 0 30 0 0 30 0 0 30 0 0 30 0 0 30 0 0 30 0 0 30 0 0 30 0 0 30 0 0 30 0 0 30 0 0 30 0 0 30 0 0 30 0 0 30 0 0 30 0 0 30 0 0 30 0 0 30 0 0 30 0 0 30 0 0 30 0 0 30 0 0 30 0 0 30 0 0 30 0 0 30 0 0 30 0 0 30 0 0 30 0 0 30 0 0 30 0 0 30 0 0 30 0 0 30 0 0 30 0 0 30 0 0 30 0 0 30 0 0 30 0 0 30 0 0 30 0 0 30 0 0 30 0 0 30 0 0 30 0 0 30 0 0 30 0 0 30 0 0 30 0 0 30 0 0 30 0 0 30 0 0 30 0 0 30 0 0 30 0 0 30 0 0 30 0 0 30 0 0 30 0 0 30 0 0 30 0 0 30 0 0 30 0 0 30 0 0 30 0 0 30 0 0 30 0 0 30 0 0 30 0 0 30 0 0 30 0 0 30 0 0 30 0 0 30 0 0 30 0 0 30 0 0 30 0 0 30 0 0 30 0 0 30 0 0 30 0 0 30 0 0 30 0 0 30 0 0 30 0 0 30 0 0 30 0 0 30 0 0 30 0 0 30 
0 0 30 0 0 30 0 0 30 0 0 30 0 0 30 0 0 30 0 0 30 0 0 30 0 0 30 0 0 30 0 0 30 0 0 30 0 0 30 0 0 30 0 0 30 0 0 30 0 0 30 0 0 30 0 0 30 0 0 30 0 0 30 0 0 30 0 0 30 0 0 30 0 0 30 0 0 30 0 0 30 0 0 30 0 0 30 0 0 30 0 0 30 0 0 30 0 0 30 0 0 30 0 0 30 0 0 30 0 0 30 0 0 30 0 0 30 0 0 30 0 0 30 0 0 30 0 0 30 0 0 30 0 0 30 0 0 30 0 0 30 0 0 30 0 0 30 0 0 30 0 0 30 0 0 30 0 0 30 0 0 30 0 0 30 0 0 30 0 0 30 0 0 30 0 0 30 0 0 30 0 0 30 0 0 30 0 0 30 0 0 30 0 0 30 0 0 30 0 0 30 0 0 30 0 0 30 0 0 30 0 0 30 0 0 30 0 0 30 0 0 30 0 0 30 0 0 30 0 0 30 0 0 30 0 0 30 0 0 30 0 0 30 0 0 30 0 0 30 0 0 30 0 0 30 0 0 30 0 0 30 0 0 30 0 0 30 0 0 30 0 0 30 0 0 30 0 0 30 0 0 30 0 0 30 0 0 30 0 0 30 0 0 30 0 0 30 0 0 30 0 0 30 0 0 30 0 0 30 0 0 30 0 0 30 0 0 30 0 0 30 0 0 30 0 0 30 0 0 30 0 0 30 0 0 30 0 0 30 0 0 30 0 0 30 0 0 30 0 0 30 0 0 30 0 0 30 0 0 30 0 0 30 0 0 30 0 0 30 0 0 30 0 0 30 0 0 30 0 0 30 0 0 30 0 0 30 0 0 30 0 0 30 96 24 54 97 24 54 98 24 55 98 24 55 118 7 7 118 7 7 118 7 7 119 7 7 119 7 7 119 7 7 69 189 111 69 189 111 69 189 111 70 189 112 70 189 112 70 190 112 70 190 112 70 190 112 71 190 112 71 190 113 71 190 113 71 191 113 71 191 113 71 191 113 71 191 113 72 191 114 72 191 114 72 191 114 72 192 114 115 220 152 114 219 151 113 219 150 112 218 149 111 217 148 110 216 147 89 26 52 88 25 51 87 24 50 86 23 50 0 0 30 0 0 30 0 0 30 0 0 30 0 0 30 0 0 30 0 0 30 0 0 30 0 0 30 0 0 30 0 0 30 0 0 30 0 0 30 0 0 30 0 0 30 0 0 30 0 0 30 0 0 30 0 0 30 0 0 30 0 0 30 0 0 30 0 0 30 0 0 30 0 0 30 0 0 30 0 0 30 0 0 30 0 0 30 0 0 30 0 0 30 0 0 30 0 0 30 0 0 30 0 0 30 0 0 30 0 0 30 0 0 30 0 0 30 0 0 30 0 0 30 0 0 30 0 0 30 0 0 30 0 0 30 0 0 30 0 0 30 0 0 30 0 0 30 0 0 30 0 0 30 0 0 30 0 0 30 0 0 30 0 0 30 0 0 30 0 0 30 0 0 30 0 0 30 0 0 30 0 0 30 0 0 30 0 0 30 0 0 30 0 0 30 0 0 30 0 0 30 0 0 30 0 0 30 0 0 30 0 0 30 0 0 30 0 0 30 0 0 30 0 0 30 0 0 30 0 0 30 0 0 30 0 0 30 0 0 30 0 0 30 0 0 30 0 0 30 0 0 30 0 0 30 0 0 30 0 0 30 0 0 30 0 0 30 0 0 30 0 0 30 0 0 30 0 0 30 0 0 30 0 0 30 0 0 30 0 0 30 0 0 30 0 0 30 0 0 30 0 0 30 0 0 30 0 0 30 0 0 30 0 0 30 0 0 30 0 0 30 0 0 30 0 0 30 0 0 30 0 0 30 0 0 30 0 0 30 0 0 30 0 0 30 0 0 30 0 0 30 0 0 30 0 0 30 0 0 30 0 0 30 0 0 30 0 0 30 0 0 30 0 0 30 0 0 30 0 0 30 0 0 30 0 0 30 0 0 30 
0 0 30 0 0 30 0 0 30 0 0 30 0 0 30 0 0 30 0 0 30 0 0 30 0 0 30 0 0 30 0 0 30 0 0 30 0 0 30 0 0 30 0 0 30 0 0 30 0 0 30 0 0 30 0 0 30 0 0 30 0 0 30 0 0 30 0 0 30 0 0 30 0 0 30 0 0 30 0 0 30 0 0 30 0 0 30 0 0 30 0 0 30 0 0 30 0 0 30 0 0 30 0 0 30 0 0 30 0 0 30 0 0 30 0 0 30 0 0 30 0 0 30 0 0 30 0 0 30 0 0 30 0 0 30 0 0 30 0 0 30 0 0 30 0 0 30 0 0 30 0 0 30 0 0 30 0 0 30 0 0 30 0 0 30 0 0 30 0 0 30 0 0 30 0 0 30 0 0 30 0 0 30 0 0 30 0 0 30 0 0 30 0 0 30 0 0 30 0 0 30 0 0 30 0 0 30 0 0 30 0 0 30 0 0 30 0 0 30 0 0 30 0 0 30 0 0 30 0 0 30 0 0 30 0 0 30 0 0 30 0 0 30 0 0 30 0 0 30 0 0 30 0 0 30 0 0 30 0 0 30 0 0 30 0 0 30 0 0 30 0 0 30 0 0 30 0 0 30 0 0 30 0 0 30 0 0 30 0 0 30 0 0 30 0 0 30 0 0 30 0 0 30 0 0 30 0 0 30 0 0 30 0 0 30 0 0 30 0 0 30 0 0 30 0 0 30 0 0 30 0 0 30 0 0 30 0 0 30 0 0 30 0 0 30 0 0 30 0 0 30 0 0 30 0 0 30 0 0 30 0 0 30 0 0 30 0 0 30 0 0 30 0 0 30 0 0 30 0 0 30 0 0 30 0 0 30 0 0 30 0 0 30 96 24 54 97 24 54 98 24 55 98 24 55 99 24 56 119 7 7 119 7 7 119 7 7 119 7 7 69 189 111 69 189 111 70 189 112 70 189 112 70 190 112 70 190 112 70 190 112 70 190 112 71 190 113 71 190 113 71 191 113 71 191 113 71 191 113 71 191 113 72 191 113 72 191 114 72 191 114 72 192 114 72 192 114 72 192 114 72 192 114 114 219 151 113 219 150 112 218 149 111 217 148 89 27 53 88 26 52 87 25 51 86 24 50 86 23 49 0 0 30 0 0 30 0 0 30 0 0 30 0 0 30 0 0 30 0 0 30 0 0 30 0 0 30 0 0 30 0 0 30 0 0 30 0 0 30 0 0 30 0 0 30 0 0 30 0 0 30 0 0 30 0 0 30 0 0 30 0 0 30 0 0 30 0 0 30 0 0 30 0 0 30 0 0 30 0 0 30 0 0 30 0 0 30 0 0 30 0 0 30 0 0 30 0 0 30 0 0 30 0 0 30 0 0 30 0 0 30 0 0 30 0 0 30 0 0 30 0 0 30 0 0 30 0 0 30 0 0 30 0 0 30 0 0 30 0 0 30 0 0 30 0 0 30 0 0 30 0 0 30 0 0 30 0 0 30 0 0 30 0 0 30 0 0 30 0 0 30 0 0 30 0 0 30 0 0 30 0 0 30 0 0 30 0 0 30 0 0 30 0 0 30 0 0 30 0 0 30 0 0 30 0 0 30 0 0 30 0 0 30 0 0 30 0 0 30 0 0 30 0 0 30 0 0 30 0 0 30 0 0 30 0 0 30 0 0 30 0 0 30 0 0 30 0 0 30 0 0 30 0 0 30 0 0 30 0 0 30 0 0 30 0 0 30 0 0 30 0 0 30 0 0 30 0 0 30 0 0 30 0 0 30 0 0 30 0 0 30 0 0 30 0 0 30 0 0 30 0 0 30 0 0 30 0 0 30 0 0 30 0 0 30 0 0 30 0 0 30 0 0 30 0 0 30 0 0 30 0 0 30 0 0 30 0 0 30 0 0 30 0 0 30 0 0 30 0 0 30 0 0 30 0 0 30 0 0 30 0 0 30 0 0 30 0 0 30 0 0 30 0 0 30 0 0 30 0 0 30 0 0 30 0 0 30 0 0 30 
0 0 30 0 0 30 0 0 30 0 0 30 0 0 30 0 0 30 0 0 30 0 0 30 0 0 30 0 0 30 0 0 30 0 0 30 0 0 30 0 0 30 0 0 30 0 0 30 0 0 30 0 0 30 0 0 30 0 0 30 0 0 30 0 0 30 0 0 30 0 0 30 0 0 30 0 0 30 0 0 30 0 0 30 0 0 30 0 0 30 0 0 30 0 0 30 0 0 30 0 0 30 0 0 30 0 0 30 0 0 30 0 0 30 0 0 30 0 0 30 0 0 30 0 0 30 0 0 30 0 0 30 0 0 30 0 0 30 0 0 30 0 0 30 0 0 30 0 0 30 0 0 30 0 0 30 0 0 30 0 0 30 0 0 30 0 0 30 0 0 30 0 0 30 0 0 30 0 0 30 0 0 30 0 0 30 0 0 30 0 0 30 0 0 30 0 0 30 0 0 30 0 0 30 0 0 30 0 0 30 0 0 30 0 0 30 0 0 30 0 0 30 0 0 30 0 0 30 0 0 30 0 0 30 0 0 30 0 0 30 0 0 30 0 0 30 0 0 30 0 0 30 0 0 30 0 0 30 0 0 30 0 0 30 0 0 30 0 0 30 0 0 30 0 0 30 0 0 30 0 0 30 0 0 30 0 0 30 0 0 30 0 0 30 0 0 30 0 0 30 0 0 30 0 0 30 0 0 30 0 0 30 0 0 30 0 0 30 0 0 30 0 0 30 0 0 30 0 0 30 0 0 30 0 0 30 0 0 30 0 0 30 0 0 30 0 0 30 0 0 30 0 0 30 0 0 30 0 0 30 0 0 30 0 0 30 0 0 30 0 0 30 0 0 30 0 0 30 0 0 30 0 0 30 0 0 30 0 0 30 0 0 30 96 24 54 97 24 54 98 24 55 98 24 55 99 24 56 119 7 7 119 7 7 119 7 7 120 7 7 70 189 112 70 190 112 70 190 112 70 190 112 70 190 112 70 190 112 71 190 113 71 190 113 71 191 113 71 191 113 71 191 113 71 191 113 72 191 113 72 191 114 72 191 114 72 192 114 72 192 114 72 192 114 72 192 114 72 192 114 73 192 114 114 219 151 113 218 150 112 218 149 111 217 148 88 26 52 88 25 51 87 25 50 86 24 50 85 23 49 0 0 30 0 0 30 0 0 30 0 0 30 0 0 30 0 0 30 0 0 30 0 0 30 0 0 30 0 0 30 0 0 30 0 0 30 0 0 30 0 0 30 0 0 30 0 0 30 0 0 30 0 0 30 0 0 30 0 0 30 0 0 30 0 0 30 0 0 30 0 0 30 0 0 30 0 0 30 0 0 30 0 0 30 0 0 30 0 0 30 0 0 30 0 0 30 0 0 30 0 0 30 0 0 30 0 0 30 0 0 30 0 0 30 0 0 30 0 0 30 0 0 30 0 0 30 0 0 30 0 0 30 0 0 30 0 0 30 0 0 30 0 0 30 0 0 30 0 0 30 0 0 30 0 0 30 0 0 30 0 0 30 0 0 30 0 0 30 0 0 30 0 0 30 0 0 30 0 0 30 0 0 30 0 0 30 0 0 30 0 0 30 0 0 30 0 0 30 0 0 30 0 0 30 0 0 30 0 0 30 0 0 30 0 0 30 0 0 30 0 0 30 0 0 30 0 0 30 0 0 30 0 0 30 0 0 30 0 0 30 0 0 30 0 0 30 0 0 30 0 0 30 0 0 30 0 0 30 0 0 30 0 0 30 0 0 30 0 0 30 0 0 30 0 0 30 0 0 30 0 0 30 0 0 30 0 0 30 0 0 30 0 0 30 0 0 30 0 0 30 0 0 30 0 0 30 0 0 30 0 0 30 0 0 30 0 0 30 0 0 30 0 0 30 0 0 30 0 0 30 0 0 30 0 0 30 0 0 30 0 0 30 0 0 30 0 0 30 0 0 30 0 0 30 0 0 30 0 0 30 0 0 30 0 0 30 0 0 30 0 0 30 0 0 30 0 0 30 0 0 30 0 0 30 0 0 30 0 0 30 
0 0 30 0 0 30 0 0 30 0 0 30 0 0 30 0 0 30 0 0 30 0 0 30 0 0 30 0 0 30 0 0 30 0 0 30 0 0 30 0 0 30 0 0 30 0 0 30 0 0 30 0 0 30 0 0 30 0 0 30 0 0 30 0 0 30 0 0 30 0 0 30 0 0 30 0 0 30 0 0 30 0 0 30 0 0 30 0 0 30 0 0 30 0 0 30 0 0 30 0 0 30 0 0 30 0 0 30 0 0 30 0 0 30 0 0 30 0 0 30 0 0 30 0 0 30 0 0 30 0 0 30 0 0 30 0 0 30 0 0 30 0 0 30 0 0 30 0 0 30 0 0 30 0 0 30 0 0 30 0 0 30 0 0 30 0 0 30 0 0 30 0 0 30 0 0 30 0 0 30 0 0 30 0 0 30 0 0 30 0 0 30 0 0 30 0 0 30 0 0 30 0 0 30 0 0 30 0 0 30 0 0 30 0 0 30 0 0 30 0 0 30 0 0 30 0 0 30 0 0 30 0 0 30 0 0 30 0 0 30 0 0 30 0 0 30 0 0 30 0 0 30 0 0 30 0 0 30 0 0 30 0 0 30 0 0 30 0 0 30 0 0 30 0 0 30 0 0 30 0 0 30 0 0 30 0 0 30 0 0 30 0 0 30 0 0 30 0 0 30 0 0 30 0 0 30 0 0 30 0 0 30 0 0 30 0 0 30 0 0 30 0 0 30 0 0 30 0 0 30 0 0 30 0 0 30 0 0 30 0 0 30 0 0 30 0 0 30 0 0 30 0 0 30 0 0 30 0 0 30 0 0 30 0 0 30 0 0 30 0 0 30 0 0 30 0 0 30 0 0 30 0 0 30 0 0 30 0 0 30 0 0 30 96 24 54 97 24 54 98 24 55 99 24 55 99 24 56 100 25 56 119 7 7 120 7 7 70 190 112 70 190 112 70 190 112 70 190 112 71 190 112 71 190 113 71 191 113 71 191 113 71 191 113 71 191 113 71 191 113 72 191 113 72 191 114 72 191 114 72 192 114 72 192 114 72 192 114 72 192 114 72 192 114 73 192 114 73 192 115 73 192 115 73 192 115 113 218 150 112 218 149 89 27 53 88 26 52 87 25 51 86 24 50 85 23 49 85 23 48 0 0 30 0 0 30 0 0 30 0 0 30 0 0 30 0 0 30 0 0 30 0 0 30 0 0 30 0 0 30 0 0 30 0 0 30 0 0 30 0 0 30 0 0 30 0 0 30 0 0 30 0 0 30 0 0 30 0 0 30 0 0 30 0 0 30 0 0 30 0 0 30 0 0 30 0 0 30 0 0 30 0 0 30 0 0 30 0 0 30 0 0 30 0 0 30 0 0 30 0 0 30 0 0 30 0 0 30 0 0 30 0 0 30 0 0 30 0 0 30 0 0 30 0 0 30 0 0 30 0 0 30 0 0 30 0 0 30 0 0 30 0 0 30 0 0 30 0 0 30 0 0 30 0 0 30 0 0 30 0 0 30 0 0 30 0 0 30 0 0 30 0 0 30 0 0 30 0 0 30 0 0 30 0 0 30 0 0 30 0 0 30 0 0 30 0 0 30 0 0 30 0 0 30 0 0 30 0 0 30 0 0 30 0 0 30 0 0 30 0 0 30 0 0 30 0 0 30 0 0 30 0 0 30 0 0 30 0 0 30 0 0 30 0 0 30 0 0 30 0 0 30 0 0 30 0 0 30 0 0 30 0 0 30 0 0 30 0 0 30 0 0 30 0 0 30 0 0 30 0 0 30 0 0 30 0 0 30 0 0 30 0 0 30 0 0 30 0 0 30 0 0 30 0 0 30 0 0 30 0 0 30 0 0 30 0 0 30 0 0 30 0 0 30 0 0 30 0 0 30 0 0 30 0 0 30 0 0 30 0 0 30 0 0 30 0 0 30 0 0 30 0 0 30 0 0 30 0 0 30 0 0 30 0 0 30 0 0 30 0 0 30 0 0 30 0 0 30 0 0 30 0 0 30 0 0 30 0 0 30 
0 0 30 0 0 30 0 0 30 0 0 30 0 0 30 0 0 30 0 0 30 0 0 30 0 0 30 0 0 30 0 0 30 0 0 30 0 0 30 0 0 30 0 0 30 0 0 30 0 0 30 0 0 30 0 0 30 0 0 30 0 0 30 0 0 30 0 0 30 0 0 30 0 0 30 0 0 30 0 0 30 0 0 30 0 0 30 0 0 30 0 0 30 0 0 30 0 0 30 0 0 30 0 0 30 0 0 30 0 0 30 0 0 30 0 0 30 0 0 30 0 0 30 0 0 30 0 0 30 0 0 30 0 0 30 0 0 30 0 0 30 0 0 30 0 0 30 0 0 30 0 0 30 0 0 30 0 0 30 0 0 30 0 0 30 0 0 30 0 0 30 0 0 30 0 0 30 0 0 30 0 0 30 0 0 30 0 0 30 0 0 30 0 0 30 0 0 30 0 0 30 0 0 30 0 0 30 0 0 30 0 0 30 0 0 30 0 0 30 0 0 30 0 0 30 0 0 30 0 0 30 0 0 30 0 0 30 0 0 30 0 0 30 0 0 30 0 0 30 0 0 30 0 0 30 0 0 30 0 0 30 0 0 30 0 0 30 0 0 30 0 0 30 0 0 30 0 0 30 0 0 30 0 0 30 0 0 30 0 0 30 0 0 30 0 0 30 0 0 30 0 0 30 0 0 30 0 0 30 0 0 30 0 0 30 0 0 30 0 0 30 0 0 30 0 0 30 0 0 30 0 0 30 0 0 30 0 0 30 0 0 30 0 0 30 0 0 30 0 0 30 0 0 30 0 0 30 0 0 30 0 0 30 0 0 30 0 0 30 0 0 30 0 0 30 0 0 30 0 0 30 0 0 30 0 0 30 0 0 30 0 0 30 96 24 54 97 24 54 98 24 55 99 24 55 99 24 56 100 25 56 120 7 7 70 190 112 70 190 112 70 190 112 71 190 113 71 190 113 71 191 113 71 191 113 71 191 113 71 191 113 71 191 113 72 191 114 72 191 114 72 191 114 72 192 114 72 192 114 72 192 114 72 192 114 72 192 114 73 192 114 73 192 115 73 192 115 73 192 115 73 193 115 73 193 115 73 193 115 112 217 149 88 27 52 87 26 51 86 25 50 86 24 50 85 23 49 84 22 48 0 0 30 0 0 30 0 0 30 0 0 30 0 0 30 0 0 30 0 0 30 0 0 30 0 0 30 0 0 30 0 0 30 0 0 30 0 0 30 0 0 30 0 0 30 0 0 30 0 0 30 0 0 30 0 0 30 0 0 30 0 0 30 0 0 30 0 0 30 0 0 30 0 0 30 0 0 30 0 0 30 0 0 30 0 0 30 0 0 30 0 0 30 0 0 30 0 0 30 0 0 30 0 0 30 0 0 30 0 0 30 0 0 30 0 0 30 0 0 30 0 0 30 0 0 30 0 0 30 0 0 30 0 0 30 0 0 30 0 0 30 0 0 30 0 0 30 0 0 30 0 0 30 0 0 30 0 0 30 0 0 30 0 0 30 0 0 30 0 0 30 0 0 30 0 0 30 0 0 30 0 0 30 0 0 30 0 0 30 0 0 30 0 0 30 0 0 30 0 0 30 0 0 30 0 0 30 0 0 30 0 0 30 0 0 30 0 0 30 0 0 30 0 0 30 0 0 30 0 0 30 0 0 30 0 0 30 0 0 30 0 0 30 0 0 30 0 0 30 0 0 30 0 0 30 0 0 30 0 0 30 0 0 30 0 0 30 0 0 30 0 0 30 0 0 30 0 0 30 0 0 30 0 0 30 0 0 30 0 0 30 0 0 30 0 0 30 0 0 30 0 0 30 0 0 30 0 0 30 0 0 30 0 0 30 0 0 30 0 0 30 0 0 30 0 0 30 0 0 30 0 0 30 0 0 30 0 0 30 0 0 30 0 0 30 0 0 30 0 0 30 0 0 30 0 0 30 0 0 30 0 0 30 0 0 30 0 0 30 0 0 30 0 0 30 0 0 30 0 0 30 0 0 30 0 0 30 0 0 30 
0 0 30 0 0 30 0 0 30 0 0 30 0 0 30 0 0 30 0 0 30 0 0 30 0 0 30 0 0 30 0 0 30 0 0 30 0 0 30 0 0 30 0 0 30 0 0 30 0 0 30 0 0 30 0 0 30 0 0 30 0 0 30 0 0 30 0 0 30 0 0 30 0 0 30 0 0 30 0 0 30 0 0 30 0 0 30 0 0 30 0 0 30 0 0 30 0 0 30 0 0 30 0 0 30 0 0 30 0 0 30 0 0 30 0 0 30 0 0 30 0 0 30 0 0 30 0 0 30 0 0 30 0 0 30 0 0 30 0 0 30 0 0 30 0 0 30 0 0 30 0 0 30 0 0 30 0 0 30 0 0 30 0 0 30 0 0 30 0 0 30 0 0 30 0 0 30 0 0 30 0 0 30 0 0 30 0 0 30 0 0 30 0 0 30 0 0 30 0 0 30 0 0 30 0 0 30 0 0 30 0 0 30 0 0 30 0 0 30 0 0 30 0 0 30 0 0 30 0 0 30 0 0 30 0 0 30 0 0 30 0 0 30 0 0 30 0 0 30 0 0 30 0 0 30 0 0 30 0 0 30 0 0 30 0 0 30 0 0 30 0 0 30 0 0 30 0 0 30 0 0 30 0 0 30 0 0 30 0 0 30 0 0 30 0 0 30 0 0 30 0 0 30 0 0 30 0 0 30 0 0 30 0 0 30 0 0 30 0 0 30 0 0 30 0 0 30 0 0 30 0 0 30 0 0 30 0 0 30 0 0 30 0 0 30 0 0 30 0 0 30 0 0 30 0 0 30 0 0 30 0 0 30 0 0 30 0 0 30 0 0 30 0 0 30 0 0 30 0 0 30 0 0 30 0 0 30 0 0 30 0 0 30 96 24 54 97 24 54 98 24 55 99 24 55 100 25 56 100 25 56 120 7 7 71 190 113 71 191 113 71 191 113 71 191 113 71 191 113 71 191 113 71 191 113 71 191 113 72 191 114 72 191 114 72 192 114 72 192 114 72 192 114 72 192 114 72 192 114 72 192 114 73 192 114 73 192 115 73 192 115 73 192 115 73 193 115 73 193 115 73 193 115 73 193 115 73 193 115 113 217 149 87 26 52 87 25 51 86 24 50 85 24 49 84 23 48 83 22 48 0 0 30 0 0 30 0 0 30 0 0 30 0 0 30 0 0 30 0 0 30 0 0 30 0 0 30 0 0 30 0 0 30 0 0 30 0 0 30 0 0 30 0 0 30 0 0 30 0 0 30 0 0 30 0 0 30 0 0 30 0 0 30 0 0 30 0 0 30 0 0 30 0 0 30 0 0 30 0 0 30 0 0 30 0 0 30 0 0 30 0 0 30 0 0 30 0 0 30 0 0 30 0 0 30 0 0 30 0 0 30 0 0 30 0 0 30 0 0 30 0 0 30 0 0 30 0 0 30 0 0 30 0 0 30 0 0 30 0 0 30 0 0 30 0 0 30 0 0 30 0 0 30 0 0 30 0 0 30 0 0 30 0 0 30 0 0 30 0 0 30 0 0 30 0 0 30 0 0 30 0 0 30 0 0 30 0 0 30 0 0 30 0 0 30 0 0 30 0 0 30 0 0 30 0 0 30 0 0 30 0 0 30 0 0 30 0 0 30 0 0 30 0 0 30 0 0 30 0 0 30 0 0 30 0 0 30 0 0 30 0 0 30 0 0 30 0 0 30 0 0 30 0 0 30 0 0 30 0 0 30 0 0 30 0 0 30 0 0 30 0 0 30 0 0 30 0 0 30 0 0 30 0 0 30 0 0 30 0 0 30 0 0 30 0 0 30 0 0 30 0 0 30 0 0 30 0 0 30 0 0 30 0 0 30 0 0 30 0 0 30 0 0 30 0 0 30 0 0 30 0 0 30 0 0 30 0 0 30 0 0 30 0 0 30 0 0 30 0 0 30 0 0 30 0 0 30 0 0 30 0 0 30 0 0 30 0 0 30 0 0 30 0 0 30 0 0 30 0 0 30 0 0 30 0 0 30 0 0 30 
0 0 30 0 0 30 0 0 30 0 0 30 0 0 30 0 0 30 0 0 30 0 0 30 0 0 30 0 0 30 0 0 30 0 0 30 0 0 30 0 0 30 0 0 30 0 0 30 0 0 30 0 0 30 0 0 30 0 0 30 0 0 30 0 0 30 0 0 30 0 0 30 0 0 30 0 0 30 0 0 30 0 0 30 0 0 30 0 0 30 0 0 30 0 0 30 0 0 30 0 0 30 0 0 30 0 0 30 0 0 30 0 0 30 0 0 30 0 0 30 0 0 30 0 0 30 0 0 30 0 0 30 0 0 30 0 0 30 0 0 30 0 0 30 0 0 30 0 0 30 0 0 30 0 0 30 0 0 30 0 0 30 0 0 30 0 0 30 0 0 30 0 0 30 0 0 30 0 0 30 0 0 30 0 0 30 0 0 30 0 0 30 0 0 30 0 0 30 0 0 30 0 0 30 0 0 30 0 0 30 0 0 30 0 0 30 0 0 30 0 0 30 0 0 30 0 0 30 0 0 30 0 0 30 0 0 30 0 0 30 0 0 30 0 0 30 0 0 30 0 0 30 0 0 30 0 0 30 0 0 30 0 0 30 0 0 30 0 0 30 0 0 30 0 0 30 0 0 30 0 0 30 0 0 30 0 0 30 0 0 30 0 0 30 0 0 30 0 0 30 0 0 30 0 0 30 0 0 30 0 0 30 0 0 30 0 0 30 0 0 30 0 0 30 0 0 30 0 0 30 0 0 30 0 0 30 0 0 30 0 0 30 0 0 30 0 0 30 0 0 30 0 0 30 0 0 30 0 0 30 0 0 30 0 0 30 0 0 30 0 0 30 0 0 30 0 0 30 0 0 30 0 0 30 0 0 30 0 0 30 0 0 30 97 24 54 97 24 55 98 24 55 99 24 55 100 25 56 100 25 56 136 34 76 92 202 130 91 202 130 91 201 129 90 201 129 90 200 128 89 199 128 89 199 127 88 198 127 88 197 126 87 197 126 87 196 125 86 195 124 86 195 124 85 194 123 85 193 123 84 193 122 83 192 121 83 191 121 82 190 120 82 190 120 81 189 119 81 188 118 80 188 118 80 187 117 79 186 117 74 4 4 87 26 51 86 25 50 85 24 50 84 23 49 84 23 48 83 22 47 0 0 30 0 0 30 0 0 30 0 0 30 0 0 30 0 0 30 0 0 30 0 0 30 0 0 30 0 0 30 0 0 30 0 0 30 0 0 30 0 0 30 0 0 30 0 0 30 0 0 30 0 0 30 0 0 30 0 0 30 0 0 30 0 0 30 0 0 30 0 0 30 0 0 30 0 0 30 0 0 30 0 0 30 0 0 30 0 0 30 0 0 30 0 0 30 0 0 30 0 0 30 0 0 30 0 0 30 0 0 30 0 0 30 0 0 30 0 0 30 0 0 30 0 0 30 0 0 30 0 0 30 0 0 30 0 0 30 0 0 30 0 0 30 0 0 30 0 0 30 0 0 30 0 0 30 0 0 30 0 0 30 0 0 30 0 0 30 0 0 30 0 0 30 0 0 30 0 0 30 0 0 30 0 0 30 0 0 30 0 0 30 0 0 30 0 0 30 0 0 30 0 0 30 0 0 30 0 0 30 0 0 30 0 0 30 0 0 30 0 0 30 0 0 30 0 0 30 0 0 30 0 0 30 0 0 30 0 0 30 0 0 30 0 0 30 0 0 30 0 0 30 0 0 30 0 0 30 0 0 30 0 0 30 0 0 30 0 0 30 0 0 30 0 0 30 0 0 30 0 0 30 0 0 30 0 0 30 0 0 30 0 0 30 0 0 30 0 0 30 0 0 30 0 0 30 0 0 30 0 0 30 0 0 30 0 0 30 0 0 30 0 0 30 0 0 30 0 0 30 0 0 30 0 0 30 0 0 30 0 0 30 0 0 30 0 0 30 0 0 30 0 0 30 0 0 30 0 0 30 0 0 30 0 0 30 0 0 30 0 0 30 0 0 30 0 0 30 0 0 30 0 0 30 0 0 30 0 0 30 
0 0 30 0 0 30 0 0 30 0 0 30 0 0 30 0 0 30 0 0 30 0 0 30 0 0 30 0 0 30 0 0 30 0 0 30 0 0 30 0 0 30 0 0 30 0 0 30 0 0 30 0 0 30 0 0 30 0 0 30 0 0 30 0 0 30 0 0 30 0 0 30 0 0 30 0 0 30 0 0 30 0 0 30 0 0 30 0 0 30 0 0 30 0 0 30 0 0 30 0 0 30 0 0 30 0 0 30 0 0 30 0 0 30 0 0 30 0 0 30 0 0 30 0 0 30 0 0 30 0 0 30 0 0 30 0 0 30 0 0 30 0 0 30 0 0 30 0 0 30 0 0 30 0 0 30 0 0 30 0 0 30 0 0 30 0 0 30 0 0 30 0 0 30 0 0 30 0 0 30 0 0 30 0 0 30 0 0 30 0 0 30 0 0 30 0 0 30 0 0 30 0 0 30 0 0 30 0 0 30 0 0 30 0 0 30 0 0 30 0 0 30 0 0 30 0 0 30 0 0 30 0 0 30 0 0 30 0 0 30 0 0 30 0 0 30 0 0 30 0 0 30 0 0 30 0 0 30 0 0 30 0 0 30 0 0 30 0 0 30 0 0 30 0 0 30 0 0 30 0 0 30 0 0 30 0 0 30 0 0 30 0 0 30 0 0 30 0 0 30 0 0 30 0 0 30 0 0 30 0 0 30 0 0 30 0 0 30 0 0 30 0 0 30 0 0 30 0 0 30 0 0 30 0 0 30 0 0 30 0 0 30 0 0 30 0 0 30 0 0 30 0 0 30 0 0 30 0 0 30 0 0 30 0 0 30 0 0 30 0 0 30 0 0 30 0 0 30 0 0 30 0 0 30 0 0 30 0 0 30 0 0 30 97 24 54 97 24 55 98 24 55 99 24 55 100 25 56 100 25 56 135 34 76 136 34 76 90 201 129 90 200 129 89 200 128 89 199 128 88 199 127 88 198 126 87 197 126 87 197 125 86 196 125 86 195 124 85 195 124 85 194 123 84 193 123 84 193 122 83 192 121 83 191 121 82 190 120 82 190 120 81 189 119 81 188 118 80 188 118 80 187 117 79 186 117 74 4 4 74 4 4 86 26 51 85 25 50 85 24 49 84 23 48 83 22 48 82 22 47 0 0 30 0 0 30 0 0 30 0 0 30 0 0 30 0 0 30 0 0 30 0 0 30 0 0 30 0 0 30 0 0 30 0 0 30 0 0 30 0 0 30 0 0 30 0 0 30 0 0 30 0 0 30 0 0 30 0 0 30 0 0 30 0 0 30 0 0 30 0 0 30 0 0 30 0 0 30 0 0 30 0 0 30 0 0 30 0 0 30 0 0 30 0 0 30 0 0 30 0 0 30 0 0 30 0 0 30 0 0 30 0 0 30 0 0 30 0 0 30 0 0 30 0 0 30 0 0 30 0 0 30 0 0 30 0 0 30 0 0 30 0 0 30 0 0 30 0 0 30 0 0 30 0 0 30 0 0 30 0 0 30 0 0 30 0 0 30 0 0 30 0 0 30 0 0 30 0 0 30 0 0 30 0 0 30 0 0 30 0 0 30 0 0 30 0 0 30 0 0 30 0 0 30 0 0 30 0 0 30 0 0 30 0 0 30 0 0 30 0 0 30 0 0 30 0 0 30 0 0 30 0 0 30 0 0 30 0 0 30 0 0 30 0 0 30 0 0 30 0 0 30 0 0 30 0 0 30 0 0 30 0 0 30 0 0 30 0 0 30 0 0 30 0 0 30 0 0 30 0 0 30 0 0 30 0 0 30 0 0 30 0 0 30 0 0 30 0 0 30 0 0 30 0 0 30 0 0 30 0 0 30 0 0 30 0 0 30 0 0 30 0 0 30 0 0 30 0 0 30 0 0 30 0 0 30 0 0 30 0 0 30 0 0 30 0 0 30 0 0 30 0 0 30 0 0 30 0 0 30 0 0 30 0 0 30 0 0 30 0 0 30 0 0 30 0 0 30 0 0 30 0 0 30 0 0 30 0 0 30 
0 0 30 0 0 30 0 0 30 0 0 30 0 0 30 0 0 30 0 0 30 0 0 30 0 0 30 0 0 30 0 0 30 0 0 30 0 0 30 0 0 30 0 0 30 0 0 30 0 0 30 0 0 30 0 0 30 0 0 30 0 0 30 0 0 30 0 0 30 0 0 30 0 0 30 0 0 30 0 0 30 0 0 30 0 0 30 0 0 30 0 0 30 0 0 30 0 0 30 0 0 30 0 0 30 0 0 30 0 0 30 0 0 30 0 0 30 0 0 30 0 0 30 0 0 30 0 0 30 0 0 30 0 0 30 0 0 30 0 0 30 0 0 30 0 0 30 0 0 30 0 0 30 0 0 30 0 0 30 0 0 30 0 0 30 0 0 30 0 0 30 0 0 30 0 0 30 0 0 30 0 0 30 0 0 30 0 0 30 0 0 30 0 0 30 0 0 30 0 0 30 0 0 30 0 0 30 0 0 30 0 0 30 0 0 30 0 0 30 0 0 30 0 0 30 0 0 30 0 0 30 0 0 30 0 0 30 0 0 30 0 0 30 0 0 30 0 0 30 0 0 30 0 0 30 0 0 30 0 0 30 0 0 30 0 0 30 0 0 30 0 0 30 0 0 30 0 0 30 0 0 30 0 0 30 0 0 30 0 0 30 0 0 30 0 0 30 0 0 30 0 0 30 0 0 30 0 0 30 0 0 30 0 0 30 0 0 30 0 0 30 0 0 30 0 0 30 0 0 30 0 0 30 0 0 30 0 0 30 0 0 30 0 0 30 0 0 30 0 0 30 0 0 30 0 0 30 0 0 30 0 0 30 0 0 30 0 0 30 0 0 30 0 0 30 0 0 30 0 0 30 0 0 30 0 0 30 0 0 30 0 0 30 97 24 54 98 24 55 98 24 55 99 24 56 100 25 56 135 33 76 135 33 76 135 34 76 90 200 128 89 200 128 89 199 127 88 198 127 88 198 126 87 197 126 87 197 125 86 196 125 86 195 124 85 195 124 85 194 123 84 193 122 84 193 122 83 192 121 83 191 121 82 190 120 82 190 120 81 189 119 80 188 118 80 188 118 79 187 117 79 186 116 78 186 116 74 4 4 74 4 4 73 4 4 85 24 50 84 24 49 83 23 48 83 22 47 82 21 47 0 0 30 0 0 30 0 0 30 0 0 30 0 0 30 0 0 30 0 0 30 0 0 30 0 0 30 0 0 30 0 0 30 0 0 30 0 0 30 0 0 30 0 0 30 0 0 30 0 0 30 0 0 30 0 0 30 0 0 30 0 0 30 0 0 30 0 0 30 0 0 30 0 0 30 0 0 30 0 0 30 0 0 30 0 0 30 0 0 30 0 0 30 0 0 30 0 0 30 0 0 30 0 0 30 0 0 30 0 0 30 0 0 30 0 0 30 0 0 30 0 0 30 0 0 30 0 0 30 0 0 30 0 0 30 0 0 30 0 0 30 0 0 30 0 0 30 0 0 30 0 0 30 0 0 30 0 0 30 0 0 30 0 0 30 0 0 30 0 0 30 0 0 30 0 0 30 0 0 30 0 0 30 0 0 30 0 0 30 0 0 30 0 0 30 0 0 30 0 0 30 0 0 30 0 0 30 0 0 30 0 0 30 0 0 30 0 0 30 0 0 30 0 0 30 0 0 30 0 0 30 0 0 30 0 0 30 0 0 30 0 0 30 0 0 30 0 0 30 0 0 30 0 0 30 0 0 30 0 0 30 0 0 30 0 0 30 0 0 30 0 0 30 0 0 30 0 0 30 0 0 30 0 0 30 0 0 30 0 0 30 0 0 30 0 0 30 0 0 30 0 0 30 0 0 30 0 0 30 0 0 30 0 0 30 0 0 30 0 0 30 0 0 30 0 0 30 0 0 30 0 0 30 0 0 30 0 0 30 0 0 30 0 0 30 0 0 30 0 0 30 0 0 30 0 0 30 0 0 30 0 0 30 0 0 30 0 0 30 0 0 30 0 0 30 0 0 30 0 0 30 0 0 30 0 0 30 0 0 30 
0 0 30 0 0 30 0 0 30 0 0 30 0 0 30 0 0 30 0 0 30 0 0 30 0 0 30 0 0 30 0 0 30 0 0 30 0 0 30 0 0 30 0 0 30 0 0 30 0 0 30 0 0 30 0 0 30 0 0 30 0 0 30 0 0 30 0 0 30 0 0 30 0 0 30 0 0 30 0 0 30 0 0 30 0 0 30 0 0 30 0 0 30 0 0 30 0 0 30 0 0 30 0 0 30 0 0 30 0 0 30 0 0 30 0 0 30 0 0 30 0 0 30 0 0 30 0 0 30 0 0 30 0 0 30 0 0 30 0 0 30 0 0 30 0 0 30 0 0 30 0 0 30 0 0 30 0 0 30 0 0 30 0 0 30 0 0 30 0 0 30 0 0 30 0 0 30 0 0 30 0 0 30 0 0 30 0 0 30 0 0 30 0 0 30 0 0 30 0 0 30 0 0 30 0 0 30 0 0 30 0 0 30 0 0 30 0 0 30 0 0 30 0 0 30 0 0 30 0 0 30 0 0 30 0 0 30 0 0 30 0 0 30 0 0 30 0 0 30 0 0 30 0 0 30 0 0 30 0 0 30 0 0 30 0 0 30 0 0 30 0 0 30 0 0 30 0 0 30 0 0 30 0 0 30 0 0 30 0 0 30 0 0 30 0 0 30 0 0 30 0 0 30 0 0 30 0 0 30 0 0 30 0 0 30 0 0 30 0 0 30 0 0 30 0 0 30 0 0 30 0 0 30 0 0 30 0 0 30 0 0 30 0 0 30 0 0 30 0 0 30 0 0 30 0 0 30 0 0 30 0 0 30 0 0 30 0 0 30 0 0 30 0 0 30 0 0 30 0 0 30 0 0 30 0 0 30 0 0 30 0 0 30 97 24 54 98 24 55 98 24 55 99 24 56 134 33 75 134 33 75 135 33 76 135 33 76 135 34 76 88 199 127 88 198 127 87 198 126 87 197 126 86 196 125 86 196 124 86 195 124 85 194 123 85 194 123 84 193 122 84 193 122 83 192 121 82 191 121 82 190 120 81 190 119 81 189 119 80 188 118 80 188 118 79 187 117 79 186 116 78 186 116 74 4 4 74 4 4 73 4 4 73 4 4 73 4 4 83 23 48 83 23 48 82 22 47 81 21 46 0 0 30 0 0 30 0 0 30 0 0 30 0 0 30 0 0 30 0 0 30 0 0 30 0 0 30 0 0 30 0 0 30 0 0 30 0 0 30 0 0 30 0 0 30 0 0 30 0 0 30 0 0 30 0 0 30 0 0 30 0 0 30 0 0 30 0 0 30 0 0 30 0 0 30 0 0 30 0 0 30 0 0 30 0 0 30 0 0 30 0 0 30 0 0 30 0 0 30 0 0 30 0 0 30 0 0 30 0 0 30 0 0 30 0 0 30 0 0 30 0 0 30 0 0 30 0 0 30 0 0 30 0 0 30 0 0 30 0 0 30 0 0 30 0 0 30 0 0 30 0 0 30 0 0 30 0 0 30 0 0 30 0 0 30 0 0 30 0 0 30 0 0 30 0 0 30 0 0 30 0 0 30 0 0 30 0 0 30 0 0 30 0 0 30 0 0 30 0 0 30 0 0 30 0 0 30 0 0 30 0 0 30 0 0 30 0 0 30 0 0 30 0 0 30 0 0 30 0 0 30 0 0 30 0 0 30 0 0 30 0 0 30 0 0 30 0 0 30 0 0 30 0 0 30 0 0 30 0 0 30 0 0 30 0 0 30 0 0 30 0 0 30 0 0 30 0 0 30 0 0 30 0 0 30 0 0 30 0 0 30 0 0 30 0 0 30 0 0 30 0 0 30 0 0 30 0 0 30 0 0 30 0 0 30 0 0 30 0 0 30 0 0 30 0 0 30 0 0 30 0 0 30 0 0 30 0 0 30 0 0 30 0 0 30 0 0 30 0 0 30 0 0 30 0 0 30 0 0 30 0 0 30 0 0 30 0 0 30 0 0 30 0 0 30 0 0 30 0 0 30 0 0 30 0 0 30 0 0 30 
0 0 30 0 0 30 0 0 30 0 0 30 0 0 30 0 0 30 0 0 30 0 0 30 0 0 30 0 0 30 0 0 30 0 0 30 0 0 30 0 0 30 0 0 30 0 0 30 0 0 30 0 0 30 0 0 30 0 0 30 0 0 30 0 0 30 0 0 30 0 0 30 0 0 30 0 0 30 0 0 30 0 0 30 0 0 30 0 0 30 0 0 30 0 0 30 0 0 30 0 0 30 0 0 30 0 0 30 0 0 30 0 0 30 0 0 30 0 0 30 0 0 30 0 0 30 0 0 30 0 0 30 0 0 30 0 0 30 0 0 30 0 0 30 0 0 30 0 0 30 0 0 30 0 0 30 0 0 30 0 0 30 0 0 30 0 0 30 0 0 30 0 0 30 0 0 30 0 0 30 0 0 30 0 0 30 0 0 30 0 0 30 0 0 30 0 0 30 0 0 30 0 0 30 0 0 30 0 0 30 0 0 30 0 0 30 0 0 30 0 0 30 0 0 30 0 0 30 0 0 30 0 0 30 0 0 30 0 0 30 0 0 30 0 0 30 0 0 30 0 0 30 0 0 30 0 0 30 0 0 30 0 0 30 0 0 30 0 0 30 0 0 30 0 0 30 0 0 30 0 0 30 0 0 30 0 0 30 0 0 30 0 0 30 0 0 30 0 0 30 0 0 30 0 0 30 0 0 30 0 0 30 0 0 30 0 0 30 0 0 30 0 0 30 0 0 30 0 0 30 0 0 30 0 0 30 0 0 30 0 0 30 0 0 30 0 0 30 0 0 30 0 0 30 0 0 30 0 0 30 0 0 30 0 0 30 0 0 30 0 0 30 0 0 30 0 0 30 0 0 30 0 0 30 0 0 30 0 0 30 0 0 30 97 24 54 98 24 55 98 24 55 133 33 75 134 33 75 134 33 75 134 33 75 135 33 75 135 33 76 135 34 76 87 198 126 87 197 125 86 196 125 86 196 124 85 195 124 85 194 123 84 194 123 84 193 122 83 192 122 83 192 121 82 191 120 82 190 120 81 190 119 81 189 119 80 188 118 80 188 118 79 187 117 79 186 116 78 186 116 74 4 4 74 4 4 74 4 4 73 4 4 73 4 4 73 4 4 72 4 4 82 22 47 82 22 47 81 21 46 0 0 30 0 0 30 0 0 30 0 0 30 0 0 30 0 0 30 0 0 30 0 0 30 0 0 30 0 0 30 0 0 30 0 0 30 0 0 30 0 0 30 0 0 30 0 0 30 0 0 30 0 0 30 0 0 30 0 0 30 0 0 30 0 0 30 0 0 30 0 0 30 0 0 30 0 0 30 0 0 30 0 0 30 0 0 30 0 0 30 0 0 30 0 0 30 0 0 30 0 0 30 0 0 30 0 0 30 0 0 30 0 0 30 0 0 30 0 0 30 0 0 30 0 0 30 0 0 30 0 0 30 0 0 30 0 0 30 0 0 30 0 0 30 0 0 30 0 0 30 0 0 30 0 0 30 0 0 30 0 0 30 0 0 30 0 0 30 0 0 30 0 0 30 0 0 30 0 0 30 0 0 30 0 0 30 0 0 30 0 0 30 0 0 30 0 0 30 0 0 30 0 0 30 0 0 30 0 0 30 0 0 30 0 0 30 0 0 30 0 0 30 0 0 30 0 0 30 0 0 30 0 0 30 0 0 30 0 0 30 0 0 30 0 0 30 0 0 30 0 0 30 0 0 30 0 0 30 0 0 30 0 0 30 0 0 30 0 0 30 0 0 30 0 0 30 0 0 30 0 0 30 0 0 30 0 0 30 0 0 30 0 0 30 0 0 30 0 0 30 0 0 30 0 0 30 0 0 30 0 0 30 0 0 30 0 0 30 0 0 30 0 0 30 0 0 30 0 0 30 0 0 30 0 0 30 0 0 30 0 0 30 0 0 30 0 0 30 0 0 30 0 0 30 0 0 30 0 0 30 0 0 30 0 0 30 0 0 30 0 0 30 0 0 30 0 0 30 0 0 30 0 0 30 0 0 30 0 0 30 
0 0 30 0 0 30 0 0 30 0 0 30 0 0 30 0 0 30 0 0 30 0 0 30 0 0 30 0 0 30 0 0 30 0 0 30 0 0 30 0 0 30 0 0 30 0 0 30 0 0 30 0 0 30 0 0 30 0 0 30 0 0 30 0 0 30 0 0 30 0 0 30 0 0 30 0 0 30 0 0 30 0 0 30 0 0 30 0 0 30 0 0 30 0 0 30 0 0 30 0 0 30 0 0 30 0 0 30 0 0 30 0 0 30 0 0 30 0 0 30 0 0 30 0 0 30 0 0 30 0 0 30 0 0 30 0 0 30 0 0 30 0 0 30 0 0 30 0 0 30 0 0 30 0 0 30 0 0 30 0 0 30 0 0 30 0 0 30 0 0 30 0 0 30 0 0 30 0 0 30 0 0 30 0 0 30 0 0 30 0 0 30 0 0 30 0 0 30 0 0 30 0 0 30 0 0 30 0 0 30 0 0 30 0 0 30 0 0 30 0 0 30 0 0 30 0 0 30 0 0 30 0 0 30 0 0 30 0 0 30 0 0 30 0 0 30 0 0 30 0 0 30 0 0 30 0 0 30 0 0 30 0 0 30 0 0 30 0 0 30 0 0 30 0 0 30 0 0 30 0 0 30 0 0 30 0 0 30 0 0 30 0 0 30 0 0 30 0 0 30 0 0 30 0 0 30 0 0 30 0 0 30 0 0 30 0 0 30 0 0 30 0 0 30 0 0 30 0 0 30 0 0 30 0 0 30 0 0 30 0 0 30 0 0 30 0 0 30 0 0 30 0 0 30 0 0 30 0 0 30 0 0 30 0 0 30 0 0 30 0 0 30 0 0 30 0 0 30 0 0 30 0 0 30 0 0 30 0 0 30 0 0 30 97 24 54 98 24 55 99 24 55 133 33 75 133 33 75 134 33 75 134 33 75 134 33 75 134 33 75 135 33 76 86 197 125 86 196 125 85 196 124 85 195 124 85 194 123 84 194 122 84 193 122 83 192 121 83 192 121 82 191 120 82 190 120 81 190 119 81 189 119 80 188 118 79 188 117 79 187 117 78 186 116 78 186 116 77 185 115 74 4 4 74 4 4 73 4 4 73 4 4 73 4 4 72 4 4 72 4 4 82 22 47 81 21 46 80 21 46 0 0 30 0 0 30 0 0 30 0 0 30 0 0 30 0 0 30 0 0 30 0 0 30 0 0 30 0 0 30 0 0 30 0 0 30 0 0 30 0 0 30 0 0 30 0 0 30 0 0 30 0 0 30 0 0 30 0 0 30 0 0 30 0 0 30 0 0 30 0 0 30 0 0 30 0 0 30 0 0 30 0 0 30 0 0 30 0 0 30 0 0 30 0 0 30 0 0 30 0 0 30 0 0 30 0 0 30 0 0 30 0 0 30 0 0 30 0 0 30 0 0 30 0 0 30 0 0 30 0 0 30 0 0 30 0 0 30 0 0 30 0 0 30 0 0 30 0 0 30 0 0 30 0 0 30 0 0 30 0 0 30 0 0 30 0 0 30 0 0 30 0 0 30 0 0 30 0 0 30 0 0 30 0 0 30 0 0 30 0 0 30 0 0 30 0 0 30 0 0 30 0 0 30 0 0 30 0 0 30 0 0 30 0 0 30 0 0 30 0 0 30 0 0 30 0 0 30 0 0 30 0 0 30 0 0 30 0 0 30 0 0 30 0 0 30 0 0 30 0 0 30 0 0 30 0 0 30 0 0 30 0 0 30 0 0 30 0 0 30 0 0 30 0 0 30 0 0 30 0 0 30 0 0 30 0 0 30 0 0 30 0 0 30 0 0 30 0 0 30 0 0 30 0 0 30 0 0 30 0 0 30 0 0 30 0 0 30 0 0 30 0 0 30 0 0 30 0 0 30 0 0 30 0 0 30 0 0 30 0 0 30 0 0 30 0 0 30 0 0 30 0 0 30 0 0 30 0 0 30 0 0 30 0 0 30 0 0 30 0 0 30 0 0 30 0 0 30 0 0 30 0 0 30 0 0 30 0 0 30 
0 0 30 0 0 30 0 0 30 0 0 30 0 0 30 0 0 30 0 0 30 0 0 30 0 0 30 0 0 30 0 0 30 0 0 30 0 0 30 0 0 30 0 0 30 0 0 30 0 0 30 0 0 30 0 0 30 0 0 30 0 0 30 0 0 30 0 0 30 0 0 30 0 0 30 0 0 30 0 0 30 0 0 30 0 0 30 0 0 30 0 0 30 0 0 30 0 0 30 0 0 30 0 0 30 0 0 30 0 0 30 0 0 30 0 0 30 0 0 30 0 0 30 0 0 30 0 0 30 0 0 30 0 0 30 0 0 30 0 0 30 0 0 30 0 0 30 0 0 30 0 0 30 0 0 30 0 0 30 0 0 30 0 0 30 0 0 30 0 0 30 0 0 30 0 0 30 0 0 30 0 0 30 0 0 30 0 0 30 0 0 30 0 0 30 0 0 30 0 0 30 0 0 30 0 0 30 0 0 30 0 0 30 0 0 30 0 0 30 0 0 30 0 0 30 0 0 30 0 0 30 0 0 30 0 0 30 0 0 30 0 0 30 0 0 30 0 0 30 0 0 30 0 0 30 0 0 30 0 0 30 0 0 30 0 0 30 0 0 30 0 0 30 0 0 30 0 0 30 0 0 30 0 0 30 0 0 30 0 0 30 0 0 30 0 0 30 0 0 30 0 0 30 0 0 30 0 0 30 0 0 30 0 0 30 0 0 30 0 0 30 0 0 30 0 0 30 0 0 30 0 0 30 0 0 30 0 0 30 0 0 30 0 0 30 0 0 30 0 0 30 0 0 30 0 0 30 0 0 30 0 0 30 0 0 30 0 0 30 0 0 30 0 0 30 0 0 30 0 0 30 0 0 30 0 0 30 0 0 30 0 0 30 97 24 54 98 24 55 132 33 74 133 33 74 133 33 75 133 33 75 133 33 75 134 33 75 134 33 75 134 33 75 135 33 76 85 195 124 85 195 123 84 194 123 84 194 122 83 193 122 83 192 121 82 192 121 82 191 120 81 190 120 81 190 119 80 189 118 80 188 118 79 188 117 79 187 117 78 186 116 78 186 115 77 185 115 74 4 4 74 4 4 74 4 4 73 4 4 73 4 4 73 4 4 72 4 4 72 4 4 71 4 4 81 21 46 80 21 45 0 0 30 0 0 30 0 0 30 0 0 30 0 0 30 0 0 30 0 0 30 0 0 30 0 0 30 0 0 30 0 0 30 0 0 30 0 0 30 0 0 30 0 0 30 0 0 30 0 0 30 0 0 30 0 0 30 0 0 30 0 0 30 0 0 30 0 0 30 0 0 30 0 0 30 0 0 30 0 0 30 0 0 30 0 0 30 0 0 30 0 0 30 0 0 30 0 0 30 0 0 30 0 0 30 0 0 30 0 0 30 0 0 30 0 0 30 0 0 30 0 0 30 0 0 30 0 0 30 0 0 30 0 0 30 0 0 30 0 0 30 0 0 30 0 0 30 0 0 30 0 0 30 0 0 30 0 0 30 0 0 30 0 0 30 0 0 30 0 0 30 0 0 30 0 0 30 0 0 30 0 0 30 0 0 30 0 0 30 0 0 30 0 0 30 0 0 30 0 0 30 0 0 30 0 0 30 0 0 30 0 0 30 0 0 30 0 0 30 0 0 30 0 0 30 0 0 30 0 0 30 0 0 30 0 0 30 0 0 30 0 0 30 0 0 30 0 0 30 0 0 30 0 0 30 0 0 30 0 0 30 0 0 30 0 0 30 0 0 30 0 0 30 0 0 30 0 0 30 0 0 30 0 0 30 0 0 30 0 0 30 0 0 30 0 0 30 0 0 30 0 0 30 0 0 30 0 0 30 0 0 30 0 0 30 0 0 30 0 0 30 0 0 30 0 0 30 0 0 30 0 0 30 0 0 30 0 0 30 0 0 30 0 0 30 0 0 30 0 0 30 0 0 30 0 0 30 0 0 30 0 0 30 0 0 30 0 0 30 0 0 30 0 0 30 0 0 30 0 0 30 0 0 30 0 0 30 0 0 30 
0 0 30 0 0 30 0 0 30 0 0 30 0 0 30 0 0 30 0 0 30 0 0 30 0 0 30 0 0 30 0 0 30 0 0 30 0 0 30 0 0 30 0 0 30 0 0 30 0 0 30 0 0 30 0 0 30 0 0 30 0 0 30 0 0 30 0 0 30 0 0 30 0 0 30 0 0 30 0 0 30 0 0 30 0 0 30 0 0 30 0 0 30 0 0 30 0 0 30 0 0 30 0 0 30 0 0 30 0 0 30 0 0 30 0 0 30 0 0 30 0 0 30 0 0 30 0 0 30 0 0 30 0 0 30 0 0 30 0 0 30 0 0 30 0 0 30 0 0 30 0 0 30 0 0 30 0 0 30 0 0 30 0 0 30 0 0 30 0 0 30 0 0 30 0 0 30 0 0 30 0 0 30 0 0 30 0 0 30 0 0 30 0 0 30 0 0 30 0 0 30 0 0 30 0 0 30 0 0 30 0 0 30 0 0 30 0 0 30 0 0 30 0 0 30 0 0 30 0 0 30 0 0 30 0 0 30 0 0 30 0 0 30 0 0 30 0 0 30 0 0 30 0 0 30 0 0 30 0 0 30 0 0 30 0 0 30 0 0 30 0 0 30 0 0 30 0 0 30 0 0 30 0 0 30 0 0 30 0 0 30 0 0 30 0 0 30 0 0 30 0 0 30 0 0 30 0 0 30 0 0 30 0 0 30 0 0 30 0 0 30 0 0 30 0 0 30 0 0 30 0 0 30 0 0 30 0 0 30 0 0 30 0 0 30 0 0 30 0 0 30 0 0 30 0 0 30 0 0 30 0 0 30 0 0 30 0 0 30 0 0 30 0 0 30 0 0 30 0 0 30 0 0 30 0 0 30 0 0 30 0 0 30 97 24 54 131 32 74 132 33 74 132 33 74 132 33 74 133 33 74 133 33 75 133 33 75 134 33 75 134 33 75 134 33 75 135 33 76 84 194 123 84 193 122 83 193 121 83 192 121 82 191 120 82 191 120 81 190 119 81 190 119 80 189 118 80 188 118 79 188 117 79 187 117 78 186 116 78 185 115 77 185 115 75 4 4 74 4 4 74 4 4 73 4 4 73 4 4 73 4 4 72 4 4 72 4 4 72 4 4 71 4 4 71 4 4 79 20 45 0 0 30 0 0 30 0 0 30 0 0 30 0 0 30 0 0 30 0 0 30 0 0 30 0 0 30 0 0 30 0 0 30 0 0 30 0 0 30 0 0 30 0 0 30 0 0 30 0 0 30 0 0 30 0 0 30 0 0 30 0 0 30 0 0 30 0 0 30 0 0 30 0 0 30 0 0 30 0 0 30 0 0 30 0 0 30 0 0 30 0 0 30 0 0 30 0 0 30 0 0 30 0 0 30 0 0 30 0 0 30 0 0 30 0 0 30 0 0 30 0 0 30 0 0 30 0 0 30 0 0 30 0 0 30 0 0 30 0 0 30 0 0 30 0 0 30 0 0 30 0 0 30 0 0 30 0 0 30 0 0 30 0 0 30 0 0 30 0 0 30 0 0 30 0 0 30 0 0 30 0 0 30 0 0 30 0 0 30 0 0 30 0 0 30 0 0 30 0 0 30 0 0 30 0 0 30 0 0 30 0 0 30 0 0 30 0 0 30 0 0 30 0 0 30 0 0 30 0 0 30 0 0 30 0 0 30 0 0 30 0 0 30 0 0 30 0 0 30 0 0 30 0 0 30 0 0 30 0 0 30 0 0 30 0 0 30 0 0 30 0 0 30 0 0 30 0 0 30 0 0 30 0 0 30 0 0 30 0 0 30 0 0 30 0 0 30 0 0 30 0 0 30 0 0 30 0 0 30 0 0 30 0 0 30 0 0 30 0 0 30 0 0 30 0 0 30 0 0 30 0 0 30 0 0 30 0 0 30 0 0 30 0 0 30 0 0 30 0 0 30 0 0 30 0 0 30 0 0 30 0 0 30 0 0 30 0 0 30 0 0 30 0 0 30 0 0 30 0 0 30 0 0 30 0 0 30 0 0 30 
0 0 30 0 0 30 0 0 30 0 0 30 0 0 30 0 0 30 0 0 30 0 0 30 0 0 30 0 0 30 0 0 30 0 0 30 0 0 30 0 0 30 0 0 30 0 0 30 0 0 30 0 0 30 0 0 30 0 0 30 0 0 30 0 0 30 0 0 30 0 0 30 0 0 30 0 0 30 0 0 30 0 0 30 0 0 30 0 0 30 0 0 30 0 0 30 0 0 30 0 0 30 0 0 30 0 0 30 0 0 30 0 0 30 0 0 30 0 0 30 0 0 30 0 0 30 0 0 30 0 0 30 0 0 30 0 0 30 0 0 30 0 0 30 0 0 30 0 0 30 0 0 30 0 0 30 0 0 30 0 0 30 0 0 30 0 0 30 0 0 30 0 0 30 0 0 30 0 0 30 0 0 30 0 0 30 0 0 30 0 0 30 0 0 30 0 0 30 0 0 30 0 0 30 0 0 30 0 0 30 0 0 30 0 0 30 0 0 30 0 0 30 0 0 30 0 0 30 0 0 30 0 0 30 0 0 30 0 0 30 0 0 30 0 0 30 0 0 30 0 0 30 0 0 30 0 0 30 0 0 30 0 0 30 0 0 30 0 0 30 0 0 30 0 0 30 0 0 30 0 0 30 0 0 30 0 0 30 0 0 30 0 0 30 0 0 30 0 0 30 0 0 30 0 0 30 0 0 30 0 0 30 0 0 30 0 0 30 0 0 30 0 0 30 0 0 30 0 0 30 0 0 30 0 0 30 0 0 30 0 0 30 0 0 30 0 0 30 0 0 30 0 0 30 0 0 30 0 0 30 0 0 30 0 0 30 0 0 30 0 0 30 0 0 30 0 0 30 0 0 30 0 0 30 0 0 30 0 0 30 0 0 30 97 24 54 131 32 74 131 32 74 132 33 74 132 33 74 132 33 74 133 33 74 133 33 75 133 33 75 134 33 75 134 33 75 134 33 75 83 193 122 83 193 121 82 192 121 82 191 120 81 191 120 81 190 119 80 189 119 80 189 118 79 188 117 79 187 117 78 187 116 78 186 116 77 185 115 77 185 115 76 184 114 74 4 4 74 4 4 74 4 4 73 4 4 73 4 4 73 4 4 72 4 4 72 4 4 71 4 4 71 4 4 71 4 4 79 20 45 0 0 30 0 0 30 0 0 30 0 0 30 0 0 30 0 0 30 0 0 30 0 0 30 0 0 30 0 0 30 0 0 30 0 0 30 0 0 30 0 0 30 0 0 30 0 0 30 0 0 30 0 0 30 0 0 30 0 0 30 0 0 30 0 0 30 0 0 30 0 0 30 0 0 30 0 0 30 0 0 30 0 0 30 0 0 30 0 0 30 0 0 30 0 0 30 0 0 30 0 0 30 0 0 30 0 0 30 0 0 30 0 0 30 0 0 30 0 0 30 0 0 30 0 0 30 0 0 30 0 0 30 0 0 30 0 0 30 0 0 30 0 0 30 0 0 30 0 0 30 0 0 30 0 0 30 0 0 30 0 0 30 0 0 30 0 0 30 0 0 30 0 0 30 0 0 30 0 0 30 0 0 30 0 0 30 0 0 30 0 0 30 0 0 30 0 0 30 0 0 30 0 0 30 0 0 30 0 0 30 0 0 30 0 0 30 0 0 30 0 0 30 0 0 30 0 0 30 0 0 30 0 0 30 0 0 30 0 0 30 0 0 30 0 0 30 0 0 30 0 0 30 0 0 30 0 0 30 0 0 30 0 0 30 0 0 30 0 0 30 0 0 30 0 0 30 0 0 30 0 0 30 0 0 30 0 0 30 0 0 30 0 0 30 0 0 30 0 0 30 0 0 30 0 0 30 0 0 30 0 0 30 0 0 30 0 0 30 0 0 30 0 0 30 0 0 30 0 0 30 0 0 30 0 0 30 0 0 30 0 0 30 0 0 30 0 0 30 0 0 30 0 0 30 0 0 30 0 0 30 0 0 30 0 0 30 0 0 30 0 0 30 0 0 30 0 0 30 0 0 30 0 0 30 0 0 30 0 0 30 
0 0 30 0 0 30 0 0 30 0 0 30 0 0 30 0 0 30 0 0 30 0 0 30 0 0 30 0 0 30 0 0 30 0 0 30 0 0 30 0 0 30 0 0 30 0 0 30 0 0 30 0 0 30 0 0 30 0 0 30 0 0 30 0 0 30 0 0 30 0 0 30 0 0 30 0 0 30 0 0 30 0 0 30 0 0 30 0 0 30 0 0 30 0 0 30 0 0 30 0 0 30 0 0 30 0 0 30 0 0 30 0 0 30 0 0 30 0 0 30 0 0 30 0 0 30 0 0 30 0 0 30 0 0 30 0 0 30 0 0 30 0 0 30 0 0 30 0 0 30 0 0 30 0 0 30 0 0 30 0 0 30 0 0 30 0 0 30 0 0 30 0 0 30 0 0 30 0 0 30 0 0 30 0 0 30 0 0 30 0 0 30 0 0 30 0 0 30 0 0 30 0 0 30 0 0 30 0 0 30 0 0 30 0 0 30 0 0 30 0 0 30 0 0 30 0 0 30 0 0 30 0 0 30 0 0 30 0 0 30 0 0 30 0 0 30 0 0 30 0 0 30 0 0 30 0 0 30 0 0 30 0 0 30 0 0 30 0 0 30 0 0 30 0 0 30 0 0 30 0 0 30 0 0 30 0 0 30 0 0 30 0 0 30 0 0 30 0 0 30 0 0 30 0 0 30 0 0 30 0 0 30 0 0 30 0 0 30 0 0 30 0 0 30 0 0 30 0 0 30 0 0 30 0 0 30 0 0 30 0 0 30 0 0 30 0 0 30 0 0 30 0 0 30 0 0 30 0 0 30 0 0 30 0 0 30 0 0 30 0 0 30 0 0 30 0 0 30 0 0 30 0 0 30 0 0 30 0 0 30 0 0 30 130 32 73 131 32 73 131 32 73 131 32 74 132 33 74 132 33 74 132 33 74 133 33 74 133 33 75 133 33 75 134 33 75 134 33 75 134 33 75 82 192 120 82 191 120 81 191 119 81 190 119 80 189 118 80 189 118 79 188 117 79 187 117 78 187 116 78 186 116 77 185 115 77 185 114 76 184 114 75 4 4 74 4 4 74 4 4 73 4 4 73 4 4 73 4 4 72 4 4 72 4 4 72 4 4 71 4 4 71 4 4 70 4 4 70 4 4 0 0 30 0 0 30 0 0 30 0 0 30 0 0 30 0 0 30 0 0 30 0 0 30 0 0 30 0 0 30 0 0 30 0 0 30 0 0 30 0 0 30 0 0 30 0 0 30 0 0 30 0 0 30 0 0 30 0 0 30 0 0 30 0 0 30 0 0 30 0 0 30 0 0 30 0 0 30 0 0 30 0 0 30 0 0 30 0 0 30 0 0 30 0 0 30 0 0 30 0 0 30 0 0 30 0 0 30 0 0 30 0 0 30 0 0 30 0 0 30 0 0 30 0 0 30 0 0 30 0 0 30 0 0 30 0 0 30 0 0 30 0 0 30 0 0 30 0 0 30 0 0 30 0 0 30 0 0 30 0 0 30 0 0 30 0 0 30 0 0 30 0 0 30 0 0 30 0 0 30 0 0 30 0 0 30 0 0 30 0 0 30 0 0 30 0 0 30 0 0 30 0 0 30 0 0 30 0 0 30 0 0 30 0 0 30 0 0 30 0 0 30 0 0 30 0 0 30 0 0 30 0 0 30 0 0 30 0 0 30 0 0 30 0 0 30 0 0 30 0 0 30 0 0 30 0 0 30 0 0 30 0 0 30 0 0 30 0 0 30 0 0 30 0 0 30 0 0 30 0 0 30 0 0 30 0 0 30 0 0 30 0 0 30 0 0 30 0 0 30 0 0 30 0 0 30 0 0 30 0 0 30 0 0 30 0 0 30 0 0 30 0 0 30 0 0 30 0 0 30 0 0 30 0 0 30 0 0 30 0 0 30 0 0 30 0 0 30 0 0 30 0 0 30 0 0 30 0 0 30 0 0 30 0 0 30 0 0 30 0 0 30 0 0 30 0 0 30 0 0 30 0 0 30 0 0 30 0 0 30 
0 0 30 0 0 30 0 0 30 0 0 30 0 0 30 0 0 30 0 0 30 0 0 30 0 0 30 0 0 30 0 0 30 0 0 30 0 0 30 0 0 30 0 0 30 0 0 30 0 0 30 0 0 30 0 0 30 0 0 30 0 0 30 0 0 30 0 0 30 0 0 30 0 0 30 0 0 30 0 0 30 0 0 30 0 0 30 0 0 30 0 0 30 0 0 30 0 0 30 0 0 30 0 0 30 0 0 30 0 0 30 0 0 30 0 0 30 0 0 30 0 0 30 0 0 30 0 0 30 0 0 30 0 0 30 0 0 30 0 0 30 0 0 30 0 0 30 0 0 30 0 0 30 0 0 30 0 0 30 0 0 30 0 0 30 0 0 30 0 0 30 0 0 30 0 0 30 0 0 30 0 0 30 0 0 30 0 0 30 0 0 30 0 0 30 0 0 30 0 0 30 0 0 30 0 0 30 0 0 30 0 0 30 0 0 30 0 0 30 0 0 30 0 0 30 0 0 30 0 0 30 0 0 30 0 0 30 0 0 30 0 0 30 0 0 30 0 0 30 0 0 30 0 0 30 0 0 30 0 0 30 0 0 30 0 0 30 0 0 30 0 0 30 0 0 30 0 0 30 0 0 30 0 0 30 0 0 30 0 0 30 0 0 30 0 0 30 0 0 30 0 0 30 0 0 30 0 0 30 0 0 30 0 0 30 0 0 30 0 0 30 0 0 30 0 0 30 0 0 30 0 0 30 0 0 30 0 0 30 0 0 30 0 0 30 0 0 30 0 0 30 0 0 30 0 0 30 0 0 30 0 0 30 0 0 30 0 0 30 0 0 30 0 0 30 0 0 30 0 0 30 0 0 30 0 0 30 0 0 30 0 0 30 0 0 30 0 0 30 131 32 73 131 32 73 131 32 74 132 33 74 132 33 74 132 33 74 133 33 74 133 33 75 133 33 75 134 33 75 134 33 75 134 33 75 81 190 119 80 190 119 80 189 118 79 188 118 79 188 117 78 187 116 78 187 116 77 186 115 77 185 115 76 185 114 76 184 114 75 4 4 74 4 4 74 4 4 74 4 4 73 4 4 73 4 4 72 4 4 72 4 4 72 4 4 71 4 4 71 4 4 71 4 4 0 0 30 0 0 30 0 0 30 0 0 30 0 0 30 0 0 30 0 0 30 0 0 30 0 0 30 0 0 30 0 0 30 0 0 30 0 0 30 0 0 30 0 0 30 0 0 30 0 0 30 0 0 30 0 0 30 0 0 30 0 0 30 0 0 30 0 0 30 0 0 30 0 0 30 0 0 30 0 0 30 0 0 30 0 0 30 0 0 30 0 0 30 0 0 30 0 0 30 0 0 30 0 0 30 0 0 30 0 0 30 0 0 30 0 0 30 0 0 30 0 0 30 0 0 30 0 0 30 0 0 30 0 0 30 0 0 30 0 0 30 0 0 30 0 0 30 0 0 30 0 0 30 0 0 30 0 0 30 0 0 30 0 0 30 0 0 30 0 0 30 0 0 30 0 0 30 0 0 30 0 0 30 0 0 30 0 0 30 0 0 30 0 0 30 0 0 30 0 0 30 0 0 30 0 0 30 0 0 30 0 0 30 0 0 30 0 0 30 0 0 30 0 0 30 0 0 30 0 0 30 0 0 30 0 0 30 0 0 30 0 0 30 0 0 30 0 0 30 0 0 30 0 0 30 0 0 30 0 0 30 0 0 30 0 0 30 0 0 30 0 0 30 0 0 30 0 0 30 0 0 30 0 0 30 0 0 30 0 0 30 0 0 30 0 0 30 0 0 30 0 0 30 0 0 30 0 0 30 0 0 30 0 0 30 0 0 30 0 0 30 0 0 30 0 0 30 0 0 30 0 0 30 0 0 30 0 0 30 0 0 30 0 0 30 0 0 30 0 0 30 0 0 30 0 0 30 0 0 30 0 0 30 0 0 30 0 0 30 0 0 30 0 0 30 0 0 30 0 0 30 0 0 30 0 0 30 0 0 30 0 0 30 0 0 30 
0 0 30 0 0 30 0 0 30 0 0 30 0 0 30 0 0 30 0 0 30 0 0 30 0 0 30 0 0 30 0 0 30 0 0 30 0 0 30 0 0 30 0 0 30 0 0 30 0 0 30 0 0 30 0 0 30 0 0 30 0 0 30 0 0 30 0 0 30 0 0 30 0 0 30 0 0 30 0 0 30 0 0 30 0 0 30 0 0 30 0 0 30 0 0 30 0 0 30 0 0 30 0 0 30 0 0 30 0 0 30 0 0 30 0 0 30 0 0 30 0 0 30 0 0 30 0 0 30 0 0 30 0 0 30 0 0 30 0 0 30 0 0 30 0 0 30 0 0 30 0 0 30 0 0 30 0 0 30 0 0 30 0 0 30 0 0 30 0 0 30 0 0 30 0 0 30 0 0 30 0 0 30 0 0 30 0 0 30 0 0 30 0 0 30 0 0 30 0 0 30 0 0 30 0 0 30 0 0 30 0 0 30 0 0 30 0 0 30 0 0 30 0 0 30 0 0 30 0 0 30 0 0 30 0 0 30 0 0 30 0 0 30 0 0 30 0 0 30 0 0 30 0 0 30 0 0 30 0 0 30 0 0 30 0 0 30 0 0 30 0 0 30 0 0 30 0 0 30 0 0 30 0 0 30 0 0 30 0 0 30 0 0 30 0 0 30 0 0 30 0 0 30 0 0 30 0 0 30 0 0 30 0 0 30 0 0 30 0 0 30 0 0 30 0 0 30 0 0 30 0 0 30 0 0 30 0 0 30 0 0 30 0 0 30 0 0 30 0 0 30 0 0 30 0 0 30 0 0 30 0 0 30 0 0 30 0 0 30 0 0 30 0 0 30 0 0 30 0 0 30 0 0 30 0 0 30 0 0 30 0 0 30 0 0 30 0 0 30 0 0 30 0 0 30 131 32 73 131 32 74 132 33 74 132 33 74 132 33 74 133 33 74 133 33 75 133 33 75 133 33 75 134 33 75 80 190 118 80 189 118 79 188 117 79 188 117 78 187 116 78 186 116 77 186 115 77 185 115 76 184 114 76 184 114 75 183 113 75 4 4 74 4 4 74 4 4 73 4 4 73 4 4 73 4 4 72 4 4 72 4 4 72 4 4 71 4 4 0 0 30 0 0 30 0 0 30 0 0 30 0 0 30 0 0 30 0 0 30 0 0 30 0 0 30 0 0 30 0 0 30 0 0 30 0 0 30 0 0 30 0 0 30 0 0 30 0 0 30 0 0 30 0 0 30 0 0 30 0 0 30 0 0 30 0 0 30 0 0 30 0 0 30 0 0 30 0 0 30 0 0 30 0 0 30 0 0 30 0 0 30 0 0 30 0 0 30 0 0 30 0 0 30 0 0 30 0 0 30 0 0 30 0 0 30 0 0 30 0 0 30 0 0 30 0 0 30 0 0 30 0 0 30 0 0 30 0 0 30 0 0 30 0 0 30 0 0 30 0 0 30 0 0 30 0 0 30 0 0 30 0 0 30 0 0 30 0 0 30 0 0 30 0 0 30 0 0 30 0 0 30 0 0 30 0 0 30 0 0 30 0 0 30 0 0 30 0 0 30 0 0 30 0 0 30 0 0 30 0 0 30 0 0 30 0 0 30 0 0 30 0 0 30 0 0 30 0 0 30 0 0 30 0 0 30 0 0 30 0 0 30 0 0 30 0 0 30 0 0 30 0 0 30 0 0 30 0 0 30 0 0 30 0 0 30 0 0 30 0 0 30 0 0 30 0 0 30 0 0 30 0 0 30 0 0 30 0 0 30 0 0 30 0 0 30 0 0 30 0 0 30 0 0 30 0 0 30 0 0 30 0 0 30 0 0 30 0 0 30 0 0 30 0 0 30 0 0 30 0 0 30 0 0 30 0 0 30 0 0 30 0 0 30 0 0 30 0 0 30 0 0 30 0 0 30 0 0 30 0 0 30 0 0 30 0 0 30 0 0 30 0 0 30 0 0 30 0 0 30 0 0 30 0 0 30 0 0 30 0 0 30 0 0 30 0 0 30 0 0 30 
0 0 30 0 0 30 0 0 30 0 0 30 0 0 30 0 0 30 0 0 30 0 0 30 0 0 30 0 0 30 0 0 30 0 0 30 0 0 30 0 0 30 0 0 30 0 0 30 0 0 30 0 0 30 0 0 30 0 0 30 0 0 30 0 0 30 0 0 30 0 0 30 0 0 30 0 0 30 0 0 30 0 0 30 0 0 30 0 0 30 0 0 30 0 0 30 0 0 30 0 0 30 0 0 30 0 0 30 0 0 30 0 0 30 0 0 30 0 0 30 0 0 30 0 0 30 0 0 30 0 0 30 0 0 30 0 0 30 0 0 30 0 0 30 0 0 30 0 0 30 0 0 30 0 0 30 0 0 30 0 0 30 0 0 30 0 0 30 0 0 30 0 0 30 0 0 30 0 0 30 0 0 30 0 0 30 0 0 30 0 0 30 0 0 30 0 0 30 0 0 30 0 0 30 0 0 30 0 0 30 0 0 30 0 0 30 0 0 30 0 0 30 0 0 30 0 0 30 0 0 30 0 0 30 0 0 30 0 0 30 0 0 30 0 0 30 0 0 30 0 0 30 0 0 30 0 0 30 0 0 30 0 0 30 0 0 30 0 0 30 0 0 30 0 0 30 0 0 30 0 0 30 0 0 30 0 0 30 0 0 30 0 0 30 0 0 30 0 0 30 0 0 30 0 0 30 0 0 30 0 0 30 0 0 30 0 0 30 0 0 30 0 0 30 0 0 30 0 0 30 0 0 30 0 0 30 0 0 30 0 0 30 0 0 30 0 0 30 0 0 30 0 0 30 0 0 30 0 0 30 0 0 30 0 0 30 0 0 30 0 0 30 0 0 30 0 0 30 0 0 30 0 0 30 0 0 30 0 0 30 0 0 30 0 0 30 0 0 30 0 0 30 0 0 30 0 0 30 0 0 30 131 32 74 132 33 74 132 33 74 132 33 74 132 33 74 133 33 74 133 33 75 133 33 75 134 33 75 79 188 117 78 187 117 78 187 116 77 186 115 77 186 115 76 185 114 76 184 114 75 184 113 75 183 113 75 4 4 74 4 4 74 4 4 74 4 4 73 4 4 73 4 4 72 4 4 72 4 4 72 4 4 0 0 30 0 0 30 0 0 30 0 0 30 0 0 30 0 0 30 0 0 30 0 0 30 0 0 30 0 0 30 0 0 30 0 0 30 0 0 30 0 0 30 0 0 30 0 0 30 0 0 30 0 0 30 0 0 30 0 0 30 0 0 30 0 0 30 0 0 30 0 0 30 0 0 30 0 0 30 0 0 30 0 0 30 0 0 30 0 0 30 0 0 30 0 0 30 0 0 30 0 0 30 0 0 30 0 0 30 0 0 30 0 0 30 0 0 30 0 0 30 0 0 30 0 0 30 0 0 30 0 0 30 0 0 30 0 0 30 0 0 30 0 0 30 0 0 30 0 0 30 0 0 30 0 0 30 0 0 30 0 0 30 0 0 30 0 0 30 0 0 30 0 0 30 0 0 30 0 0 30 0 0 30 0 0 30 0 0 30 0 0 30 0 0 30 0 0 30 0 0 30 0 0 30 0 0 30 0 0 30 0 0 30 0 0 30 0 0 30 0 0 30 0 0 30 0 0 30 0 0 30 0 0 30 0 0 30 0 0 30 0 0 30 0 0 30 0 0 30 0 0 30 0 0 30 0 0 30 0 0 30 0 0 30 0 0 30 0 0 30 0 0 30 0 0 30 0 0 30 0 0 30 0 0 30 0 0 30 0 0 30 0 0 30 0 0 30 0 0 30 0 0 30 0 0 30 0 0 30 0 0 30 0 0 30 0 0 30 0 0 30 0 0 30 0 0 30 0 0 30 0 0 30 0 0 30 0 0 30 0 0 30 0 0 30 0 0 30 0 0 30 0 0 30 0 0 30 0 0 30 0 0 30 0 0 30 0 0 30 0 0 30 0 0 30 0 0 30 0 0 30 0 0 30 0 0 30 0 0 30 0 0 30 0 0 30 0 0 30 0 0 30 0 0 30 0 0 30 
0 0 30 0 0 30 0 0 30 0 0 30 0 0 30 0 0 30 0 0 30 0 0 30 0 0 30 0 0 30 0 0 30 0 0 30 0 0 30 0 0 30 0 0 30 0 0 30 0 0 30 0 0 30 0 0 30 0 0 30 0 0 30 0 0 30 0 0 30 0 0 30 0 0 30 0 0 30 0 0 30 0 0 30 0 0 30 0 0 30 0 0 30 0 0 30 0 0 30 0 0 30 0 0 30 0 0 30 0 0 30 0 0 30 0 0 30 0 0 30 0 0 30 0 0 30 0 0 30 0 0 30 0 0 30 0 0 30 0 0 30 0 0 30 0 0 30 0 0 30 0 0 30 0 0 30 0 0 30 0 0 30 0 0 30 0 0 30 0 0 30 0 0 30 0 0 30 0 0 30 0 0 30 0 0 30 0 0 30 0 0 30 0 0 30 0 0 30 0 0 30 0 0 30 0 0 30 0 0 30 0 0 30 0 0 30 0 0 30 0 0 30 0 0 30 0 0 30 0 0 30 0 0 30 0 0 30 0 0 30 0 0 30 0 0 30 0 0 30 0 0 30 0 0 30 0 0 30 0 0 30 0 0 30 0 0 30 0 0 30 0 0 30 0 0 30 0 0 30 0 0 30 0 0 30 0 0 30 0 0 30 0 0 30 0 0 30 0 0 30 0 0 30 0 0 30 0 0 30 0 0 30 0 0 30 0 0 30 0 0 30 0 0 30 0 0 30 0 0 30 0 0 30 0 0 30 0 0 30 0 0 30 0 0 30 0 0 30 0 0 30 0 0 30 0 0 30 0 0 30 0 0 30 0 0 30 0 0 30 0 0 30 0 0 30 0 0 30 0 0 30 0 0 30 0 0 30 0 0 30 0 0 30 0 0 30 0 0 30 0 0 30 0 0 30 0 0 30 0 0 30 0 0 30 0 0 30 131 32 74 132 33 74 132 33 74 132 33 74 133 33 74 133 33 75 133 33 75 134 33 75 77 187 116 77 186 115 77 185 115 76 185 114 76 184 114 75 183 113 75 183 113 75 4 4 75 4 4 74 4 4 74 4 4 73 4 4 73 4 4 73 4 4 72 4 4 0 0 30 0 0 30 0 0 30 0 0 30 0 0 30 0 0 30 0 0 30 0 0 30 0 0 30 0 0 30 0 0 30 0 0 30 0 0 30 0 0 30 0 0 30 0 0 30 0 0 30 0 0 30 0 0 30 0 0 30 0 0 30 0 0 30 0 0 30 0 0 30 0 0 30 0 0 30 0 0 30 0 0 30 0 0 30 0 0 30 0 0 30 0 0 30 0 0 30 0 0 30 0 0 30 0 0 30 0 0 30 0 0 30 0 0 30 0 0 30 0 0 30 0 0 30 0 0 30 0 0 30 0 0 30 0 0 30 0 0 30 0 0 30 0 0 30 0 0 30 0 0 30 0 0 30 0 0 30 0 0 30 0 0 30 0 0 30 0 0 30 0 0 30 0 0 30 0 0 30 0 0 30 0 0 30 0 0 30 0 0 30 0 0 30 0 0 30 0 0 30 0 0 30 0 0 30 0 0 30 0 0 30 0 0 30 0 0 30 0 0 30 0 0 30 0 0 30 0 0 30 0 0 30 0 0 30 0 0 30 0 0 30 0 0 30 0 0 30 0 0 30 0 0 30 0 0 30 0 0 30 0 0 30 0 0 30 0 0 30 0 0 30 0 0 30 0 0 30 0 0 30 0 0 30 0 0 30 0 0 30 0 0 30 0 0 30 0 0 30 0 0 30 0 0 30 0 0 30 0 0 30 0 0 30 0 0 30 0 0 30 0 0 30 0 0 30 0 0 30 0 0 30 0 0 30 0 0 30 0 0 30 0 0 30 0 0 30 0 0 30 0 0 30 0 0 30 0 0 30 0 0 30 0 0 30 0 0 30 0 0 30 0 0 30 0 0 30 0 0 30 0 0 30 0 0 30 0 0 30 0 0 30 0 0 30 0 0 30 0 0 30 0 0 30 0 0 30 0 0 30 0 0 30 
0 0 30 0 0 30 0 0 30 0 0 30 0 0 30 0 0 30 0 0 30 0 0 30 0 0 30 0 0 30 0 0 30 0 0 30 0 0 30 0 0 30 0 0 30 0 0 30 0 0 30 0 0 30 0 0 30 0 0 30 0 0 30 0 0 30 0 0 30 0 0 30 0 0 30 0 0 30 0 0 30 0 0 30 0 0 30 0 0 30 0 0 30 0 0 30 0 0 30 0 0 30 0 0 30 0 0 30 0 0 30 0 0 30 0 0 30 0 0 30 0 0 30 0 0 30 0 0 30 0 0 30 0 0 30 0 0 30 0 0 30 0 0 30 0 0 30 0 0 30 0 0 30 0 0 30 0 0 30 0 0 30 0 0 30 0 0 30 0 0 30 0 0 30 0 0 30 0 0 30 0 0 30 0 0 30 0 0 30 0 0 30 0 0 30 0 0 30 0 0 30 0 0 30 0 0 30 0 0 30 0 0 30 0 0 30 0 0 30 0 0 30 0 0 30 0 0 30 0 0 30 0 0 30 0 0 30 0 0 30 0 0 30 0 0 30 0 0 30 0 0 30 0 0 30 0 0 30 0 0 30 0 0 30 0 0 30 0 0 30 0 0 30 0 0 30 0 0 30 0 0 30 0 0 30 0 0 30 0 0 30 0 0 30 0 0 30 0 0 30 0 0 30 0 0 30 0 0 30 0 0 30 0 0 30 0 0 30 0 0 30 0 0 30 0 0 30 0 0 30 0 0 30 0 0 30 0 0 30 0 0 30 0 0 30 0 0 30 0 0 30 0 0 30 0 0 30 0 0 30 0 0 30 0 0 30 0 0 30 0 0 30 0 0 30 0 0 30 0 0 30 0 0 30 0 0 30 0 0 30 0 0 30 0 0 30 0 0 30 0 0 30 0 0 30 0 0 30 0 0 30 0 0 30 0 0 30 0 0 30 0 0 30 132 33 74 132 33 74 132 33 74 133 33 74 133 33 75 133 33 75 77 186 115 76 185 114 76 185 114 75 184 113 75 183 113 74 183 112 74 182 112 75 4 4 74 4 4 74 4 4 74 4 4 73 4 4 73 4 4 0 0 30 0 0 30 0 0 30 0 0 30 0 0 30 0 0 30 0 0 30 0 0 30 0 0 30 0 0 30 0 0 30 0 0 30 0 0 30 0 0 30 0 0 30 0 0 30 0 0 30 0 0 30 0 0 30 0 0 30 0 0 30 0 0 30 0 0 30 0 0 30 0 0 30 0 0 30 0 0 30 0 0 30 0 0 30 0 0 30 0 0 30 0 0 30 0 0 30 0 0 30 0 0 30 0 0 30 0 0 30 0 0 30 0 0 30 0 0 30 0 0 30 0 0 30 0 0 30 0 0 30 0 0 30 0 0 30 0 0 30 0 0 30 0 0 30 0 0 30 0 0 30 0 0 30 0 0 30 0 0 30 0 0 30 0 0 30 0 0 30 0 0 30 0 0 30 0 0 30 0 0 30 0 0 30 0 0 30 0 0 30 0 0 30 0 0 30 0 0 30 0 0 30 0 0 30 0 0 30 0 0 30 0 0 30 0 0 30 0 0 30 0 0 30 0 0 30 0 0 30 0 0 30 0 0 30 0 0 30 0 0 30 0 0 30 0 0 30 0 0 30 0 0 30 0 0 30 0 0 30 0 0 30 0 0 30 0 0 30 0 0 30 0 0 30 0 0 30 0 0 30 0 0 30 0 0 30 0 0 30 0 0 30 0 0 30 0 0 30 0 0 30 0 0 30 0 0 30 0 0 30 0 0 30 0 0 30 0 0 30 0 0 30 0 0 30 0 0 30 0 0 30 0 0 30 0 0 30 0 0 30 0 0 30 0 0 30 0 0 30 0 0 30 0 0 30 0 0 30 0 0 30 0 0 30 0 0 30 0 0 30 0 0 30 0 0 30 0 0 30 0 0 30 0 0 30 0 0 30 0 0 30 0 0 30 0 0 30 0 0 30 0 0 30 0 0 30 0 0 30 0 0 30 0 0 30 0 0 30 
0 0 30 0 0 30 0 0 30 0 0 30 0 0 30 0 0 30 0 0 30 0 0 30 0 0 30 0 0 30 0 0 30 0 0 30 0 0 30 0 0 30 0 0 30 0 0 30 0 0 30 0 0 30 0 0 30 0 0 30 0 0 30 0 0 30 0 0 30 0 0 30 0 0 30 0 0 30 0 0 30 0 0 30 0 0 30 0 0 30 0 0 30 0 0 30 0 0 30 0 0 30 0 0 30 0 0 30 0 0 30 0 0 30 0 0 30 0 0 30 0 0 30 0 0 30 0 0 30 0 0 30 0 0 30 0 0 30 0 0 30 0 0 30 0 0 30 0 0 30 0 0 30 0 0 30 0 0 30 0 0 30 0 0 30 0 0 30 0 0 30 0 0 30 0 0 30 0 0 30 0 0 30 0 0 30 0 0 30 0 0 30 0 0 30 0 0 30 0 0 30 0 0 30 0 0 30 0 0 30 0 0 30 0 0 30 0 0 30 0 0 30 0 0 30 0 0 30 0 0 30 0 0 30 0 0 30 0 0 30 0 0 30 0 0 30 0 0 30 0 0 30 0 0 30 0 0 30 0 0 30 0 0 30 0 0 30 0 0 30 0 0 30 0 0 30 0 0 30 0 0 30 0 0 30 0 0 30 0 0 30 0 0 30 0 0 30 0 0 30 0 0 30 0 0 30 0 0 30 0 0 30 0 0 30 0 0 30 0 0 30 0 0 30 0 0 30 0 0 30 0 0 30 0 0 30 0 0 30 0 0 30 0 0 30 0 0 30 0 0 30 0 0 30 0 0 30 0 0 30 0 0 30 0 0 30 0 0 30 0 0 30 0 0 30 0 0 30 0 0 30 0 0 30 0 0 30 0 0 30 0 0 30 0 0 30 0 0 30 0 0 30 0 0 30 0 0 30 0 0 30 0 0 30 0 0 30 0 0 30 0 0 30 0 0 30 0 0 30 132 33 74 132 33 74 133 33 74 133 33 75 133 33 75 75 184 114 75 184 113 75 183 113 74 183 112 74 182 112 75 4 4 74 4 4 74 4 4 74 4 4 73 4 4 0 0 30 0 0 30 0 0 30 0 0 30 0 0 30 0 0 30 0 0 30 0 0 30 0 0 30 0 0 30 0 0 30 0 0 30 0 0 30 0 0 30 0 0 30 0 0 30 0 0 30 0 0 30 0 0 30 0 0 30 0 0 30 0 0 30 0 0 30 0 0 30 0 0 30 0 0 30 0 0 30 0 0 30 0 0 30 0 0 30 0 0 30 0 0 30 0 0 30 0 0 30 0 0 30 0 0 30 0 0 30 0 0 30 0 0 30 0 0 30 0 0 30 0 0 30 0 0 30 0 0 30 0 0 30 0 0 30 0 0 30 0 0 30 0 0 30 0 0 30 0 0 30 0 0 30 0 0 30 0 0 30 0 0 30 0 0 30 0 0 30 0 0 30 0 0 30 0 0 30 0 0 30 0 0 30 0 0 30 0 0 30 0 0 30 0 0 30 0 0 30 0 0 30 0 0 30 0 0 30 0 0 30 0 0 30 0 0 30 0 0 30 0 0 30 0 0 30 0 0 30 0 0 30 0 0 30 0 0 30 0 0 30 0 0 30 0 0 30 0 0 30 0 0 30 0 0 30 0 0 30 0 0 30 0 0 30 0 0 30 0 0 30 0 0 30 0 0 30 0 0 30 0 0 30 0 0 30 0 0 30 0 0 30 0 0 30 0 0 30 0 0 30 0 0 30 0 0 30 0 0 30 0 0 30 0 0 30 0 0 30 0 0 30 0 0 30 0 0 30 0 0 30 0 0 30 0 0 30 0 0 30 0 0 30 0 0 30 0 0 30 0 0 30 0 0 30 0 0 30 0 0 30 0 0 30 0 0 30 0 0 30 0 0 30 0 0 30 0 0 30 0 0 30 0 0 30 0 0 30 0 0 30 0 0 30 0 0 30 0 0 30 0 0 30 0 0 30 0 0 30 0 0 30 0 0 30 0 0 30 0 0 30 0 0 30 
0 0 30 0 0 30 0 0 30 0 0 30 0 0 30 0 0 30 0 0 30 0 0 30 0 0 30 0 0 30 0 0 30 0 0 30 0 0 30 0 0 30 0 0 30 0 0 30 0 0 30 0 0 30 0 0 30 0 0 30 0 0 30 0 0 30 0 0 30 0 0 30 0 0 30 0 0 30 0 0 30 0 0 30 0 0 30 0 0 30 0 0 30 0 0 30 0 0 30 0 0 30 0 0 30 0 0 30 0 0 30 0 0 30 0 0 30 0 0 30 0 0 30 0 0 30 0 0 30 0 0 30 0 0 30 0 0 30 0 0 30 0 0 30 0 0 30 0 0 30 0 0 30 0 0 30 0 0 30 0 0 30 0 0 30 0 0 30 0 0 30 0 0 30 0 0 30 0 0 30 0 0 30 0 0 30 0 0 30 0 0 30 0 0 30 0 0 30 0 0 30 0 0 30 0 0 30 0 0 30 0 0 30 0 0 30 0 0 30 0 0 30 0 0 30 0 0 30 0 0 30 0 0 30 0 0 30 0 0 30 0 0 30 0 0 30 0 0 30 0 0 30 0 0 30 0 0 30 0 0 30 0 0 30 0 0 30 0 0 30 0 0 30 0 0 30 0 0 30 0 0 30 0 0 30 0 0 30 0 0 30 0 0 30 0 0 30 0 0 30 0 0 30 0 0 30 0 0 30 0 0 30 0 0 30 0 0 30 0 0 30 0 0 30 0 0 30 0 0 30 0 0 30 0 0 30 0 0 30 0 0 30 0 0 30 0 0 30 0 0 30 0 0 30 0 0 30 0 0 30 0 0 30 0 0 30 0 0 30 0 0 30 0 0 30 0 0 30 0 0 30 0 0 30 0 0 30 0 0 30 0 0 30 0 0 30 0 0 30 0 0 30 0 0 30 0 0 30 0 0 30 0 0 30 0 0 30 0 0 30 0 0 30 0 0 30 0 0 30 0 0 30 0 0 30 0 0 30 132 33 74 133 33 74 133 33 75 74 183 112 74 182 112 73 182 111 75 4 4 75 4 4 74 4 4 0 0 30 0 0 30 0 0 30 0 0 30 0 0 30 0 0 30 0 0 30 0 0 30 0 0 30 0 0 30 0 0 30 0 0 30 0 0 30 0 0 30 0 0 30 0 0 30 0 0 30 0 0 30 0 0 30 0 0 30 0 0 30 0 0 30 0 0 30 0 0 30 0 0 30 0 0 30 0 0 30 0 0 30 0 0 30 0 0 30 0 0 30 0 0 30 0 0 30 0 0 30 0 0 30 0 0 30 0 0 30 0 0 30 0 0 30 0 0 30 0 0 30 0 0 30 0 0 30 0 0 30 0 0 30 0 0 30 0 0 30 0 0 30 0 0 30 0 0 30 0 0 30 0 0 30 0 0 30 0 0 30 0 0 30 0 0 30 0 0 30 0 0 30 0 0 30 0 0 30 0 0 30 0 0 30 0 0 30 0 0 30 0 0 30 0 0 30 0 0 30 0 0 30 0 0 30 0 0 30 0 0 30 0 0 30 0 0 30 0 0 30 0 0 30 0 0 30 0 0 30 0 0 30 0 0 30 0 0 30 0 0 30 0 0 30 0 0 30 0 0 30 0 0 30 0 0 30 0 0 30 0 0 30 0 0 30 0 0 30 0 0 30 0 0 30 0 0 30 0 0 30 0 0 30 0 0 30 0 0 30 0 0 30 0 0 30 0 0 30 0 0 30 0 0 30 0 0 30 0 0 30 0 0 30 0 0 30 0 0 30 0 0 30 0 0 30 0 0 30 0 0 30 0 0 30 0 0 30 0 0 30 0 0 30 0 0 30 0 0 30 0 0 30 0 0 30 0 0 30 0 0 30 0 0 30 0 0 30 0 0 30 0 0 30 0 0 30 0 0 30 0 0 30 0 0 30 0 0 30 0 0 30 0 0 30 0 0 30 0 0 30 0 0 30 0 0 30 0 0 30 0 0 30 0 0 30 0 0 30 0 0 30 0 0 30 0 0 30 0 0 30 0 0 30 
0 0 30 0 0 30 0 0 30 0 0 30 0 0 30 0 0 30 0 0 30 0 0 30 0 0 30 0 0 30 0 0 30 0 0 30 0 0 30 0 0 30 0 0 30 0 0 30 0 0 30 0 0 30 0 0 30 0 0 30 0 0 30 0 0 30 0 0 30 0 0 30 0 0 30 0 0 30 0 0 30 0 0 30 0 0 30 0 0 30 0 0 30 0 0 30 0 0 30 0 0 30 0 0 30 0 0 30 0 0 30 0 0 30 0 0 30 0 0 30 0 0 30 0 0 30 0 0 30 0 0 30 0 0 30 0 0 30 0 0 30 0 0 30 0 0 30 0 0 30 0 0 30 0 0 30 0 0 30 0 0 30 0 0 30 0 0 30 0 0 30 0 0 30 0 0 30 0 0 30 0 0 30 0 0 30 0 0 30 0 0 30 0 0 30 0 0 30 0 0 30 0 0 30 0 0 30 0 0 30 0 0 30 0 0 30 0 0 30 0 0 30 0 0 30 0 0 30 0 0 30 0 0 30 0 0 30 0 0 30 0 0 30 0 0 30 0 0 30 0 0 30 0 0 30 0 0 30 0 0 30 0 0 30 0 0 30 0 0 30 0 0 30 0 0 30 0 0 30 0 0 30 0 0 30 0 0 30 0 0 30 0 0 30 0 0 30 0 0 30 0 0 30 0 0 30 0 0 30 0 0 30 0 0 30 0 0 30 0 0 30 0 0 30 0 0 30 0 0 30 0 0 30 0 0 30 0 0 30 0 0 30 0 0 30 0 0 30 0 0 30 0 0 30 0 0 30 0 0 30 0 0 30 0 0 30 0 0 30 0 0 30 0 0 30 0 0 30 0 0 30 0 0 30 0 0 30 0 0 30 0 0 30 0 0 30 0 0 30 0 0 30 0 0 30 0 0 30 0 0 30 0 0 30 0 0 30 0 0 30 0 0 30 0 0 30 0 0 30 0 0 30 0 0 30 0 0 30 0 0 30 0 0 30 133 33 74 133 33 75 73 181 111 75 4 4 75 4 4 0 0 30 0 0 30 0 0 30 0 0 30 0 0 30 0 0 30 0 0 30 0 0 30 0 0 30 0 0 30 0 0 30 0 0 30 0 0 30 0 0 30 0 0 30 0 0 30 0 0 30 0 0 30 0 0 30 0 0 30 0 0 30 0 0 30 0 0 30 0 0 30 0 0 30 0 0 30 0 0 30 0 0 30 0 0 30 0 0 30 0 0 30 0 0 30 0 0 30 0 0 30 0 0 30 0 0 30 0 0 30 0 0 30 0 0 30 0 0 30 0 0 30 0 0 30 0 0 30 0 0 30 0 0 30 0 0 30 0 0 30 0 0 30 0 0 30 0 0 30 0 0 30 0 0 30 0 0 30 0 0 30 0 0 30 0 0 30 0 0 30 0 0 30 0 0 30 0 0 30 0 0 30 0 0 30 0 0 30 0 0 30 0 0 30 0 0 30 0 0 30 0 0 30 0 0 30 0 0 30 0 0 30 0 0 30 0 0 30 0 0 30 0 0 30 0 0 30 0 0 30 0 0 30 0 0 30 0 0 30 0 0 30 0 0 30 0 0 30 0 0 30 0 0 30 0 0 30 0 0 30 0 0 30 0 0 30 0 0 30 0 0 30 0 0 30 0 0 30 0 0 30 0 0 30 0 0 30 0 0 30 0 0 30 0 0 30 0 0 30 0 0 30 0 0 30 0 0 30 0 0 30 0 0 30 0 0 30 0 0 30 0 0 30 0 0 30 0 0 30 0 0 30 0 0 30 0 0 30 0 0 30 0 0 30 0 0 30 0 0 30 0 0 30 0 0 30 0 0 30 0 0 30 0 0 30 0 0 30 0 0 30 0 0 30 0 0 30 0 0 30 0 0 30 0 0 30 0 0 30 0 0 30 0 0 30 0 0 30 0 0 30 0 0 30 0 0 30 0 0 30 0 0 30 0 0 30 0 0 30 0 0 30 0 0 30 0 0 30 0 0 30 0 0 30 0 0 30 0 0 30 
0 0 30 0 0 30 0 0 30 0 0 30 0 0 30 0 0 30 0 0 30 0 0 30 0 0 30 0 0 30 0 0 30 0 0 30 0 0 30 0 0 30 0 0 30 0 0 30 0 0 30 0 0 30 0 0 30 0 0 30 0 0 30 0 0 30 0 0 30 0 0 30 0 0 30 0 0 30 0 0 30 0 0 30 0 0 30 0 0 30 0 0 30 0 0 30 0 0 30 0 0 30 0 0 30 0 0 30 0 0 30 0 0 30 0 0 30 0 0 30 0 0 30 0 0 30 0 0 30 0 0 30 0 0 30 0 0 30 0 0 30 0 0 30 0 0 30 0 0 30 0 0 30 0 0 30 0 0 30 0 0 30 0 0 30 0 0 30 0 0 30 0 0 30 0 0 30 0 0 30 0 0 30 0 0 30 0 0 30 0 0 30 0 0 30 0 0 30 0 0 30 0 0 30 0 0 30 0 0 30 0 0 30 0 0 30 0 0 30 0 0 30 0 0 30 0 0 30 0 0 30 0 0 30 0 0 30 0 0 30 0 0 30 0 0 30 0 0 30 0 0 30 0 0 30 0 0 30 0 0 30 0 0 30 0 0 30 0 0 30 0 0 30 0 0 30 0 0 30 0 0 30 0 0 30 0 0 30 0 0 30 0 0 30 0 0 30 0 0 30 0 0 30 0 0 30 0 0 30 0 0 30 0 0 30 0 0 30 0 0 30 0 0 30 0 0 30 0 0 30 0 0 30 0 0 30 0 0 30 0 0 30 0 0 30 0 0 30 0 0 30 0 0 30 0 0 30 0 0 30 0 0 30 0 0 30 0 0 30 0 0 30 0 0 30 0 0 30 0 0 30 0 0 30 0 0 30 0 0 30 0 0 30 0 0 30 0 0 30 0 0 30 0 0 30 0 0 30 0 0 30 0 0 30 0 0 30 0 0 30 0 0 30 0 0 30 0 0 30 0 0 30 0 0 30 0 0 30 0 0 30 0 0 30 0 0 30 0 0 30 72 181 110 0 0 30 0 0 30 0 0 30 0 0 30 0 0 30 0 0 30 0 0 30 0 0 30 0 0 30 0 0 30 0 0 30 0 0 30 0 0 30 0 0 30 0 0 30 0 0 30 0 0 30 0 0 30 0 0 30 0 0 30 0 0 30 0 0 30 0 0 30 0 0 30 0 0 30 0 0 30 0 0 30 0 0 30 0 0 30 0 0 30 0 0 30 0 0 30 0 0 30 0 0 30 0 0 30 0 0 30 0 0 30 0 0 30 0 0 30 0 0 30 0 0 30 0 0 30 0 0 30 0 0 30 0 0 30 0 0 30 0 0 30 0 0 30 0 0 30 0 0 30 0 0 30 0 0 30 0 0 30 0 0 30 0 0 30 0 0 30 0 0 30 0 0 30 0 0 30 0 0 30 0 0 30 0 0 30 0 0 30 0 0 30 0 0 30 0 0 30 0 0 30 0 0 30 0 0 30 0 0 30 0 0 30 0 0 30 0 0 30 0 0 30 0 0 30 0 0 30 0 0 30 0 0 30 0 0 30 0 0 30 0 0 30 0 0 30 0 0 30 0 0 30 0 0 30 0 0 30 0 0 30 0 0 30 0 0 30 0 0 30 0 0 30 0 0 30 0 0 30 0 0 30 0 0 30 0 0 30 0 0 30 0 0 30 0 0 30 0 0 30 0 0 30 0 0 30 0 0 30 0 0 30 0 0 30 0 0 30 0 0 30 0 0 30 0 0 30 0 0 30 0 0 30 0 0 30 0 0 30 0 0 30 0 0 30 0 0 30 0 0 30 0 0 30 0 0 30 0 0 30 0 0 30 0 0 30 0 0 30 0 0 30 0 0 30 0 0 30 0 0 30 0 0 30 0 0 30 0 0 30 0 0 30 0 0 30 0 0 30 0 0 30 0 0 30 0 0 30 0 0 30 0 0 30 0 0 30 0 0 30 0 0 30 0 0 30 0 0 30 0 0 30 0 0 30 0 0 30 0 0 30 0 0 30 0 0 30 
0 0 30 0 0 30 0 0 30 0 0 30 0 0 30 0 0 30 0 0 30 0 0 30 0 0 30 0 0 30 0 0 30 0 0 30 0 0 30 0 0 30 0 0 30 0 0 30 0 0 30 0 0 30 0 0 30 0 0 30 0 0 30 0 0 30 0 0 30 0 0 30 0 0 30 0 0 30 0 0 30 0 0 30 0 0 30 0 0 30 0 0 30 0 0 30 0 0 30 0 0 30 0 0 30 0 0 30 0 0 30 0 0 30 0 0 30 0 0 30 0 0 30 0 0 30 0 0 30 0 0 30 0 0 30 0 0 30 0 0 30 0 0 30 0 0 30 0 0 30 0 0 30 0 0 30 0 0 30 0 0 30 0 0 30 0 0 30 0 0 30 0 0 30 0 0 30 0 0 30 0 0 30 0 0 30 0 0 30 0 0 30 0 0 30 0 0 30 0 0 30 0 0 30 0 0 30 0 0 30 0 0 30 0 0 30 0 0 30 0 0 30 0 0 30 0 0 30 0 0 30 0 0 30 0 0 30 0 0 30 0 0 30 0 0 30 0 0 30 0 0 30 0 0 30 0 0 30 0 0 30 0 0 30 0 0 30 0 0 30 0 0 30 0 0 30 0 0 30 0 0 30 0 0 30 0 0 30 0 0 30 0 0 30 0 0 30 0 0 30 0 0 30 0 0 30 0 0 30 0 0 30 0 0 30 0 0 30 0 0 30 0 0 30 0 0 30 0 0 30 0 0 30 0 0 30 0 0 30 0 0 30 0 0 30 0 0 30 0 0 30 0 0 30 0 0 30 0 0 30 0 0 30 0 0 30 0 0 30 0 0 30 0 0 30 0 0 30 0 0 30 0 0 30 0 0 30 0 0 30 0 0 30 0 0 30 0 0 30 0 0 30 0 0 30 0 0 30 0 0 30 0 0 30 0 0 30 0 0 30 0 0 30 0 0 30 0 0 30 0 0 30 0 0 30 0 0 30 0 0 30 0 0 30 0 0 30 0 0 30 0 0 30 0 0 30 0 0 30 0 0 30 0 0 30 0 0 30 0 0 30 0 0 30 0 0 30 0 0 30 0 0 30 0 0 30 0 0 30 0 0 30 0 0 30 0 0 30 0 0 30 0 0 30 0 0 30 0 0 30 0 0 30 0 0 30 0 0 30 0 0 30 0 0 30 0 0 30 0 0 30 0 0 30 0 0 30 0 0 30 0 0 30 0 0 30 0 0 30 0 0 30 0 0 30 0 0 30 0 0 30 0 0 30 0 0 30 0 0 30 0 0 30 0 0 30 0 0 30 0 0 30 0 0 30 0 0 30 0 0 30 0 0 30 0 0 30 0 0 30 0 0 30 0 0 30 0 0 30 0 0 30 0 0 30 0 0 30 0 0 30 0 0 30 0 0 30 0 0 30 0 0 30 0 0 30 0 0 30 0 0 30 0 0 30 0 0 30 0 0 30 0 0 30 0 0 30 0 0 30 0 0 30 0 0 30 0 0 30 0 0 30 0 0 30 0 0 30 0 0 30 0 0 30 0 0 30 0 0 30 0 0 30 0 0 30 0 0 30 0 0 30 0 0 30 0 0 30 0 0 30 0 0 30 0 0 30 0 0 30 0 0 30 0 0 30 0 0 30 0 0 30 0 0 30 0 0 30 0 0 30 0 0 30 0 0 30 0 0 30 0 0 30 0 0 30 0 0 30 0 0 30 0 0 30 0 0 30 0 0 30 0 0 30 0 0 30 0 0 30 0 0 30 0 0 30 0 0 30 0 0 30 0 0 30 0 0 30 0 0 30 0 0 30 0 0 30 0 0 30 0 0 30 0 0 30 0 0 30 0 0 30 0 0 30 0 0 30 0 0 30 0 0 30 0 0 30 0 0 30 0 0 30 0 0 30 0 0 30 0 0 30 0 0 30 0 0 30 0 0 30 0 0 30 0 0 30 0 0 30 0 0 30 0 0 30 0 0 30 0 0 30 0 0 30 0 0 30 0 0 30 0 0 30 0 0 30 0 0 30 
0 0 30 0 0 30 0 0 30 0 0 30 0 0 30 0 0 30 0 0 30 0 0 30 0 0 30 0 0 30 0 0 30 0 0 30 0 0 30 0 0 30 0 0 30 0 0 30 0 0 30 0 0 30 0 0 30 0 0 30 0 0 30 0 0 30 0 0 30 0 0 30 0 0 30 0 0 30 0 0 30 0 0 30 0 0 30 0 0 30 0 0 30 0 0 30 0 0 30 0 0 30 0 0 30 0 0 30 0 0 30 0 0 30 0 0 30 0 0 30 0 0 30 0 0 30 0 0 30 0 0 30 0 0 30 0 0 30 0 0 30 0 0 30 0 0 30 0 0 30 0 0 30 0 0 30 0 0 30 0 0 30 0 0 30 0 0 30 0 0 30 0 0 30 0 0 30 0 0 30 0 0 30 0 0 30 0 0 30 0 0 30 0 0 30 0 0 30 0 0 30 0 0 30 0 0 30 0 0 30 0 0 30 0 0 30 0 0 30 0 0 30 0 0 30 0 0 30 0 0 30 0 0 30 0 0 30 0 0 30 0 0 30 0 0 30 0 0 30 0 0 30 0 0 30 0 0 30 0 0 30 0 0 30 0 0 30 0 0 30 0 0 30 0 0 30 0 0 30 0 0 30 0 0 30 0 0 30 0 0 30 0 0 30 0 0 30 0 0 30 0 0 30 0 0 30 0 0 30 0 0 30 0 0 30 0 0 30 0 0 30 0 0 30 0 0 30 0 0 30 0 0 30 0 0 30 0 0 30 0 0 30 0 0 30 0 0 30 0 0 30 0 0 30 0 0 30 0 0 30 0 0 30 0 0 30 0 0 30 0 0 30 0 0 30 0 0 30 0 0 30 0 0 30 0 0 30 0 0 30 0 0 30 0 0 30 0 0 30 0 0 30 0 0 30 0 0 30 0 0 30 0 0 30 0 0 30 0 0 30 0 0 30 0 0 30 0 0 30 0 0 30 0 0 30 0 0 30 0 0 30 0 0 30 0 0 30 0 0 30 0 0 30 0 0 30 0 0 30 0 0 30 0 0 30 0 0 30 0 0 30 0 0 30 0 0 30 0 0 30 0 0 30 0 0 30 0 0 30 0 0 30 0 0 30 0 0 30 0 0 30 0 0 30 0 0 30 0 0 30 0 0 30 0 0 30 0 0 30 0 0 30 0 0 30 0 0 30 0 0 30 0 0 30 0 0 30 0 0 30 0 0 30 0 0 30 0 0 30 0 0 30 0 0 30 0 0 30 0 0 30 0 0 30 0 0 30 0 0 30 0 0 30 0 0 30 0 0 30 0 0 30 0 0 30 0 0 30 0 0 30 0 0 30 0 0 30 0 0 30 0 0 30 0 0 30 0 0 30 0 0 30 0 0 30 0 0 30 0 0 30 0 0 30 0 0 30 0 0 30 0 0 30 0 0 30 0 0 30 0 0 30 0 0 30 0 0 30 0 0 30 0 0 30 0 0 30 0 0 30 0 0 30 0 0 30 0 0 30 0 0 30 0 0 30 0 0 30 0 0 30 0 0 30 0 0 30 0 0 30 0 0 30 0 0 30 0 0 30 0 0 30 0 0 30 0 0 30 0 0 30 0 0 30 0 0 30 0 0 30 0 0 30 0 0 30 0 0 30 0 0 30 0 0 30 0 0 30 0 0 30 0 0 30 0 0 30 0 0 30 0 0 30 0 0 30 0 0 30 0 0 30 0 0 30 0 0 30 0 0 30 0 0 30 0 0 30 0 0 30 0 0 30 0 0 30 0 0 30 0 0 30 0 0 30 0 0 30 0 0 30 0 0 30 0 0 30 0 0 30 0 0 30 0 0 30 0 0 30 0 0 30 0 0 30 0 0 30 0 0 30 0 0 30 0 0 30 0 0 30 0 0 30 0 0 30 0 0 30 0 0 30 0 0 30 0 0 30 0 0 30 0 0 30 0 0 30 0 0 30 0 0 30 0 0 30 0 0 30 0 0 30 0 0 30 0 0 30 0 0 30 0 0 30 0 0 30 0 0 30 
0 0 30 0 0 30 0 0 30 0 0 30 0 0 30 0 0 30 0 0 30 0 0 30 0 0 30 0 0 30 0 0 30 0 0 30 0 0 30 0 0 30 0 0 30 0 0 30 0 0 30 0 0 30 0 0 30 0 0 30 0 0 30 0 0 30 0 0 30 0 0 30 0 0 30 0 0 30 0 0 30 0 0 30 0 0 30 0 0 30 0 0 30 0 0 30 0 0 30 0 0 30 0 0 30 0 0 30 0 0 30 0 0 30 0 0 30 0 0 30 0 0 30 0 0 30 0 0 30 0 0 30 0 0 30 0 0 30 0 0 30 0 0 30 0 0 30 0 0 30 0 0 30 0 0 30 0 0 30 0 0 30 0 0 30 0 0 30 0 0 30 0 0 30 0 0 30 0 0 30 0 0 30 0 0 30 0 0 30 0 0 30 0 0 30 0 0 30 0 0 30 0 0 30 0 0 30 0 0 30 0 0 30 0 0 30 0 0 30 0 0 30 0 0 30 0 0 30 0 0 30 0 0 30 0 0 30 0 0 30 0 0 30 0 0 30 0 0 30 0 0 30 0 0 30 0 0 30 0 0 30 0 0 30 0 0 30 0 0 30 0 0 30 0 0 30 0 0 30 0 0 30 0 0 30 0 0 30 0 0 30 0 0 30 0 0 30 0 0 30 0 0 30 0 0 30 0 0 30 0 0 30 0 0 30 0 0 30 0 0 30 0 0 30 0 0 30 0 0 30 0 0 30 0 0 30 0 0 30 0 0 30 0 0 30 0 0 30 0 0 30 0 0 30 0 0 30 0 0 30 0 0 30 0 0 30 0 0 30 0 0 30 0 0 30 0 0 30 0 0 30 0 0 30 0 0 30 0 0 30 0 0 30 0 0 30 0 0 30 0 0 30 0 0 30 0 0 30 0 0 30 0 0 30 0 0 30 0 0 30 0 0 30 0 0 30 0 0 30 0 0 30 0 0 30 0 0 30 0 0 30 0 0 30 0 0 30 0 0 30 0 0 30 0 0 30 0 0 30 0 0 30 0 0 30 0 0 30 0 0 30 0 0 30 0 0 30 0 0 30 0 0 30 0 0 30 0 0 30 0 0 30 0 0 30 0 0 30 0 0 30 0 0 30 0 0 30 0 0 30 0 0 30 0 0 30 0 0 30 0 0 30 0 0 30 0 0 30 0 0 30 0 0 30 0 0 30 0 0 30 0 0 30 0 0 30 0 0 30 0 0 30 0 0 30 0 0 30 0 0 30 0 0 30 0 0 30 0 0 30 0 0 30 0 0 30 0 0 30 0 0 30 0 0 30 0 0 30 0 0 30 0 0 30 0 0 30 0 0 30 0 0 30 0 0 30 0 0 30 0 0 30 0 0 30 0 0 30 0 0 30 0 0 30 0 0 30 0 0 30 0 0 30 0 0 30 0 0 30 0 0 30 0 0 30 0 0 30 0 0 30 0 0 30 0 0 30 0 0 30 0 0 30 0 0 30 0 0 30 0 0 30 0 0 30 0 0 30 0 0 30 0 0 30 0 0 30 0 0 30 0 0 30 0 0 30 0 0 30 0 0 30 0 0 30 0 0 30 0 0 30 0 0 30 0 0 30 0 0 30 0 0 30 0 0 30 0 0 30 0 0 30 0 0 30 0 0 30 0 0 30 0 0 30 0 0 30 0 0 30 0 0 30 0 0 30 0 0 30 0 0 30 0 0 30 0 0 30 0 0 30 0 0 30 0 0 30 0 0 30 0 0 30 0 0 30 0 0 30 0 0 30 0 0 30 0 0 30 0 0 30 0 0 30 0 0 30 0 0 30 0 0 30 0 0 30 0 0 30 0 0 30 0 0 30 0 0 30 0 0 30 0 0 30 0 0 30 0 0 30 0 0 30 0 0 30 0 0 30 0 0 30 0 0 30 0 0 30 0 0 30 0 0 30 0 0 30 0 0 30 0 0 30 0 0 30 0 0 30 0 0 30 0 0 30 0 0 30 0 0 30 0 0 30 0 0 30 0 0 30 
0 0 30 0 0 30 0 0 30 0 0 30 0 0 30 0 0 30 0 0 30 0 0 30 0 0 30 0 0 30 0 0 30 0 0 30 0 0 30 0 0 30 0 0 30 0 0 30 0 0 30 0 0 30 0 0 30 0 0 30 0 0 30 0 0 30 0 0 30 0 0 30 0 0 30 0 0 30 0 0 30 0 0 30 0 0 30 0 0 30 0 0 30 0 0 30 0 0 30 0 0 30 0 0 30 0 0 30 0 0 30 0 0 30 0 0 30 0 0 30 0 0 30 0 0 30 0 0 30 0 0 30 0 0 30 0 0 30 0 0 30 0 0 30 0 0 30 0 0 30 0 0 30 0 0 30 0 0 30 0 0 30 0 0 30 0 0 30 0 0 30 0 0 30 0 0 30 0 0 30 0 0 30 0 0 30 0 0 30 0 0 30 0 0 30 0 0 30 0 0 30 0 0 30 0 0 30 0 0 30 0 0 30 0 0 30 0 0 30 0 0 30 0 0 30 0 0 30 0 0 30 0 0 30 0 0 30 0 0 30 0 0 30 0 0 30 0 0 30 0 0 30 0 0 30 0 0 30 0 0 30 0 0 30 0 0 30 0 0 30 0 0 30 0 0 30 0 0 30 0 0 30 0 0 30 0 0 30 0 0 30 0 0 30 0 0 30 0 0 30 0 0 30 0 0 30 0 0 30 0 0 30 0 0 30 0 0 30 0 0 30 0 0 30 0 0 30 0 0 30 0 0 30 0 0 30 0 0 30 0 0 30 0 0 30 0 0 30 0 0 30 0 0 30 0 0 30 0 0 30 0 0 30 0 0 30 0 0 30 0 0 30 0 0 30 0 0 30 0 0 30 0 0 30 0 0 30 0 0 30 0 0 30 0 0 30 0 0 30 0 0 30 0 0 30 0 0 30 0 0 30 0 0 30 0 0 30 0 0 30 0 0 30 0 0 30 0 0 30 0 0 30 0 0 30 0 0 30 0 0 30 0 0 30 0 0 30 0 0 30 0 0 30 0 0 30 0 0 30 0 0 30 0 0 30 0 0 30 0 0 30 0 0 30 0 0 30 0 0 30 0 0 30 0 0 30 0 0 30 0 0 30 0 0 30 0 0 30 0 0 30 0 0 30 0 0 30 0 0 30 0 0 30 0 0 30 0 0 30 0 0 30 0 0 30 0 0 30 0 0 30 0 0 30 0 0 30 0 0 30 0 0 30 0 0 30 0 0 30 0 0 30 0 0 30 0 0 30 0 0 30 0 0 30 0 0 30 0 0 30 0 0 30 0 0 30 0 0 30 0 0 30 0 0 30 0 0 30 0 0 30 0 0 30 0 0 30 0 0 30 0 0 30 0 0 30 0 0 30 0 0 30 0 0 30 0 0 30 0 0 30 0 0 30 0 0 30 0 0 30 0 0 30 0 0 30 0 0 30 0 0 30 0 0 30 0 0 30 0 0 30 0 0 30 0 0 30 0 0 30 0 0 30 0 0 30 0 0 30 0 0 30 0 0 30 0 0 30 0 0 30 0 0 30 0 0 30 0 0 30 0 0 30 0 0 30 0 0 30 0 0 30 0 0 30 0 0 30 0 0 30 0 0 30 0 0 30 0 0 30 0 0 30 0 0 30 0 0 30 0 0 30 0 0 30 0 0 30 0 0 30 0 0 30 0 0 30 0 0 30 0 0 30 0 0 30 0 0 30 0 0 30 0 0 30 0 0 30 0 0 30 0 0 30 0 0 30 0 0 30 0 0 30 0 0 30 0 0 30 0 0 30 0 0 30 0 0 30 0 0 30 0 0 30 0 0 30 0 0 30 0 0 30 0 0 30 0 0 30 0 0 30 0 0 30 0 0 30 0 0 30 0 0 30 0 0 30 0 0 30 0 0 30 0 0 30 0 0 30 0 0 30 0 0 30 0 0 30 0 0 30 0 0 30 0 0 30 0 0 30 0 0 30 0 0 30 0 0 30 0 0 30 0 0 30 0 0 30 0 0 30 0 0 30 0 0 30 0 0 30 
0 0 30 0 0 30 0 0 30 0 0 30 0 0 30 0 0 30 0 0 30 0 0 30 0 0 30 0 0 30 0 0 30 0 0 30 0 0 30 0 0 30 0 0 30 0 0 30 0 0 30 0 0 30 0 0 30 0 0 30 0 0 30 0 0 30 0 0 30 0 0 30 0 0 30 0 0 30 0 0 30 0 0 30 0 0 30 0 0 30 0 0 30 0 0 30 0 0 30 0 0 30 0 0 30 0 0 30 0 0 30 0 0 30 0 0 30 0 0 30 0 0 30 0 0 30 0 0 30 0 0 30 0 0 30 0 0 30 0 0 30 0 0 30 0 0 30 0 0 30 0 0 30 0 0 30 0 0 30 0 0 30 0 0 30 0 0 30 0 0 30 0 0 30 0 0 30 0 0 30 0 0 30 0 0 30 0 0 30 0 0 30 0 0 30 0 0 30 0 0 30 0 0 30 0 0 30 0 0 30 0 0 30 0 0 30 0 0 30 0 0 30 0 0 30 0 0 30 0 0 30 0 0 30 0 0 30 0 0 30 0 0 30 0 0 30 0 0 30 0 0 30 0 0 30 0 0 30 0 0 30 0 0 30 0 0 30 0 0 30 0 0 30 0 0 30 0 0 30 0 0 30 0 0 30 0 0 30 0 0 30 0 0 30 0 0 30 0 0 30 0 0 30 0 0 30 0 0 30 0 0 30 0 0 30 0 0 30 0 0 30 0 0 30 0 0 30 0 0 30 0 0 30 0 0 30 0 0 30 0 0 30 0 0 30 0 0 30 0 0 30 0 0 30 0 0 30 0 0 30 0 0 30 0 0 30 0 0 30 0 0 30 0 0 30 0 0 30 0 0 30 0 0 30 0 0 30 0 0 30 0 0 30 0 0 30 0 0 30 0 0 30 0 0 30 0 0 30 0 0 30 0 0 30 0 0 30 0 0 30 0 0 30 0 0 30 0 0 30 0 0 30 0 0 30 0 0 30 0 0 30 0 0 30 0 0 30 0 0 30 0 0 30 0 0 30 0 0 30 0 0 30 0 0 30 0 0 30 0 0 30 0 0 30 0 0 30 0 0 30 0 0 30 0 0 30 0 0 30 0 0 30 0 0 30 0 0 30 0 0 30 0 0 30 0 0 30 0 0 30 0 0 30 0 0 30 0 0 30 0 0 30 0 0 30 0 0 30 0 0 30 0 0 30 0 0 30 0 0 30 0 0 30 0 0 30 0 0 30 0 0 30 0 0 30 0 0 30 0 0 30 0 0 30 0 0 30 0 0 30 0 0 30 0 0 30 0 0 30 0 0 30 0 0 30 0 0 30 0 0 30 0 0 30 0 0 30 0 0 30 0 0 30 0 0 30 0 0 30 0 0 30 0 0 30 0 0 30 0 0 30 0 0 30 0 0 30 0 0 30 0 0 30 0 0 30 0 0 30 0 0 30 0 0 30 0 0 30 0 0 30 0 0 30 0 0 30 0 0 30 0 0 30 0 0 30 0 0 30 0 0 30 0 0 30 0 0 30 0 0 30 0 0 30 0 0 30 0 0 30 0 0 30 0 0 30 0 0 30 0 0 30 0 0 30 0 0 30 0 0 30 0 0 30 0 0 30 0 0 30 0 0 30 0 0 30 0 0 30 0 0 30 0 0 30 0 0 30 0 0 30 0 0 30 0 0 30 0 0 30 0 0 30 0 0 30 0 0 30 0 0 30 0 0 30 0 0 30 0 0 30 0 0 30 0 0 30 0 0 30 0 0 30 0 0 30 0 0 30 0 0 30 0 0 30 0 0 30 0 0 30 0 0 30 0 0 30 0 0 30 0 0 30 0 0 30 0 0 30 0 0 30 0 0 30 0 0 30 0 0 30 0 0 30 0 0 30 0 0 30 0 0 30 0 0 30 0 0 30 0 0 30 0 0 30 0 0 30 0 0 30 0 0 30 0 0 30 0 0 30 0 0 30 0 0 30 0 0 30 0 0 30 0 0 30 0 0 30 0 0 30 0 0 30 0 0 30 0 0 30 
0 0 30 0 0 30 0 0 30 0 0 30 0 0 30 0 0 30 0 0 30 0 0 30 0 0 30 0 0 30 0 0 30 0 0 30 0 0 30 0 0 30 0 0 30 0 0 30 0 0 30 0 0 30 0 0 30 0 0 30 0 0 30 0 0 30 0 0 30 0 0 30 0 0 30 0 0 30 0 0 30 0 0 30 0 0 30 0 0 30 0 0 30 0 0 30 0 0 30 0 0 30 0 0 30 0 0 30 0 0 30 0 0 30 0 0 30 0 0 30 0 0 30 0 0 30 0 0 30 0 0 30 0 0 30 0 0 30 0 0 30 0 0 30 0 0 30 0 0 30 0 0 30 0 0 30 0 0 30 0 0 30 0 0 30 0 0 30 0 0 30 0 0 30 0 0 30 0 0 30 0 0 30 0 0 30 0 0 30 0 0 30 0 0 30 0 0 30 0 0 30 0 0 30 0 0 30 0 0 30 0 0 30 0 0 30 0 0 30 0 0 30 0 0 30 0 0 30 0 0 30 0 0 30 0 0 30 0 0 30 0 0 30 0 0 30 0 0 30 0 0 30 0 0 30 0 0 30 0 0 30 0 0 30 0 0 30 0 0 30 0 0 30 0 0 30 0 0 30 0 0 30 0 0 30 0 0 30 0 0 30 0 0 30 0 0 30 0 0 30 0 0 30 0 0 30 0 0 30 0 0 30 0 0 30 0 0 30 0 0 30 0 0 30 0 0 30 0 0 30 0 0 30 0 0 30 0 0 30 0 0 30 0 0 30 0 0 30 0 0 30 0 0 30 0 0 30 0 0 30 0 0 30 0 0 30 0 0 30 0 0 30 0 0 30 0 0 30 0 0 30 0 0 30 0 0 30 0 0 30 0 0 30 0 0 30 0 0 30 0 0 30 0 0 30 0 0 30 0 0 30 0 0 30 0 0 30 0 0 30 0 0 30 0 0 30 0 0 30 0 0 30 0 0 30 0 0 30 0 0 30 0 0 30 0 0 30 0 0 30 0 0 30 0 0 30 0 0 30 0 0 30 0 0 30 0 0 30 0 0 30 0 0 30 0 0 30 0 0 30 0 0 30 0 0 30 0 0 30 0 0 30 0 0 30 0 0 30 0 0 30 0 0 30 0 0 30 0 0 30 0 0 30 0 0 30 0 0 30 0 0 30 0 0 30 0 0 30 0 0 30 0 0 30 0 0 30 0 0 30 0 0 30 0 0 30 0 0 30 0 0 30 0 0 30 0 0 30 0 0 30 0 0 30 0 0 30 0 0 30 0 0 30 0 0 30 0 0 30 0 0 30 0 0 30 0 0 30 0 0 30 0 0 30 0 0 30 0 0 30 0 0 30 0 0 30 0 0 30 0 0 30 0 0 30 0 0 30 0 0 30 0 0 30 0 0 30 0 0 30 0 0 30 0 0 30 0 0 30 0 0 30 0 0 30 0 0 30 0 0 30 0 0 30 0 0 30 0 0 30 0 0 30 0 0 30 0 0 30 0 0 30 0 0 30 0 0 30 0 0 30 0 0 30 0 0 30 0 0 30 0 0 30 0 0 30 0 0 30 0 0 30 0 0 30 0 0 30 0 0 30 0 0 30 0 0 30 0 0 30 0 0 30 0 0 30 0 0 30 0 0 30 0 0 30 0 0 30 0 0 30 0 0 30 0 0 30 0 0 30 0 0 30 0 0 30 0 0 30 0 0 30 0 0 30 0 0 30 0 0 30 0 0 30 0 0 30 0 0 30 0 0 30 0 0 30 0 0 30 0 0 30 0 0 30 0 0 30 0 0 30 0 0 30 0 0 30 0 0 30 0 0 30 0 0 30 0 0 30 0 0 30 0 0 30 0 0 30 0 0 30 0 0 30 0 0 30 0 0 30 0 0 30 0 0 30 0 0 30 0 0 30 0 0 30 0 0 30 0 0 30 0 0 30 0 0 30 0 0 30 0 0 30 0 0 30 0 0 30 0 0 30 0 0 30 0 0 30 0 0 30 0 0 30 0 0 30 0 0 30 
0 0 30 0 0 30 0 0 30 0 0 30 0 0 30 0 0 30 0 0 30 0 0 30 0 0 30 0 0 30 0 0 30 0 0 30 0 0 30 0 0 30 0 0 30 0 0 30 0 0 30 0 0 30 0 0 30 0 0 30 0 0 30 0 0 30 0 0 30 0 0 30 0 0 30 0 0 30 0 0 30 0 0 30 0 0 30 0 0 30 0 0 30 0 0 30 0 0 30 0 0 30 0 0 30 0 0 30 0 0 30 0 0 30 0 0 30 0 0 30 0 0 30 0 0 30 0 0 30 0 0 30 0 0 30 0 0 30 0 0 30 0 0 30 0 0 30 0 0 30 0 0 30 0 0 30 0 0 30 0 0 30 0 0 30 0 0 30 0 0 30 0 0 30 0 0 30 0 0 30 0 0 30 0 0 30 0 0 30 0 0 30 0 0 30 0 0 30 0 0 30 0 0 30 0 0 30 0 0 30 0 0 30 0 0 30 0 0 30 0 0 30 0 0 30 0 0 30 0 0 30 0 0 30 0 0 30 0 0 30 0 0 30 0 0 30 0 0 30 0 0 30 0 0 30 0 0 30 0 0 30 0 0 30 0 0 30 0 0 30 0 0 30 0 0 30 0 0 30 0 0 30 0 0 30 0 0 30 0 0 30 0 0 30 0 0 30 0 0 30 0 0 30 0 0 30 0 0 30 0 0 30 0 0 30 0 0 30 0 0 30 0 0 30 0 0 30 0 0 30 0 0 30 0 0 30 0 0 30 0 0 30 0 0 30 0 0 30 0 0 30 0 0 30 0 0 30 0 0 30 0 0 30 0 0 30 0 0 30 0 0 30 0 0 30 0 0 30 0 0 30 0 0 30 0 0 30 0 0 30 0 0 30 0 0 30 0 0 30 0 0 30 0 0 30 0 0 30 0 0 30 0 0 30 0 0 30 0 0 30 0 0 30 0 0 30 0 0 30 0 0 30 0 0 30 0 0 30 0 0 30 0 0 30 0 0 30 0 0 30 0 0 30 0 0 30 0 0 30 0 0 30 0 0 30 0 0 30 0 0 30 0 0 30 0 0 30 0 0 30 0 0 30 0 0 30 0 0 30 0 0 30 0 0 30 0 0 30 0 0 30 0 0 30 0 0 30 0 0 30 0 0 30 0 0 30 0 0 30 0 0 30 0 0 30 0 0 30 0 0 30 0 0 30 0 0 30 0 0 30 0 0 30 0 0 30 0 0 30 0 0 30 0 0 30 0 0 30 0 0 30 0 0 30 0 0 30 0 0 30 0 0 30 0 0 30 0 0 30 0 0 30 0 0 30 0 0 30 0 0 30 0 0 30 0 0 30 0 0 30 0 0 30 0 0 30 0 0 30 0 0 30 0 0 30 0 0 30 0 0 30 0 0 30 0 0 30 0 0 30 0 0 30 0 0 30 0 0 30 0 0 30 0 0 30 0 0 30 0 0 30 0 0 30 0 0 30 0 0 30 0 0 30 0 0 30 0 0 30 0 0 30 0 0 30 0 0 30 0 0 30 0 0 30 0 0 30 0 0 30 0 0 30 0 0 30 0 0 30 0 0 30 0 0 30 0 0 30 0 0 30 0 0 30 0 0 30 0 0 30 0 0 30 0 0 30 0 0 30 0 0 30 0 0 30 0 0 30 0 0 30 0 0 30 0 0 30 0 0 30 0 0 30 0 0 30 0 0 30 0 0 30 0 0 30 0 0 30 0 0 30 0 0 30 0 0 30 0 0 30 0 0 30 0 0 30 0 0 30 0 0 30 0 0 30 0 0 30 0 0 30 0 0 30 0 0 30 0 0 30 0 0 30 0 0 30 0 0 30 0 0 30 0 0 30 0 0 30 0 0 30 0 0 30 0 0 30 0 0 30 0 0 30 0 0 30 0 0 30 0 0 30 0 0 30 0 0 30 0 0 30 0 0 30 0 0 30 0 0 30 0 0 30 0 0 30 0 0 30 0 0 30 0 0 30 0 0 30 0 0 30 0 0 30 0 0 30 0 0 30 
0 0 30 0 0 30 0 0 30 0 0 30 0 0 30 0 0 30 0 0 30 0 0 30 0 0 30 0 0 30 0 0 30 0 0 30 0 0 30 0 0 30 0 0 30 0 0 30 0 0 30 0 0 30 0 0 30 0 0 30 0 0 30 0 0 30 0 0 30 0 0 30 0 0 30 0 0 30 0 0 30 0 0 30 0 0 30 0 0 30 0 0 30 0 0 30 0 0 30 0 0 30 0 0 30 0 0 30 0 0 30 0 0 30 0 0 30 0 0 30 0 0 30 0 0 30 0 0 30 0 0 30 0 0 30 0 0 30 0 0 30 0 0 30 0 0 30 0 0 30 0 0 30 0 0 30 0 0 30 0 0 30 0 0 30 0 0 30 0 0 30 0 0 30 0 0 30 0 0 30 0 0 30 0 0 30 0 0 30 0 0 30 0 0 30 0 0 30 0 0 30 0 0 30 0 0 30 0 0 30 0 0 30 0 0 30 0 0 30 0 0 30 0 0 30 0 0 30 0 0 30 0 0 30 0 0 30 0 0 30 0 0 30 0 0 30 0 0 30 0 0 30 0 0 30 0 0 30 0 0 30 0 0 30 0 0 30 0 0 30 0 0 30 0 0 30 0 0 30 0 0 30 0 0 30 0 0 30 0 0 30 0 0 30 0 0 30 0 0 30 0 0 30 0 0 30 0 0 30 0 0 30 0 0 30 0 0 30 0 0 30 0 0 30 0 0 30 0 0 30 0 0 30 0 0 30 0 0 30 0 0 30 0 0 30 0 0 30 0 0 30 0 0 30 0 0 30 0 0 30 0 0 30 0 0 30 0 0 30 0 0 30 0 0 30 0 0 30 0 0 30 0 0 30 0 0 30 0 0 30 0 0 30 0 0 30 0 0 30 0 0 30 0 0 30 0 0 30 0 0 30 0 0 30 0 0 30 0 0 30 0 0 30 0 0 30 0 0 30 0 0 30 0 0 30 0 0 30 0 0 30 0 0 30 0 0 30 0 0 30 0 0 30 0 0 30 0 0 30 0 0 30 0 0 30 0 0 30 0 0 30 0 0 30 0 0 30 0 0 30 0 0 30 0 0 30 0 0 30 0 0 30 0 0 30 0 0 30 0 0 30 0 0 30 0 0 30 0 0 30 0 0 30 0 0 30 0 0 30 0 0 30 0 0 30 0 0 30 0 0 30 0 0 30 0 0 30 0 0 30 0 0 30 0 0 30 0 0 30 0 0 30 0 0 30 0 0 30 0 0 30 0 0 30 0 0 30 0 0 30 0 0 30 0 0 30 0 0 30 0 0 30 0 0 30 0 0 30 0 0 30 0 0 30 0 0 30 0 0 30 0 0 30 0 0 30 0 0 30 0 0 30 0 0 30 0 0 30 0 0 30 0 0 30 0 0 30 0 0 30 0 0 30 0 0 30 0 0 30 0 0 30 0 0 30 0 0 30 0 0 30 0 0 30 0 0 30 0 0 30 0 0 30 0 0 30 0 0 30 0 0 30 0 0 30 0 0 30 0 0 30 0 0 30 0 0 30 0 0 30 0 0 30 0 0 30 0 0 30 0 0 30 0 0 30 0 0 30 0 0 30 0 0 30 0 0 30 0 0 30 0 0 30 0 0 30 0 0 30 0 0 30 0 0 30 0 0 30 0 0 30 0 0 30 0 0 30 0 0 30 0 0 30 0 0 30 0 0 30 0 0 30 0 0 30 0 0 30 0 0 30 0 0 30 0 0 30 0 0 30 0 0 30 0 0 30 0 0 30 0 0 30 0 0 30 0 0 30 0 0 30 0 0 30 0 0 30 0 0 30 0 0 30 0 0 30 0 0 30 0 0 30 0 0 30 0 0 30 0 0 30 0 0 30 0 0 30 0 0 30 0 0 30 0 0 30 0 0 30 0 0 30 0 0 30 0 0 30 0 0 30 0 0 30 0 0 30 0 0 30 0 0 30 0 0 30 0 0 30 0 0 30 0 0 30 0 0 30 0 0 30 0 0 30 0 0 30 0 0 30 
0 0 30 0 0 30 0 0 30 0 0 30 0 0 30 0 0 30 0 0 30 0 0 30 0 0 30 0 0 30 0 0 30 0 0 30 0 0 30 0 0 30 0 0 30 0 0 30 0 0 30 0 0 30 0 0 30 0 0 30 0 0 30 0 0 30 0 0 30 0 0 30 0 0 30 0 0 30 0 0 30 0 0 30 0 0 30 0 0 30 0 0 30 0 0 30 0 0 30 0 0 30 0 0 30 0 0 30 0 0 30 0 0 30 0 0 30 0 0 30 0 0 30 0 0 30 0 0 30 0 0 30 0 0 30 0 0 30 0 0 30 0 0 30 0 0 30 0 0 30 0 0 30 0 0 30 0 0 30 0 0 30 0 0 30 0 0 30 0 0 30 0 0 30 0 0 30 0 0 30 0 0 30 0 0 30 0 0 30 0 0 30 0 0 30 0 0 30 0 0 30 0 0 30 0 0 30 0 0 30 0 0 30 0 0 30 0 0 30 0 0 30 0 0 30 0 0 30 0 0 30 0 0 30 0 0 30 0 0 30 0 0 30 0 0 30 0 0 30 0 0 30 0 0 30 0 0 30 0 0 30 0 0 30 0 0 30 0 0 30 0 0 30 0 0 30 0 0 30 0 0 30 0 0 30 0 0 30 0 0 30 0 0 30 0 0 30 0 0 30 0 0 30 0 0 30 0 0 30 0 0 30 0 0 30 0 0 30 0 0 30 0 0 30 0 0 30 0 0 30 0 0 30 0 0 30 0 0 30 0 0 30 0 0 30 0 0 30 0 0 30 0 0 30 0 0 30 0 0 30 0 0 30 0 0 30 0 0 30 0 0 30 0 0 30 0 0 30 0 0 30 0 0 30 0 0 30 0 0 30 0 0 30 0 0 30 0 0 30 0 0 30 0 0 30 0 0 30 0 0 30 0 0 30 0 0 30 0 0 30 0 0 30 0 0 30 0 0 30 0 0 30 0 0 30 0 0 30 0 0 30 0 0 30 0 0 30 0 0 30 0 0 30 0 0 30 0 0 30 0 0 30 0 0 30 0 0 30 0 0 30 0 0 30 0 0 30 0 0 30 0 0 30 0 0 30 0 0 30 0 0 30 0 0 30 0 0 30 0 0 30 0 0 30 0 0 30 0 0 30 0 0 30 0 0 30 0 0 30 0 0 30 0 0 30 0 0 30 0 0 30 0 0 30 0 0 30 0 0 30 0 0 30 0 0 30 0 0 30 0 0 30 0 0 30 0 0 30 0 0 30 0 0 30 0 0 30 0 0 30 0 0 30 0 0 30 0 0 30 0 0 30 0 0 30 0 0 30 0 0 30 0 0 30 0 0 30 0 0 30 0 0 30 0 0 30 0 0 30 0 0 30 0 0 30 0 0 30 0 0 30 0 0 30 0 0 30 0 0 30 0 0 30 0 0 30 0 0 30 0 0 30 0 0 30 0 0 30 0 0 30 0 0 30 0 0 30 0 0 30 0 0 30 0 0 30 0 0 30 0 0 30 0 0 30 0 0 30 0 0 30 0 0 30 0 0 30 0 0 30 0 0 30 0 0 30 0 0 30 0 0 30 0 0 30 0 0 30 0 0 30 0 0 30 0 0 30 0 0 30 0 0 30 0 0 30 0 0 30 0 0 30 0 0 30 0 0 30 0 0 30 0 0 30 0 0 30 0 0 30 0 0 30 0 0 30 0 0 30 0 0 30 0 0 30 0 0 30 0 0 30 0 0 30 0 0 30 0 0 30 0 0 30 0 0 30 0 0 30 0 0 30 0 0 30 0 0 30 0 0 30 0 0 30 0 0 30 0 0 30 0 0 30 0 0 30 0 0 30 0 0 30 0 0 30 0 0 30 0 0 30 0 0 30 0 0 30 0 0 30 0 0 30 0 0 30 0 0 30 0 0 30 0 0 30 0 0 30 0 0 30 0 0 30 0 0 30 0 0 30 0 0 30 0 0 30 0 0 30 0 0 30 0 0 30 0 0 30 0 0 30 0 0 30 0 0 30 0 0 30 
0 0 30 0 0 30 0 0 30 0 0 30 0 0 30 0 0 30 0 0 30 0 0 30 0 0 30 0 0 30 0 0 30 0 0 30 0 0 30 0 0 30 0 0 30 0 0 30 0 0 30 0 0 30 0 0 30 0 0 30 0 0 30 0 0 30 0 0 30 0 0 30 0 0 30 0 0 30 0 0 30 0 0 30 0 0 30 0 0 30 0 0 30 0 0 30 0 0 30 0 0 30 0 0 30 0 0 30 0 0 30 0 0 30 0 0 30 0 0 30 0 0 30 0 0 30 0 0 30 0 0 30 0 0 30 0 0 30 0 0 30 0 0 30 0 0 30 0 0 30 0 0 30 0 0 30 0 0 30 0 0 30 0 0 30 0 0 30 0 0 30 0 0 30 0 0 30 0 0 30 0 0 30 0 0 30 0 0 30 0 0 30 0 0 30 0 0 30 0 0 30 0 0 30 0 0 30 0 0 30 0 0 30 0 0 30 0 0 30 0 0 30 0 0 30 0 0 30 0 0 30 0 0 30 0 0 30 0 0 30 0 0 30 0 0 30 0 0 30 0 0 30 0 0 30 0 0 30 0 0 30 0 0 30 0 0 30 0 0 30 0 0 30 0 0 30 0 0 30 0 0 30 0 0 30 0 0 30 0 0 30 0 0 30 0 0 30 0 0 30 0 0 30 0 0 30 0 0 30 0 0 30 0 0 30 0 0 30 0 0 30 0 0 30 0 0 30 0 0 30 0 0 30 0 0 30 0 0 30 0 0 30 0 0 30 0 0 30 0 0 30 0 0 30 0 0 30 0 0 30 0 0 30 0 0 30 0 0 30 0 0 30 0 0 30 0 0 30 0 0 30 0 0 30 0 0 30 0 0 30 0 0 30 0 0 30 0 0 30 0 0 30 0 0 30 0 0 30 0 0 30 0 0 30 0 0 30 0 0 30 0 0 30 0 0 30 0 0 30 0 0 30 0 0 30 0 0 30 0 0 30 0 0 30 0 0 30 0 0 30 0 0 30 0 0 30 0 0 30 0 0 30 0 0 30 0 0 30 0 0 30 0 0 30 0 0 30 0 0 30 0 0 30 0 0 30 0 0 30 0 0 30 0 0 30 0 0 30 0 0 30 0 0 30 0 0 30 0 0 30 0 0 30 0 0 30 0 0 30 0 0 30 0 0 30 0 0 30 0 0 30 0 0 30 0 0 30 0 0 30 0 0 30 0 0 30 0 0 30 0 0 30 0 0 30 0 0 30 0 0 30 0 0 30 0 0 30 0 0 30 0 0 30 0 0 30 0 0 30 0 0 30 0 0 30 0 0 30 0 0 30 0 0 30 0 0 30 0 0 30 0 0 30 0 0 30 0 0 30 0 0 30 0 0 30 0 0 30 0 0 30 0 0 30 0 0 30 0 0 30 0 0 30 0 0 30 0 0 30 0 0 30 0 0 30 0 0 30 0 0 30 0 0 30 0 0 30 0 0 30 0 0 30 0 0 30 0 0 30 0 0 30 0 0 30 0 0 30 0 0 30 0 0 30 0 0 30 0 0 30 0 0 30 0 0 30 0 0 30 0 0 30 0 0 30 0 0 30 0 0 30 0 0 30 0 0 30 0 0 30 0 0 30 0 0 30 0 0 30 0 0 30 0 0 30 0 0 30 0 0 30 0 0 30 0 0 30 0 0 30 0 0 30 0 0 30 0 0 30 0 0 30 0 0 30 0 0 30 0 0 30 0 0 30 0 0 30 0 0 30 0 0 30 0 0 30 0 0 30 0 0 30 0 0 30 0 0 30 0 0 30 0 0 30 0 0 30 0 0 30 0 0 30 0 0 30 0 0 30 0 0 30 0 0 30 0 0 30 0 0 30 0 0 30 0 0 30 0 0 30 0 0 30 0 0 30 0 0 30 0 0 30 0 0 30 0 0 30 0 0 30 0 0 30 0 0 30 0 0 30 0 0 30 0 0 30 0 0 30 0 0 30 0 0 30 0 0 30 0 0 30 0 0 30 0 0 30 0 0 30 
0 0 30 0 0 30 0 0 30 0 0 30 0 0 30 0 0 30 0 0 30 0 0 30 0 0 30 0 0 30 0 0 30 0 0 30 0 0 30 0 0 30 0 0 30 0 0 30 0 0 30 0 0 30 0 0 30 0 0 30 0 0 30 0 0 30 0 0 30 0 0 30 0 0 30 0 0 30 0 0 30 0 0 30 0 0 30 0 0 30 0 0 30 0 0 30 0 0 30 0 0 30 0 0 30 0 0 30 0 0 30 0 0 30 0 0 30 0 0 30 0 0 30 0 0 30 0 0 30 0 0 30 0 0 30 0 0 30 0 0 30 0 0 30 0 0 30 0 0 30 0 0 30 0 0 30 0 0 30 0 0 30 0 0 30 0 0 30 0 0 30 0 0 30 0 0 30 0 0 30 0 0 30 0 0 30 0 0 30 0 0 30 0 0 30 0 0 30 0 0 30 0 0 30 0 0 30 0 0 30 0 0 30 0 0 30 0 0 30 0 0 30 0 0 30 0 0 30 0 0 30 0 0 30 0 0 30 0 0 30 0 0 30 0 0 30 0 0 30 0 0 30 0 0 30 0 0 30 0 0 30 0 0 30 0 0 30 0 0 30 0 0 30 0 0 30 0 0 30 0 0 30 0 0 30 0 0 30 0 0 30 0 0 30 0 0 30 0 0 30 0 0 30 0 0 30 0 0 30 0 0 30 0 0 30 0 0 30 0 0 30 0 0 30 0 0 30 0 0 30 0 0 30 0 0 30 0 0 30 0 0 30 0 0 30 0 0 30 0 0 30 0 0 30 0 0 30 0 0 30 0 0 30 0 0 30 0 0 30 0 0 30 0 0 30 0 0 30 0 0 30 0 0 30 0 0 30 0 0 30 0 0 30 0 0 30 0 0 30 0 0 30 0 0 30 0 0 30 0 0 30 0 0 30 0 0 30 0 0 30 0 0 30 0 0 30 0 0 30 0 0 30 0 0 30 0 0 30 0 0 30 0 0 30 0 0 30 0 0 30 0 0 30 0 0 30 0 0 30 0 0 30 0 0 30 0 0 30 0 0 30 0 0 30 0 0 30 0 0 30 0 0 30 0 0 30 0 0 30 0 0 30 0 0 30 0 0 30 0 0 30 0 0 30 0 0 30 0 0 30 0 0 30 0 0 30 0 0 30 0 0 30 0 0 30 0 0 30 0 0 30 0 0 30 0 0 30 0 0 30 0 0 30 0 0 30 0 0 30 0 0 30 0 0 30 0 0 30 0 0 30 0 0 30 0 0 30 0 0 30 0 0 30 0 0 30 0 0 30 0 0 30 0 0 30 0 0 30 0 0 30 0 0 30 0 0 30 0 0 30 0 0 30 0 0 30 0 0 30 0 0 30 0 0 30 0 0 30 0 0 30 0 0 30 0 0 30 0 0 30 0 0 30 0 0 30 0 0 30 0 0 30 0 0 30 0 0 30 0 0 30 0 0 30 0 0 30 0 0 30 0 0 30 0 0 30 0 0 30 0 0 30 0 0 30 0 0 30 0 0 30 0 0 30 0 0 30 0 0 30 0 0 30 0 0 30 0 0 30 0 0 30 0 0 30 0 0 30 0 0 30 0 0 30 0 0 30 0 0 30 0 0 30 0 0 30 0 0 30 0 0 30 0 0 30 0 0 30 0 0 30 0 0 30 0 0 30 0 0 30 0 0 30 0 0 30 0 0 30 0 0 30 0 0 30 0 0 30 0 0 30 0 0 30 0 0 30 0 0 30 0 0 30 0 0 30 0 0 30 0 0 30 0 0 30 0 0 30 0 0 30 0 0 30 0 0 30 0 0 30 0 0 30 0 0 30 0 0 30 0 0 30 0 0 30 0 0 30 0 0 30 0 0 30 0 0 30 0 0 30 0 0 30 0 0 30 0 0 30 0 0 30 0 0 30 0 0 30 0 0 30 0 0 30 0 0 30 0 0 30 0 0 30 0 0 30 0 0 30 0 0 30 0 0 30 0 0 30 0 0 30 0 0 30 0 0 30 0 0 30 
0 0 30 0 0 30 0 0 30 0 0 30 0 0 30 0 0 30 0 0 30 0 0 30 0 0 30 0 0 30 0 0 30 0 0 30 0 0 30 0 0 30 0 0 30 0 0 30 0 0 30 0 0 30 0 0 30 0 0 30 0 0 30 0 0 30 0 0 30 0 0 30 0 0 30 0 0 30 0 0 30 0 0 30 0 0 30 0 0 30 0 0 30 0 0 30 0 0 30 0 0 30 0 0 30 0 0 30 0 0 30 0 0 30 0 0 30 0 0 30 0 0 30 0 0 30 0 0 30 0 0 30 0 0 30 0 0 30 0 0 30 0 0 30 0 0 30 0 0 30 0 0 30 0 0 30 0 0 30 0 0 30 0 0 30 0 0 30 0 0 30 0 0 30 0 0 30 0 0 30 0 0 30 0 0 30 0 0 30 0 0 30 0 0 30 0 0 30 0 0 30 0 0 30 0 0 30 0 0 30 0 0 30 0 0 30 0 0 30 0 0 30 0 0 30 0 0 30 0 0 30 0 0 30 0 0 30 0 0 30 0 0 30 0 0 30 0 0 30 0 0 30 0 0 30 0 0 30 0 0 30 0 0 30 0 0 30 0 0 30 0 0 30 0 0 30 0 0 30 0 0 30 0 0 30 0 0 30 0 0 30 0 0 30 0 0 30 0 0 30 0 0 30 0 0 30 0 0 30 0 0 30 0 0 30 0 0 30 0 0 30 0 0 30 0 0 30 0 0 30 0 0 30 0 0 30 0 0 30 0 0 30 0 0 30 0 0 30 0 0 30 0 0 30 0 0 30 0 0 30 0 0 30 0 0 30 0 0 30 0 0 30 0 0 30 0 0 30 0 0 30 0 0 30 0 0 30 0 0 30 0 0 30 0 0 30 0 0 30 0 0 30 0 0 30 0 0 30 0 0 30 0 0 30 0 0 30 0 0 30 0 0 30 0 0 30 0 0 30 0 0 30 0 0 30 0 0 30 0 0 30 0 0 30 0 0 30 0 0 30 0 0 30 0 0 30 0 0 30 0 0 30 0 0 30 0 0 30 0 0 30 0 0 30 0 0 30 0 0 30 0 0 30 0 0 30 0 0 30 0 0 30 0 0 30 0 0 30 0 0 30 0 0 30 0 0 30 0 0 30 0 0 30 0 0 30 0 0 30 0 0 30 0 0 30 0 0 30 0 0 30 0 0 30 0 0 30 0 0 30 0 0 30 0 0 30 0 0 30 0 0 30 0 0 30 0 0 30 0 0 30 0 0 30 0 0 30 0 0 30 0 0 30 0 0 30 0 0 30 0 0 30 0 0 30 0 0 30 0 0 30 0 0 30 0 0 30 0 0 30 0 0 30 0 0 30 0 0 30 0 0 30 0 0 30 0 0 30 0 0 30 0 0 30 0 0 30 0 0 30 0 0 30 0 0 30 0 0 30 0 0 30 0 0 30 0 0 30 0 0 30 0 0 30 0 0 30 0 0 30 0 0 30 0 0 30 0 0 30 0 0 30 0 0 30 0 0 30 0 0 30 0 0 30 0 0 30 0 0 30 0 0 30 0 0 30 0 0 30 0 0 30 0 0 30 0 0 30 0 0 30 0 0 30 0 0 30 0 0 30 0 0 30 0 0 30 0 0 30 0 0 30 0 0 30 0 0 30 0 0 30 0 0 30 0 0 30 0 0 30 0 0 30 0 0 30 0 0 30 0 0 30 0 0 30 0 0 30 0 0 30 0 0 30 0 0 30 0 0 30 0 0 30 0 0 30 0 0 30 0 0 30 0 0 30 0 0 30 0 0 30 0 0 30 0 0 30 0 0 30 0 0 30 0 0 30 0 0 30 0 0 30 0 0 30 0 0 30 0 0 30 0 0 30 0 0 30 0 0 30 0 0 30 0 0 30 0 0 30 0 0 30 0 0 30 0 0 30 0 0 30 0 0 30 0 0 30 0 0 30 0 0 30 0 0 30 0 0 30 0 0 30 0 0 30 0 0 30 0 0 30 0 0 30 0 0 30 0 0 30 
0 0 30 0 0 30 0 0 30 0 0 30 0 0 30 0 0 30 0 0 30 0 0 30 0 0 30 0 0 30 0 0 30 0 0 30 0 0 30 0 0 30 0 0 30 0 0 30 0 0 30 0 0 30 0 0 30 0 0 30 0 0 30 0 0 30 0 0 30 0 0 30 0 0 30 0 0 30 0 0 30 0 0 30 0 0 30 0 0 30 0 0 30 0 0 30 0 0 30 0 0 30 0 0 30 0 0 30 0 0 30 0 0 30 0 0 30 0 0 30 0 0 30 0 0 30 0 0 30 0 0 30 0 0 30 0 0 30 0 0 30 0 0 30 0 0 30 0 0 30 0 0 30 0 0 30 0 0 30 0 0 30 0 0 30 0 0 30 0 0 30 0 0 30 0 0 30 0 0 30 0 0 30 0 0 30 0 0 30 0 0 30 0 0 30 0 0 30 0 0 30 0 0 30 0 0 30 0 0 30 0 0 30 0 0 30 0 0 30 0 0 30 0 0 30 0 0 30 0 0 30 0 0 30 0 0 30 0 0 30 0 0 30 0 0 30 0 0 30 0 0 30 0 0 30 0 0 30 0 0 30 0 0 30 0 0 30 0 0 30 0 0 30 0 0 30 0 0 30 0 0 30 0 0 30 0 0 30 0 0 30 0 0 30 0 0 30 0 0 30 0 0 30 0 0 30 0 0 30 0 0 30 0 0 30 0 0 30 0 0 30 0 0 30 0 0 30 0 0 30 0 0 30 0 0 30 0 0 30 0 0 30 0 0 30 0 0 30 0 0 30 0 0 30 0 0 30 0 0 30 0 0 30 0 0 30 0 0 30 0 0 30 0 0 30 0 0 30 0 0 30 0 0 30 0 0 30 0 0 30 0 0 30 0 0 30 0 0 30 0 0 30 0 0 30 0 0 30 0 0 30 0 0 30 0 0 30 0 0 30 0 0 30 0 0 30 0 0 30 0 0 30 0 0 30 0 0 30 0 0 30 0 0 30 0 0 30 0 0 30 0 0 30 0 0 30 0 0 30 0 0 30 0 0 30 0 0 30 0 0 30 0 0 30 0 0 30 0 0 30 0 0 30 0 0 30 0 0 30 0 0 30 0 0 30 0 0 30 0 0 30 0 0 30 0 0 30 0 0 30 0 0 30 0 0 30 0 0 30 0 0 30 0 0 30 0 0 30 0 0 30 0 0 30 0 0 30 0 0 30 0 0 30 0 0 30 0 0 30 0 0 30 0 0 30 0 0 30 0 0 30 0 0 30 0 0 30 0 0 30 0 0 30 0 0 30 0 0 30 0 0 30 0 0 30 0 0 30 0 0 30 0 0 30 0 0 30 0 0 30 0 0 30 0 0 30 0 0 30 0 0 30 0 0 30 0 0 30 0 0 30 0 0 30 0 0 30 0 0 30 0 0 30 0 0 30 0 0 30 0 0 30 0 0 30 0 0 30 0 0 30 0 0 30 0 0 30 0 0 30 0 0 30 0 0 30 0 0 30 0 0 30 0 0 30 0 0 30 0 0 30 0 0 30 0 0 30 0 0 30 0 0 30 0 0 30 0 0 30 0 0 30 0 0 30 0 0 30 0 0 30 0 0 30 0 0 30 0 0 30 0 0 30 0 0 30 0 0 30 0 0 30 0 0 30 0 0 30 0 0 30 0 0 30 0 0 30 0 0 30 0 0 30 0 0 30 0 0 30 0 0 30 0 0 30 0 0 30 0 0 30 0 0 30 0 0 30 0 0 30 0 0 30 0 0 30 0 0 30 0 0 30 0 0 30 0 0 30 0 0 30 0 0 30 0 0 30 0 0 30 0 0 30 0 0 30 0 0 30 0 0 30 0 0 30 0 0 30 0 0 30 0 0 30 0 0 30 0 0 30 0 0 30 0 0 30 0 0 30 0 0 30 0 0 30 0 0 30 0 0 30 0 0 30 0 0 30 0 0 30 0 0 30 0 0 30 0 0 30 0 0 30 0 0 30 0 0 30 0 0 30 0 0 30 0 0 30 0 0 30 
0 0 30 0 0 30 0 0 30 0 0 30 0 0 30 0 0 30 0 0 30 0 0 30 0 0 30 0 0 30 0 0 30 0 0 30 0 0 30 0 0 30 0 0 30 0 0 30 0 0 30 0 0 30 0 0 30 0 0 30 0 0 30 0 0 30 0 0 30 0 0 30 0 0 30 0 0 30 0 0 30 0 0 30 0 0 30 0 0 30 0 0 30 0 0 30 0 0 30 0 0 30 0 0 30 0 0 30 0 0 30 0 0 30 0 0 30 0 0 30 0 0 30 0 0 30 0 0 30 0 0 30 0 0 30 0 0 30 0 0 30 0 0 30 0 0 30 0 0 30 0 0 30 0 0 30 0 0 30 0 0 30 0 0 30 0 0 30 0 0 30 0 0 30 0 0 30 0 0 30 0 0 30 0 0 30 0 0 30 0 0 30 0 0 30 0 0 30 0 0 30 0 0 30 0 0 30 0 0 30 0 0 30 0 0 30 0 0 30 0 0 30 0 0 30 0 0 30 0 0 30 0 0 30 0 0 30 0 0 30 0 0 30 0 0 30 0 0 30 0 0 30 0 0 30 0 0 30 0 0 30 0 0 30 0 0 30 0 0 30 0 0 30 0 0 30 0 0 30 0 0 30 0 0 30 0 0 30 0 0 30 0 0 30 0 0 30 0 0 30 0 0 30 0 0 30 0 0 30 0 0 30 0 0 30 0 0 30 0 0 30 0 0 30 0 0 30 0 0 30 0 0 30 0 0 30 0 0 30 0 0 30 0 0 30 0 0 30 0 0 30 0 0 30 0 0 30 0 0 30 0 0 30 0 0 30 0 0 30 0 0 30 0 0 30 0 0 30 0 0 30 0 0 30 0 0 30 0 0 30 0 0 30 0 0 30 0 0 30 0 0 30 0 0 30 0 0 30 0 0 30 0 0 30 0 0 30 0 0 30 0 0 30 0 0 30 0 0 30 0 0 30 0 0 30 0 0 30 0 0 30 0 0 30 0 0 30 0 0 30 0 0 30 0 0 30 0 0 30 0 0 30 0 0 30 0 0 30 0 0 30 0 0 30 0 0 30 0 0 30 0 0 30 0 0 30 0 0 30 0 0 30 0 0 30 0 0 30 0 0 30 0 0 30 0 0 30 0 0 30 0 0 30 0 0 30 0 0 30 0 0 30 0 0 30 0 0 30 0 0 30 0 0 30 0 0 30 0 0 30 0 0 30 0 0 30 0 0 30 0 0 30 0 0 30 0 0 30 0 0 30 0 0 30 0 0 30 0 0 30 0 0 30 0 0 30 0 0 30 0 0 30 0 0 30 0 0 30 0 0 30 0 0 30 0 0 30 0 0 30 0 0 30 0 0 30 0 0 30 0 0 30 0 0 30 0 0 30 0 0 30 0 0 30 0 0 30 0 0 30 0 0 30 0 0 30 0 0 30 0 0 30 0 0 30 0 0 30 0 0 30 0 0 30 0 0 30 0 0 30 0 0 30 0 0 30 0 0 30 0 0 30 0 0 30 0 0 30 0 0 30 0 0 30 0 0 30 0 0 30 0 0 30 0 0 30 0 0 30 0 0 30 0 0 30 0 0 30 0 0 30 0 0 30 0 0 30 0 0 30 0 0 30 0 0 30 0 0 30 0 0 30 0 0 30 0 0 30 0 0 30 0 0 30 0 0 30 0 0 30 0 0 30 0 0 30 0 0 30 0 0 30 0 0 30 0 0 30 0 0 30 0 0 30 0 0 30 0 0 30 0 0 30 0 0 30 0 0 30 0 0 30 0 0 30 0 0 30 0 0 30 0 0 30 0 0 30 0 0 30 0 0 30 0 0 30 0 0 30 0 0 30 0 0 30 0 0 30 0 0 30 0 0 30 0 0 30 0 0 30 0 0 30 0 0 30 0 0 30 0 0 30 0 0 30 0 0 30 0 0 30 0 0 30 0 0 30 0 0 30 0 0 30 0 0 30 0 0 30 0 0 30 0 0 30 0 0 30 0 0 30 0 0 30 0 0 30 0 0 30 
0 0 30 0 0 30 0 0 30 0 0 30 0 0 30 0 0 30 0 0 30 0 0 30 0 0 30 0 0 30 0 0 30 0 0 30 0 0 30 0 0 30 0 0 30 0 0 30 0 0 30 0 0 30 0 0 30 0 0 30 0 0 30 0 0 30 0 0 30 0 0 30 0 0 30 0 0 30 0 0 30 0 0 30 0 0 30 0 0 30 0 0 30 0 0 30 0 0 30 0 0 30 0 0 30 0 0 30 0 0 30 0 0 30 0 0 30 0 0 30 0 0 30 0 0 30 0 0 30 0 0 30 0 0 30 0 0 30 0 0 30 0 0 30 0 0 30 0 0 30 0 0 30 0 0 30 0 0 30 0 0 30 0 0 30 0 0 30 0 0 30 0 0 30 0 0 30 0 0 30 0 0 30 0 0 30 0 0 30 0 0 30 0 0 30 0 0 30 0 0 30 0 0 30 0 0 30 0 0 30 0 0 30 0 0 30 0 0 30 0 0 30 0 0 30 0 0 30 0 0 30 0 0 30 0 0 30 0 0 30 0 0 30 0 0 30 0 0 30 0 0 30 0 0 30 0 0 30 0 0 30 0 0 30 0 0 30 0 0 30 0 0 30 0 0 30 0 0 30 0 0 30 0 0 30 0 0 30 0 0 30 0 0 30 0 0 30 0 0 30 0 0 30 0 0 30 0 0 30 0 0 30 0 0 30 0 0 30 0 0 30 0 0 30 0 0 30 0 0 30 0 0 30 0 0 30 0 0 30 0 0 30 0 0 30 0 0 30 0 0 30 0 0 30 0 0 30 0 0 30 0 0 30 0 0 30 0 0 30 0 0 30 0 0 30 0 0 30 0 0 30 0 0 30 0 0 30 0 0 30 0 0 30 0 0 30 0 0 30 0 0 30 0 0 30 0 0 30 0 0 30 0 0 30 0 0 30 0 0 30 0 0 30 0 0 30 0 0 30 0 0 30 0 0 30 0 0 30 0 0 30 0 0 30 0 0 30 0 0 30 0 0 30 0 0 30 0 0 30 0 0 30 0 0 30 0 0 30 0 0 30 0 0 30 0 0 30 0 0 30 0 0 30 0 0 30 0 0 30 0 0 30 0 0 30 0 0 30 0 0 30 0 0 30 0 0 30 0 0 30 0 0 30 0 0 30 0 0 30 0 0 30 0 0 30 0 0 30 0 0 30 0 0 30 0 0 30 0 0 30 0 0 30 0 0 30 0 0 30 0 0 30 0 0 30 0 0 30 0 0 30 0 0 30 0 0 30 0 0 30 0 0 30 0 0 30 0 0 30 0 0 30 0 0 30 0 0 30 0 0 30 0 0 30 0 0 30 0 0 30 0 0 30 0 0 30 0 0 30 0 0 30 0 0 30 0 0 30 0 0 30 0 0 30 0 0 30 0 0 30 0 0 30 0 0 30 0 0 30 0 0 30 0 0 30 0 0 30 0 0 30 0 0 30 0 0 30 0 0 30 0 0 30 0 0 30 0 0 30 0 0 30 0 0 30 0 0 30 0 0 30 0 0 30 0 0 30 0 0 30 0 0 30 0 0 30 0 0 30 0 0 30 0 0 30 0 0 30 0 0 30 0 0 30 0 0 30 0 0 30 0 0 30 0 0 30 0 0 30 0 0 30 0 0 30 0 0 30 0 0 30 0 0 30 0 0 30 0 0 30 0 0 30 0 0 30 0 0 30 0 0 30 0 0 30 0 0 30 0 0 30 0 0 30 0 0 30 0 0 30 0 0 30 0 0 30 0 0 30 0 0 30 0 0 30 0 0 30 0 0 30 0 0 30 0 0 30 0 0 30 0 0 30 0 0 30 0 0 30 0 0 30 0 0 30 0 0 30 0 0 30 0 0 30 0 0 30 0 0 30 0 0 30 0 0 30 0 0 30 0 0 30 0 0 30 0 0 30 0 0 30 0 0 30 0 0 30 0 0 30 0 0 30 0 0 30 0 0 30 0 0 30 0 0 30 0 0 30 0 0 30 0 0 30 0 0 30 0 0 30 
0 0 30 0 0 30 0 0 30 0 0 30 0 0 30 0 0 30 0 0 30 0 0 30 0 0 30 0 0 30 0 0 30 0 0 30 0 0 30 0 0 30 0 0 30 0 0 30 0 0 30 0 0 30 0 0 30 0 0 30 0 0 30 0 0 30 0 0 30 0 0 30 0 0 30 0 0 30 0 0 30 0 0 30 0 0 30 0 0 30 0 0 30 0 0 30 0 0 30 0 0 30 0 0 30 0 0 30 0 0 30 0 0 30 0 0 30 0 0 30 0 0 30 0 0 30 0 0 30 0 0 30 0 0 30 0 0 30 0 0 30 0 0 30 0 0 30 0 0 30 0 0 30 0 0 30 0 0 30 0 0 30 0 0 30 0 0 30 0 0 30 0 0 30 0 0 30 0 0 30 0 0 30 0 0 30 0 0 30 0 0 30 0 0 30 0 0 30 0 0 30 0 0 30 0 0 30 0 0 30 0 0 30 0 0 30 0 0 30 0 0 30 0 0 30 0 0 30 0 0 30 0 0 30 0 0 30 0 0 30 0 0 30 0 0 30 0 0 30 0 0 30 0 0 30 0 0 30 0 0 30 0 0 30 0 0 30 0 0 30 0 0 30 0 0 30 0 0 30 0 0 30 0 0 30 0 0 30 0 0 30 0 0 30 0 0 30 0 0 30 0 0 30 0 0 30 0 0 30 0 0 30 0 0 30 0 0 30 0 0 30 0 0 30 0 0 30 0 0 30 0 0 30 0 0 30 0 0 30 0 0 30 0 0 30 0 0 30 0 0 30 0 0 30 0 0 30 0 0 30 0 0 30 0 0 30 0 0 30 0 0 30 0 0 30 0 0 30 0 0 30 0 0 30 0 0 30 0 0 30 0 0 30 0 0 30 0 0 30 0 0 30 0 0 30 0 0 30 0 0 30 0 0 30 0 0 30 0 0 30 0 0 30 0 0 30 0 0 30 0 0 30 0 0 30 0 0 30 0 0 30 0 0 30 0 0 30 0 0 30 0 0 30 0 0 30 0 0 30 0 0 30 0 0 30 0 0 30 0 0 30 0 0 30 0 0 30 0 0 30 0 0 30 0 0 30 0 0 30 0 0 30 0 0 30 0 0 30 0 0 30 0 0 30 0 0 30 0 0 30 0 0 30 0 0 30 0 0 30 0 0 30 0 0 30 0 0 30 0 0 30 0 0 30 0 0 30 0 0 30 0 0 30 0 0 30 0 0 30 0 0 30 0 0 30 0 0 30 0 0 30 0 0 30 0 0 30 0 0 30 0 0 30 0 0 30 0 0 30 0 0 30 0 0 30 0 0 30 0 0 30 0 0 30 0 0 30 0 0 30 0 0 30 0 0 30 0 0 30 0 0 30 0 0 30 0 0 30 0 0 30 0 0 30 0 0 30 0 0 30 0 0 30 0 0 30 0 0 30 0 0 30 0 0 30 0 0 30 0 0 30 0 0 30 0 0 30 0 0 30 0 0 30 0 0 30 0 0 30 0 0 30 0 0 30 0 0 30 0 0 30 0 0 30 0 0 30 0 0 30 0 0 30 0 0 30 0 0 30 0 0 30 0 0 30 0 0 30 0 0 30 0 0 30 0 0 30 0 0 30 0 0 30 0 0 30 0 0 30 0 0 30 0 0 30 0 0 30 0 0 30 0 0 30 0 0 30 0 0 30 0 0 30 0 0 30 0 0 30 0 0 30 0 0 30 0 0 30 0 0 30 0 0 30 0 0 30 0 0 30 0 0 30 0 0 30 0 0 30 0 0 30 0 0 30 0 0 30 0 0 30 0 0 30 0 0 30 0 0 30 0 0 30 0 0 30 0 0 30 0 0 30 0 0 30 0 0 30 0 0 30 0 0 30 0 0 30 0 0 30 0 0 30 0 0 30 0 0 30 0 0 30 0 0 30 0 0 30 0 0 30 0 0 30 0 0 30 0 0 30 0 0 30 0 0 30 0 0 30 0 0 30 0 0 30 0 0 30 0 0 30 0 0 30 0 0 30 0 0 30 
0 0 30 0 0 30 0 0 30 0 0 30 0 0 30 0 0 30 0 0 30 0 0 30 0 0 30 0 0 30 0 0 30 0 0 30 0 0 30 0 0 30 0 0 30 0 0 30 0 0 30 0 0 30 0 0 30 0 0 30 0 0 30 0 0 30 0 0 30 0 0 30 0 0 30 0 0 30 0 0 30 0 0 30 0 0 30 0 0 30 0 0 30 0 0 30 0 0 30 0 0 30 0 0 30 0 0 30 0 0 30 0 0 30 0 0 30 0 0 30 0 0 30 0 0 30 0 0 30 0 0 30 0 0 30 0 0 30 0 0 30 0 0 30 0 0 30 0 0 30 0 0 30 0 0 30 0 0 30 0 0 30 0 0 30 0 0 30 0 0 30 0 0 30 0 0 30 0 0 30 0 0 30 0 0 30 0 0 30 0 0 30 0 0 30 0 0 30 0 0 30 0 0 30 0 0 30 0 0 30 0 0 30 0 0 30 0 0 30 0 0 30 0 0 30 0 0 30 0 0 30 0 0 30 0 0 30 0 0 30 0 0 30 0 0 30 0 0 30 0 0 30 0 0 30 0 0 30 0 0 30 0 0 30 0 0 30 0 0 30 0 0 30 0 0 30 0 0 30 0 0 30 0 0 30 0 0 30 0 0 30 0 0 30 0 0 30 0 0 30 0 0 30 0 0 30 0 0 30 0 0 30 0 0 30 0 0 30 0 0 30 0 0 30 0 0 30 0 0 30 0 0 30 0 0 30 0 0 30 0 0 30 0 0 30 0 0 30 0 0 30 0 0 30 0 0 30 0 0 30 0 0 30 0 0 30 0 0 30 0 0 30 0 0 30 0 0 30 0 0 30 0 0 30 0 0 30 0 0 30 0 0 30 0 0 30 0 0 30 0 0 30 0 0 30 0 0 30 0 0 30 0 0 30 0 0 30 0 0 30 0 0 30 0 0 30 0 0 30 0 0 30 0 0 30 0 0 30 0 0 30 128 0 126 131 0 129 133 0 131 136 0 133 137 0 135 139 0 137 140 0 138 0 0 30 0 0 30 0 0 30 0 0 30 0 0 30 0 0 30 0 0 30 0 0 30 0 0 30 0 0 30 0 0 30 0 0 30 0 0 30 0 0 30 0 0 30 0 0 30 0 0 30 0 0 30 0 0 30 0 0 30 0 0 30 0 0 30 0 0 30 0 0 30 0 0 30 0 0 30 0 0 30 0 0 30 0 0 30 0 0 30 0 0 30 0 0 30 0 0 30 0 0 30 0 0 30 0 0 30 0 0 30 0 0 30 0 0 30 0 0 30 0 0 30 0 0 30 0 0 30 0 0 30 0 0 30 0 0 30 0 0 30 0 0 30 0 0 30 0 0 30 0 0 30 0 0 30 0 0 30 0 0 30 0 0 30 0 0 30 0 0 30 0 0 30 0 0 30 0 0 30 0 0 30 0 0 30 0 0 30 0 0 30 0 0 30 0 0 30 0 0 30 0 0 30 0 0 30 0 0 30 0 0 30 0 0 30 0 0 30 0 0 30 0 0 30 0 0 30 0 0 30 0 0 30 0 0 30 0 0 30 0 0 30 0 0 30 0 0 30 0 0 30 0 0 30 0 0 30 0 0 30 0 0 30 0 0 30 0 0 30 0 0 30 0 0 30 0 0 30 0 0 30 0 0 30 0 0 30 0 0 30 0 0 30 0 0 30 0 0 30 0 0 30 0 0 30 0 0 30 0 0 30 0 0 30 0 0 30 0 0 30 0 0 30 0 0 30 0 0 30 0 0 30 0 0 30 0 0 30 0 0 30 0 0 30 0 0 30 0 0 30 0 0 30 0 0 30 0 0 30 0 0 30 0 0 30 0 0 30 0 0 30 0 0 30 0 0 30 0 0 30 0 0 30 0 0 30 0 0 30 0 0 30 0 0 30 0 0 30 0 0 30 0 0 30 0 0 30 0 0 30 0 0 30 0 0 30 0 0 30 0 0 30 0 0 30 0 0 30 0 0 30 0 0 30 0 0 30 
0 0 30 0 0 30 0 0 30 0 0 30 0 0 30 0 0 30 0 0 30 0 0 30 0 0 30 0 0 30 0 0 30 0 0 30 0 0 30 0 0 30 0 0 30 0 0 30 0 0 30 0 0 30 0 0 30 0 0 30 0 0 30 0 0 30 0 0 30 0 0 30 0 0 30 0 0 30 0 0 30 0 0 30 0 0 30 0 0 30 0 0 30 0 0 30 0 0 30 0 0 30 0 0 30 0 0 30 0 0 30 0 0 30 0 0 30 0 0 30 0 0 30 0 0 30 0 0 30 0 0 30 0 0 30 0 0 30 0 0 30 0 0 30 0 0 30 0 0 30 0 0 30 0 0 30 0 0 30 0 0 30 0 0 30 0 0 30 0 0 30 0 0 30 0 0 30 0 0 30 0 0 30 0 0 30 0 0 30 0 0 30 0 0 30 0 0 30 0 0 30 0 0 30 0 0 30 0 0 30 0 0 30 0 0 30 0 0 30 0 0 30 0 0 30 0 0 30 0 0 30 0 0 30 0 0 30 0 0 30 0 0 30 0 0 30 0 0 30 0 0 30 0 0 30 0 0 30 0 0 30 0 0 30 0 0 30 0 0 30 0 0 30 0 0 30 0 0 30 0 0 30 0 0 30 0 0 30 0 0 30 0 0 30 0 0 30 0 0 30 0 0 30 0 0 30 0 0 30 0 0 30 0 0 30 0 0 30 0 0 30 0 0 30 0 0 30 0 0 30 0 0 30 0 0 30 0 0 30 0 0 30 0 0 30 0 0 30 0 0 30 0 0 30 0 0 30 0 0 30 0 0 30 0 0 30 0 0 30 0 0 30 0 0 30 0 0 30 0 0 30 0 0 30 0 0 30 0 0 30 0 0 30 0 0 30 0 0 30 0 0 30 0 0 30 0 0 30 0 0 30 0 0 30 0 0 30 0 0 30 111 0 109 116 0 114 119 0 117 122 0 120 125 0 122 127 0 125 129 0 127 132 0 130 134 0 132 136 0 134 138 0 136 140 0 138 142 0 140 143 0 141 145 0 143 147 0 145 148 0 146 149 0 147 151 0 148 151 0 149 151 0 149 0 0 30 0 0 30 0 0 30 0 0 30 0 0 30 0 0 30 0 0 30 0 0 30 0 0 30 0 0 30 0 0 30 0 0 30 0 0 30 0 0 30 0 0 30 0 0 30 0 0 30 0 0 30 0 0 30 0 0 30 0 0 30 0 0 30 0 0 30 0 0 30 0 0 30 0 0 30 0 0 30 0 0 30 0 0 30 0 0 30 0 0 30 0 0 30 0 0 30 0 0 30 0 0 30 0 0 30 0 0 30 0 0 30 0 0 30 0 0 30 0 0 30 0 0 30 0 0 30 0 0 30 0 0 30 0 0 30 0 0 30 0 0 30 0 0 30 0 0 30 0 0 30 0 0 30 0 0 30 0 0 30 0 0 30 0 0 30 0 0 30 0 0 30 0 0 30 0 0 30 0 0 30 0 0 30 0 0 30 0 0 30 0 0 30 0 0 30 0 0 30 0 0 30 0 0 30 0 0 30 0 0 30 0 0 30 0 0 30 0 0 30 0 0 30 0 0 30 0 0 30 0 0 30 0 0 30 0 0 30 0 0 30 0 0 30 0 0 30 0 0 30 0 0 30 0 0 30 0 0 30 0 0 30 0 0 30 0 0 30 0 0 30 0 0 30 0 0 30 0 0 30 0 0 30 0 0 30 0 0 30 0 0 30 0 0 30 0 0 30 0 0 30 0 0 30 0 0 30 0 0 30 0 0 30 0 0 30 0 0 30 0 0 30 0 0 30 0 0 30 0 0 30 0 0 30 0 0 30 0 0 30 0 0 30 0 0 30 0 0 30 0 0 30 0 0 30 0 0 30 0 0 30 0 0 30 0 0 30 0 0 30 0 0 30 0 0 30 0 0 30 0 0 30 0 0 30 0 0 30 0 0 30 0 0 30 0 0 30 0 0 30 0 0 30 0 0 30 0 0 30 0 0 30 0 0 30 
0 0 30 0 0 30 0 0 30 0 0 30 0 0 30 0 0 30 0 0 30 0 0 30 0 0 30 0 0 30 0 0 30 0 0 30 0 0 30 0 0 30 0 0 30 0 0 30 0 0 30 0 0 30 0 0 30 0 0 30 0 0 30 0 0 30 0 0 30 0 0 30 0 0 30 0 0 30 0 0 30 0 0 30 0 0 30 0 0 30 0 0 30 0 0 30 0 0 30 0 0 30 0 0 30 0 0 30 0 0 30 0 0 30 0 0 30 0 0 30 0 0 30 0 0 30 0 0 30 0 0 30 0 0 30 0 0 30 0 0 30 0 0 30 0 0 30 0 0 30 0 0 30 0 0 30 0 0 30 0 0 30 0 0 30 0 0 30 0 0 30 0 0 30 0 0 30 0 0 30 0 0 30 0 0 30 0 0 30 0 0 30 0 0 30 0 0 30 0 0 30 0 0 30 0 0 30 0 0 30 0 0 30 0 0 30 0 0 30 0 0 30 0 0 30 0 0 30 0 0 30 0 0 30 0 0 30 0 0 30 0 0 30 0 0 30 0 0 30 0 0 30 0 0 30 0 0 30 0 0 30 0 0 30 0 0 30 0 0 30 0 0 30 0 0 30 0 0 30 0 0 30 0 0 30 0 0 30 0 0 30 0 0 30 0 0 30 0 0 30 0 0 30 0 0 30 0 0 30 0 0 30 0 0 30 0 0 30 0 0 30 0 0 30 0 0 30 0 0 30 0 0 30 0 0 30 0 0 30 0 0 30 0 0 30 0 0 30 0 0 30 0 0 30 0 0 30 0 0 30 0 0 30 0 0 30 0 0 30 0 0 30 0 0 30 0 0 30 0 0 30 0 0 30 0 0 30 0 0 30 0 0 30 0 0 30 0 0 30 0 0 30 0 0 30 0 0 30 99 0 97 105 0 103 109 0 107 112 0 110 115 0 113 118 0 115 120 0 118 123 0 120 125 0 123 127 0 125 129 0 127 132 0 129 134 0 132 136 0 134 138 0 136 140 0 137 141 0 139 143 0 141 145 0 143 147 0 145 148 0 146 150 0 148 151 0 149 153 0 150 154 0 152 155 0 153 156 0 153 156 0 154 154 0 152 0 0 30 0 0 30 0 0 30 0 0 30 0 0 30 0 0 30 0 0 30 0 0 30 0 0 30 0 0 30 0 0 30 0 0 30 0 0 30 0 0 30 0 0 30 0 0 30 0 0 30 0 0 30 0 0 30 0 0 30 0 0 30 0 0 30 0 0 30 0 0 30 0 0 30 0 0 30 0 0 30 0 0 30 0 0 30 0 0 30 0 0 30 0 0 30 0 0 30 0 0 30 0 0 30 0 0 30 0 0 30 0 0 30 0 0 30 0 0 30 0 0 30 0 0 30 0 0 30 0 0 30 0 0 30 0 0 30 0 0 30 0 0 30 0 0 30 0 0 30 0 0 30 0 0 30 0 0 30 0 0 30 0 0 30 0 0 30 0 0 30 0 0 30 0 0 30 0 0 30 0 0 30 0 0 30 0 0 30 0 0 30 0 0 30 0 0 30 0 0 30 0 0 30 0 0 30 0 0 30 0 0 30 0 0 30 0 0 30 0 0 30 0 0 30 0 0 30 0 0 30 0 0 30 0 0 30 0 0 30 0 0 30 0 0 30 0 0 30 0 0 30 0 0 30 0 0 30 0 0 30 0 0 30 0 0 30 0 0 30 0 0 30 0 0 30 0 0 30 0 0 30 0 0 30 0 0 30 0 0 30 0 0 30 0 0 30 0 0 30 0 0 30 0 0 30 0 0 30 0 0 30 0 0 30 0 0 30 0 0 30 0 0 30 0 0 30 0 0 30 0 0 30 0 0 30 0 0 30 0 0 30 0 0 30 0 0 30 0 0 30 0 0 30 0 0 30 0 0 30 0 0 30 0 0 30 0 0 30 0 0 30 0 0 30 0 0 30 0 0 30 0 0 30 0 0 30 0 0 30 0 0 30 0 0 30 0 0 30 0 0 30 0 0 30 
0 0 30 0 0 30 0 0 30 0 0 30 0 0 30 0 0 30 0 0 30 0 0 30 0 0 30 0 0 30 0 0 30 0 0 30 0 0 30 0 0 30 0 0 30 0 0 30 0 0 30 0 0 30 0 0 30 0 0 30 0 0 30 0 0 30 0 0 30 0 0 30 0 0 30 0 0 30 0 0 30 0 0 30 0 0 30 0 0 30 0 0 30 0 0 30 0 0 30 0 0 30 0 0 30 0 0 30 0 0 30 0 0 30 0 0 30 0 0 30 0 0 30 0 0 30 0 0 30 0 0 30 0 0 30 0 0 30 0 0 30 0 0 30 0 0 30 0 0 30 0 0 30 0 0 30 0 0 30 0 0 30 0 0 30 0 0 30 0 0 30 0 0 30 0 0 30 0 0 30 0 0 30 0 0 30 0 0 30 0 0 30 0 0 30 0 0 30 0 0 30 0 0 30 0 0 30 0 0 30 0 0 30 0 0 30 0 0 30 0 0 30 0 0 30 0 0 30 0 0 30 0 0 30 0 0 30 0 0 30 0 0 30 0 0 30 0 0 30 0 0 30 0 0 30 0 0 30 0 0 30 0 0 30 0 0 30 0 0 30 0 0 30 0 0 30 0 0 30 0 0 30 0 0 30 0 0 30 0 0 30 0 0 30 0 0 30 0 0 30 0 0 30 0 0 30 0 0 30 0 0 30 0 0 30 0 0 30 0 0 30 0 0 30 0 0 30 0 0 30 0 0 30 0 0 30 0 0 30 0 0 30 0 0 30 0 0 30 0 0 30 0 0 30 0 0 30 0 0 30 0 0 30 0 0 30 0 0 30 0 0 30 0 0 30 0 0 30 0 0 30 0 0 30 0 0 30 0 0 30 0 0 30 0 0 30 0 0 30 0 0 30 96 0 94 100 0 98 104 0 102 107 0 105 110 0 108 112 0 110 115 0 113 117 0 115 120 0 118 122 0 120 124 0 122 127 0 124 129 0 127 131 0 129 133 0 131 135 0 133 137 0 135 139 0 136 140 0 138 142 0 140 144 0 142 146 0 144 147 0 145 149 0 147 151 0 148 152 0 150 153 0 151 155 0 153 156 0 154 157 0 155 158 0 156 158 0 156 158 0 156 0 0 30 0 0 30 0 0 30 0 0 30 0 0 30 0 0 30 0 0 30 0 0 30 0 0 30 0 0 30 0 0 30 0 0 30 0 0 30 0 0 30 0 0 30 0 0 30 0 0 30 0 0 30 0 0 30 0 0 30 0 0 30 0 0 30 0 0 30 0 0 30 0 0 30 0 0 30 0 0 30 0 0 30 0 0 30 0 0 30 0 0 30 0 0 30 0 0 30 0 0 30 0 0 30 0 0 30 0 0 30 0 0 30 0 0 30 0 0 30 0 0 30 0 0 30 0 0 30 0 0 30 0 0 30 0 0 30 0 0 30 0 0 30 0 0 30 0 0 30 0 0 30 0 0 30 0 0 30 0 0 30 0 0 30 0 0 30 0 0 30 0 0 30 0 0 30 0 0 30 0 0 30 0 0 30 0 0 30 0 0 30 0 0 30 0 0 30 0 0 30 0 0 30 0 0 30 0 0 30 0 0 30 0 0 30 0 0 30 0 0 30 0 0 30 0 0 30 0 0 30 0 0 30 0 0 30 0 0 30 0 0 30 0 0 30 0 0 30 0 0 30 0 0 30 0 0 30 0 0 30 0 0 30 0 0 30 0 0 30 0 0 30 0 0 30 0 0 30 0 0 30 0 0 30 0 0 30 0 0 30 0 0 30 0 0 30 0 0 30 0 0 30 0 0 30 0 0 30 0 0 30 0 0 30 0 0 30 0 0 30 0 0 30 0 0 30 0 0 30 0 0 30 0 0 30 0 0 30 0 0 30 0 0 30 0 0 30 0 0 30 0 0 30 0 0 30 0 0 30 0 0 30 0 0 30 0 0 30 0 0 30 0 0 30 0 0 30 0 0 30 0 0 30 0 0 30 0 0 30 0 0 30 0 0 30 0 0 30 
0 0 30 0 0 30 0 0 30 0 0 30 0 0 30 0 0 30 0 0 30 0 0 30 0 0 30 0 0 30 0 0 30 0 0 30 0 0 30 0 0 30 0 0 30 0 0 30 0 0 30 0 0 30 0 0 30 0 0 30 0 0 30 0 0 30 0 0 30 0 0 30 0 0 30 0 0 30 0 0 30 0 0 30 0 0 30 0 0 30 0 0 30 0 0 30 0 0 30 0 0 30 0 0 30 0 0 30 0 0 30 0 0 30 0 0 30 0 0 30 0 0 30 0 0 30 0 0 30 0 0 30 0 0 30 0 0 30 0 0 30 0 0 30 0 0 30 0 0 30 0 0 30 0 0 30 0 0 30 0 0 30 0 0 30 0 0 30 0 0 30 0 0 30 0 0 30 0 0 30 0 0 30 0 0 30 0 0 30 0 0 30 0 0 30 0 0 30 0 0 30 0 0 30 0 0 30 0 0 30 0 0 30 0 0 30 0 0 30 0 0 30 0 0 30 0 0 30 0 0 30 0 0 30 0 0 30 0 0 30 0 0 30 0 0 30 0 0 30 0 0 30 0 0 30 0 0 30 0 0 30 0 0 30 0 0 30 0 0 30 0 0 30 0 0 30 0 0 30 0 0 30 0 0 30 0 0 30 0 0 30 0 0 30 0 0 30 0 0 30 0 0 30 0 0 30 0 0 30 0 0 30 0 0 30 0 0 30 0 0 30 0 0 30 0 0 30 0 0 30 0 0 30 0 0 30 0 0 30 0 0 30 0 0 30 0 0 30 0 0 30 0 0 30 0 0 30 0 0 30 0 0 30 0 0 30 0 0 30 0 0 30 0 0 30 0 0 30 0 0 30 0 0 30 0 0 30 0 0 30 0 0 30 86 0 84 91 0 89 95 0 93 98 0 96 101 0 99 104 0 102 108 0 105 111 0 109 114 0 112 117 0 114 119 0 117 121 0 119 123 0 121 125 0 122 126 0 124 127 0 125 129 0 127 131 0 129 133 0 131 135 0 133 137 0 135 139 0 137 141 0 139 143 0 140 144 0 142 146 0 144 148 0 145 149 0 147 151 0 149 152 0 150 154 0 152 155 0 153 156 0 154 157 0 155 158 0 156 159 0 157 160 0 158 160 0 158 159 0 157 0 0 30 0 0 30 0 0 30 0 0 30 0 0 30 0 0 30 0 0 30 0 0 30 0 0 30 0 0 30 0 0 30 0 0 30 0 0 30 0 0 30 0 0 30 0 0 30 0 0 30 0 0 30 0 0 30 0 0 30 0 0 30 0 0 30 0 0 30 0 0 30 0 0 30 0 0 30 0 0 30 0 0 30 0 0 30 0 0 30 0 0 30 0 0 30 0 0 30 0 0 30 0 0 30 0 0 30 0 0 30 0 0 30 0 0 30 0 0 30 0 0 30 0 0 30 0 0 30 0 0 30 0 0 30 0 0 30 0 0 30 0 0 30 0 0 30 0 0 30 0 0 30 0 0 30 0 0 30 0 0 30 0 0 30 0 0 30 0 0 30 0 0 30 0 0 30 0 0 30 0 0 30 0 0 30 0 0 30 0 0 30 0 0 30 0 0 30 0 0 30 0 0 30 0 0 30 0 0 30 0 0 30 0 0 30 0 0 30 0 0 30 0 0 30 0 0 30 0 0 30 0 0 30 0 0 30 0 0 30 0 0 30 0 0 30 0 0 30 0 0 30 0 0 30 0 0 30 0 0 30 0 0 30 0 0 30 0 0 30 0 0 30 0 0 30 0 0 30 0 0 30 0 0 30 0 0 30 0 0 30 0 0 30 0 0 30 0 0 30 0 0 30 0 0 30 0 0 30 0 0 30 0 0 30 0 0 30 0 0 30 0 0 30 0 0 30 0 0 30 0 0 30 0 0 30 0 0 30 0 0 30 0 0 30 0 0 30 0 0 30 0 0 30 0 0 30 0 0 30 0 0 30 0 0 30 0 0 30 0 0 30 0 0 30 0 0 30 0 0 30 0 0 30 0 0 30 0 0 30 
0 0 30 0 0 30 0 0 30 0 0 30 0 0 30 0 0 30 0 0 30 0 0 30 0 0 30 0 0 30 0 0 30 0 0 30 0 0 30 0 0 30 0 0 30 0 0 30 0 0 30 0 0 30 0 0 30 0 0 30 0 0 30 0 0 30 0 0 30 0 0 30 0 0 30 0 0 30 0 0 30 0 0 30 0 0 30 0 0 30 0 0 30 0 0 30 0 0 30 0 0 30 0 0 30 0 0 30 0 0 30 0 0 30 0 0 30 0 0 30 0 0 30 0 0 30 0 0 30 0 0 30 0 0 30 0 0 30 0 0 30 0 0 30 0 0 30 0 0 30 0 0 30 0 0 30 0 0 30 0 0 30 0 0 30 0 0 30 0 0 30 0 0 30 0 0 30 0 0 30 0 0 30 0 0 30 0 0 30 0 0 30 0 0 30 0 0 30 0 0 30 0 0 30 0 0 30 0 0 30 0 0 30 0 0 30 0 0 30 0 0 30 0 0 30 0 0 30 0 0 30 0 0 30 0 0 30 0 0 30 0 0 30 0 0 30 0 0 30 0 0 30 0 0 30 0 0 30 0 0 30 0 0 30 0 0 30 0 0 30 0 0 30 0 0 30 0 0 30 0 0 30 0 0 30 0 0 30 0 0 30 0 0 30 0 0 30 0 0 30 0 0 30 0 0 30 0 0 30 0 0 30 0 0 30 0 0 30 0 0 30 0 0 30 0 0 30 0 0 30 0 0 30 0 0 30 0 0 30 0 0 30 0 0 30 0 0 30 0 0 30 0 0 30 0 0 30 0 0 30 0 0 30 0 0 30 0 0 30 0 0 30 0 0 30 0 0 30 0 0 30 0 0 30 0 0 30 80 0 78 85 0 83 89 0 87 94 0 92 100 0 97 104 0 102 108 0 106 112 0 109 115 0 113 118 0 116 120 0 118 123 0 120 125 0 122 126 0 124 128 0 126 130 0 128 131 0 129 132 0 130 133 0 131 134 0 132 135 0 133 135 0 133 136 0 134 137 0 135 139 0 137 141 0 139 143 0 140 144 0 142 146 0 144 148 0 145 149 0 147 151 0 149 152 0 150 154 0 151 155 0 153 156 0 154 157 0 155 158 0 156 159 0 157 160 0 158 161 0 159 161 0 159 160 0 158 0 0 30 0 0 30 0 0 30 0 0 30 0 0 30 0 0 30 0 0 30 0 0 30 0 0 30 0 0 30 0 0 30 0 0 30 0 0 30 0 0 30 0 0 30 0 0 30 0 0 30 0 0 30 0 0 30 0 0 30 0 0 30 0 0 30 0 0 30 0 0 30 0 0 30 0 0 30 0 0 30 0 0 30 0 0 30 0 0 30 0 0 30 0 0 30 0 0 30 0 0 30 0 0 30 0 0 30 0 0 30 0 0 30 0 0 30 0 0 30 0 0 30 0 0 30 0 0 30 0 0 30 0 0 30 0 0 30 0 0 30 0 0 30 0 0 30 0 0 30 0 0 30 0 0 30 0 0 30 0 0 30 0 0 30 0 0 30 0 0 30 0 0 30 0 0 30 0 0 30 0 0 30 0 0 30 0 0 30 0 0 30 0 0 30 0 0 30 0 0 30 0 0 30 0 0 30 0 0 30 0 0 30 0 0 30 0 0 30 0 0 30 0 0 30 0 0 30 0 0 30 0 0 30 0 0 30 0 0 30 0 0 30 0 0 30 0 0 30 0 0 30 0 0 30 0 0 30 0 0 30 0 0 30 0 0 30 0 0 30 0 0 30 0 0 30 0 0 30 0 0 30 0 0 30 0 0 30 0 0 30 0 0 30 0 0 30 0 0 30 0 0 30 0 0 30 0 0 30 0 0 30 0 0 30 0 0 30 0 0 30 0 0 30 0 0 30 0 0 30 0 0 30 0 0 30 0 0 30 0 0 30 0 0 30 0 0 30 0 0 30 0 0 30 0 0 30 0 0 30 0 0 30 0 0 30 0 0 30 0 0 30 0 0 30 0 0 30 0 0 30 0 0 30 
0 0 30 0 0 30 0 0 30 0 0 30 0 0 30 0 0 30 0 0 30 0 0 30 0 0 30 0 0 30 0 0 30 0 0 30 0 0 30 0 0 30 0 0 30 0 0 30 0 0 30 0 0 30 0 0 30 0 0 30 0 0 30 0 0 30 0 0 30 0 0 30 0 0 30 0 0 30 0 0 30 0 0 30 0 0 30 0 0 30 0 0 30 0 0 30 0 0 30 0 0 30 0 0 30 0 0 30 0 0 30 0 0 30 0 0 30 0 0 30 0 0 30 0 0 30 0 0 30 0 0 30 0 0 30 0 0 30 0 0 30 0 0 30 0 0 30 0 0 30 0 0 30 0 0 30 0 0 30 0 0 30 0 0 30 0 0 30 0 0 30 0 0 30 0 0 30 0 0 30 0 0 30 0 0 30 0 0 30 0 0 30 0 0 30 0 0 30 0 0 30 0 0 30 0 0 30 0 0 30 0 0 30 0 0 30 0 0 30 0 0 30 0 0 30 0 0 30 0 0 30 0 0 30 0 0 30 0 0 30 0 0 30 0 0 30 0 0 30 0 0 30 0 0 30 0 0 30 0 0 30 0 0 30 0 0 30 0 0 30 0 0 30 0 0 30 0 0 30 0 0 30 0 0 30 0 0 30 0 0 30 0 0 30 0 0 30 0 0 30 0 0 30 0 0 30 0 0 30 0 0 30 0 0 30 0 0 30 0 0 30 0 0 30 0 0 30 0 0 30 0 0 30 0 0 30 0 0 30 0 0 30 0 0 30 0 0 30 0 0 30 0 0 30 0 0 30 0 0 30 0 0 30 0 0 30 0 0 30 0 0 30 0 0 30 0 0 30 0 0 30 72 0 70 78 0 76 86 0 84 93 0 90 98 0 96 103 0 101 107 0 105 111 0 109 115 0 113 118 0 116 121 0 118 123 0 121 125 0 123 127 0 125 129 0 127 131 0 129 133 0 130 134 0 132 135 0 133 136 0 134 137 0 135 138 0 136 139 0 136 139 0 137 140 0 137 140 0 138 140 0 138 140 0 138 141 0 139 142 0 140 144 0 142 146 0 144 147 0 145 149 0 147 150 0 148 152 0 150 153 0 151 155 0 152 156 0 154 157 0 155 158 0 156 159 0 157 160 0 158 161 0 159 161 0 159 161 0 159 159 0 157 0 0 30 0 0 30 0 0 30 0 0 30 0 0 30 0 0 30 0 0 30 0 0 30 0 0 30 0 0 30 0 0 30 0 0 30 0 0 30 0 0 30 0 0 30 0 0 30 0 0 30 0 0 30 0 0 30 0 0 30 0 0 30 0 0 30 0 0 30 0 0 30 0 0 30 0 0 30 0 0 30 0 0 30 0 0 30 0 0 30 0 0 30 0 0 30 0 0 30 0 0 30 0 0 30 0 0 30 0 0 30 0 0 30 0 0 30 0 0 30 0 0 30 0 0 30 0 0 30 0 0 30 0 0 30 0 0 30 0 0 30 0 0 30 0 0 30 0 0 30 0 0 30 0 0 30 0 0 30 0 0 30 0 0 30 0 0 30 0 0 30 0 0 30 0 0 30 0 0 30 0 0 30 0 0 30 0 0 30 0 0 30 0 0 30 0 0 30 0 0 30 0 0 30 0 0 30 0 0 30 0 0 30 0 0 30 0 0 30 0 0 30 0 0 30 0 0 30 0 0 30 0 0 30 0 0 30 0 0 30 0 0 30 0 0 30 0 0 30 0 0 30 0 0 30 0 0 30 0 0 30 0 0 30 0 0 30 0 0 30 0 0 30 0 0 30 0 0 30 0 0 30 0 0 30 0 0 30 0 0 30 0 0 30 0 0 30 0 0 30 0 0 30 0 0 30 0 0 30 0 0 30 0 0 30 0 0 30 0 0 30 0 0 30 0 0 30 0 0 30 0 0 30 0 0 30 0 0 30 0 0 30 0 0 30 0 0 30 0 0 30 0 0 30 0 0 30 0 0 30 0 0 30 0 0 30 0 0 30 0 0 30 0 0 30 0 0 30 
0 0 30 0 0 30 0 0 30 0 0 30 0 0 30 0 0 30 0 0 30 0 0 30 0 0 30 0 0 30 0 0 30 0 0 30 0 0 30 0 0 30 0 0 30 0 0 30 0 0 30 0 0 30 0 0 30 0 0 30 0 0 30 0 0 30 0 0 30 0 0 30 0 0 30 0 0 30 0 0 30 0 0 30 0 0 30 0 0 30 0 0 30 0 0 30 0 0 30 0 0 30 0 0 30 0 0 30 0 0 30 0 0 30 0 0 30 0 0 30 0 0 30 0 0 30 0 0 30 0 0 30 0 0 30 0 0 30 0 0 30 0 0 30 0 0 30 0 0 30 0 0 30 0 0 30 0 0 30 0 0 30 0 0 30 0 0 30 0 0 30 0 0 30 0 0 30 0 0 30 0 0 30 0 0 30 0 0 30 0 0 30 0 0 30 0 0 30 0 0 30 0 0 30 0 0 30 0 0 30 0 0 30 0 0 30 0 0 30 0 0 30 0 0 30 0 0 30 0 0 30 0 0 30 0 0 30 0 0 30 0 0 30 0 0 30 0 0 30 0 0 30 0 0 30 0 0 30 0 0 30 0 0 30 0 0 30 0 0 30 0 0 30 0 0 30 0 0 30 0 0 30 0 0 30 0 0 30 0 0 30 0 0 30 0 0 30 0 0 30 0 0 30 0 0 30 0 0 30 0 0 30 0 0 30 0 0 30 0 0 30 0 0 30 0 0 30 0 0 30 0 0 30 0 0 30 0 0 30 0 0 30 0 0 30 0 0 30 0 0 30 0 0 30 0 0 30 0 0 30 0 0 30 0 0 30 0 0 30 0 0 30 0 0 30 0 0 30 71 0 69 82 0 80 90 0 87 96 0 94 101 0 99 106 0 104 110 0 108 114 0 112 117 0 115 120 0 118 123 0 121 125 0 123 128 0 125 130 0 128 132 0 129 133 0 131 135 0 133 136 0 134 138 0 135 139 0 137 140 0 138 141 0 138 141 0 139 142 0 140 142 0 140 143 0 141 143 0 141 143 0 141 143 0 141 143 0 141 143 0 141 143 0 141 144 0 142 145 0 143 147 0 145 148 0 146 150 0 148 151 0 149 153 0 151 154 0 152 155 0 153 157 0 154 158 0 156 159 0 157 160 0 158 160 0 158 161 0 159 161 0 159 161 0 159 0 0 30 0 0 30 0 0 30 0 0 30 0 0 30 0 0 30 0 0 30 0 0 30 0 0 30 0 0 30 0 0 30 0 0 30 0 0 30 0 0 30 0 0 30 0 0 30 0 0 30 0 0 30 0 0 30 0 0 30 0 0 30 0 0 30 0 0 30 0 0 30 0 0 30 0 0 30 0 0 30 0 0 30 0 0 30 0 0 30 0 0 30 0 0 30 0 0 30 0 0 30 0 0 30 0 0 30 0 0 30 0 0 30 0 0 30 0 0 30 0 0 30 0 0 30 0 0 30 0 0 30 0 0 30 0 0 30 0 0 30 0 0 30 0 0 30 0 0 30 0 0 30 0 0 30 0 0 30 0 0 30 0 0 30 0 0 30 0 0 30 0 0 30 0 0 30 0 0 30 0 0 30 0 0 30 0 0 30 0 0 30 0 0 30 0 0 30 0 0 30 0 0 30 0 0 30 0 0 30 0 0 30 0 0 30 0 0 30 0 0 30 0 0 30 0 0 30 0 0 30 0 0 30 0 0 30 0 0 30 0 0 30 0 0 30 0 0 30 0 0 30 0 0 30 0 0 30 0 0 30 0 0 30 0 0 30 0 0 30 0 0 30 0 0 30 0 0 30 0 0 30 0 0 30 0 0 30 0 0 30 0 0 30 0 0 30 0 0 30 0 0 30 0 0 30 0 0 30 0 0 30 0 0 30 0 0 30 0 0 30 0 0 30 0 0 30 0 0 30 0 0 30 0 0 30 0 0 30 0 0 30 0 0 30 0 0 30 0 0 30 0 0 30 0 0 30 0 0 30 0 0 30 0 0 30 0 0 30 0 0 30 0 0 30 
0 0 30 0 0 30 0 0 30 0 0 30 0 0 30 0 0 30 0 0 30 0 0 30 0 0 30 0 0 30 0 0 30 0 0 30 0 0 30 0 0 30 0 0 30 0 0 30 0 0 30 0 0 30 0 0 30 0 0 30 0 0 30 0 0 30 0 0 30 0 0 30 0 0 30 0 0 30 0 0 30 0 0 30 0 0 30 0 0 30 0 0 30 0 0 30 0 0 30 0 0 30 0 0 30 0 0 30 0 0 30 0 0 30 0 0 30 0 0 30 0 0 30 0 0 30 0 0 30 0 0 30 0 0 30 0 0 30 0 0 30 0 0 30 0 0 30 0 0 30 0 0 30 0 0 30 0 0 30 0 0 30 0 0 30 0 0 30 0 0 30 0 0 30 0 0 30 0 0 30 0 0 30 0 0 30 0 0 30 0 0 30 0 0 30 0 0 30 0 0 30 0 0 30 0 0 30 0 0 30 0 0 30 0 0 30 0 0 30 0 0 30 0 0 30 0 0 30 0 0 30 0 0 30 0 0 30 0 0 30 0 0 30 0 0 30 0 0 30 0 0 30 0 0 30 0 0 30 0 0 30 0 0 30 0 0 30 0 0 30 0 0 30 0 0 30 0 0 30 0 0 30 0 0 30 0 0 30 0 0 30 0 0 30 0 0 30 0 0 30 0 0 30 0 0 30 0 0 30 0 0 30 0 0 30 0 0 30 0 0 30 0 0 30 0 0 30 0 0 30 0 0 30 0 0 30 0 0 30 0 0 30 0 0 30 0 0 30 0 0 30 0 0 30 0 0 30 0 0 30 0 0 30 0 0 30 0 0 30 0 0 30 63 0 61 76 0 74 85 0 83 92 0 90 98 0 96 103 0 101 108 0 106 112 0 110 115 0 113 119 0 117 122 0 120 124 0 122 127 0 125 129 0 127 131 0 129 133 0 131 135 0 133 137 0 135 138 0 136 140 0 137 141 0 139 142 0 140 143 0 141 144 0 141 144 0 142 145 0 143 145 0 143 146 0 144 146 0 144 146 0 144 146 0 144 146 0 144 146 0 144 146 0 144 146 0 143 145 0 143 145 0 143 147 0 145 148 0 146 150 0 147 151 0 149 152 0 150 153 0 151 155 0 153 156 0 154 157 0 155 158 0 156 159 0 157 160 0 158 160 0 158 161 0 159 161 0 159 159 0 157 0 0 30 0 0 30 0 0 30 0 0 30 0 0 30 0 0 30 0 0 30 0 0 30 0 0 30 0 0 30 0 0 30 0 0 30 0 0 30 0 0 30 0 0 30 0 0 30 0 0 30 0 0 30 0 0 30 0 0 30 0 0 30 0 0 30 0 0 30 0 0 30 0 0 30 0 0 30 0 0 30 0 0 30 0 0 30 0 0 30 0 0 30 0 0 30 0 0 30 0 0 30 0 0 30 0 0 30 0 0 30 0 0 30 0 0 30 0 0 30 0 0 30 0 0 30 0 0 30 0 0 30 0 0 30 0 0 30 0 0 30 0 0 30 0 0 30 0 0 30 0 0 30 0 0 30 0 0 30 0 0 30 0 0 30 0 0 30 0 0 30 0 0 30 0 0 30 0 0 30 0 0 30 0 0 30 0 0 30 0 0 30 0 0 30 0 0 30 0 0 30 0 0 30 0 0 30 0 0 30 0 0 30 0 0 30 0 0 30 0 0 30 0 0 30 0 0 30 0 0 30 0 0 30 0 0 30 0 0 30 0 0 30 0 0 30 0 0 30 0 0 30 0 0 30 0 0 30 0 0 30 0 0 30 0 0 30 0 0 30 0 0 30 0 0 30 0 0 30 0 0 30 0 0 30 0 0 30 0 0 30 0 0 30 0 0 30 0 0 30 0 0 30 0 0 30 0 0 30 0 0 30 0 0 30 0 0 30 0 0 30 0 0 30 0 0 30 0 0 30 0 0 30 0 0 30 0 0 30 0 0 30 0 0 30 0 0 30 0 0 30 0 0 30 0 0 30 0 0 30 0 0 30 0 0 30 0 0 30 
0 0 30 0 0 30 0 0 30 0 0 30 0 0 30 0 0 30 0 0 30 0 0 30 0 0 30 0 0 30 0 0 30 0 0 30 0 0 30 0 0 30 0 0 30 0 0 30 0 0 30 0 0 30 0 0 30 0 0 30 0 0 30 0 0 30 0 0 30 0 0 30 0 0 30 0 0 30 0 0 30 0 0 30 0 0 30 0 0 30 0 0 30 0 0 30 0 0 30 0 0 30 0 0 30 0 0 30 0 0 30 0 0 30 0 0 30 0 0 30 0 0 30 0 0 30 0 0 30 0 0 30 0 0 30 0 0 30 0 0 30 0 0 30 0 0 30 0 0 30 0 0 30 0 0 30 0 0 30 0 0 30 0 0 30 0 0 30 0 0 30 0 0 30 0 0 30 0 0 30 0 0 30 0 0 30 0 0 30 0 0 30 0 0 30 0 0 30 0 0 30 0 0 30 0 0 30 0 0 30 0 0 30 0 0 30 0 0 30 0 0 30 0 0 30 0 0 30 0 0 30 0 0 30 0 0 30 0 0 30 0 0 30 0 0 30 0 0 30 0 0 30 0 0 30 0 0 30 0 0 30 0 0 30 0 0 30 0 0 30 0 0 30 0 0 30 0 0 30 0 0 30 0 0 30 0 0 30 0 0 30 0 0 30 0 0 30 0 0 30 0 0 30 0 0 30 0 0 30 0 0 30 0 0 30 0 0 30 0 0 30 0 0 30 0 0 30 0 0 30 0 0 30 0 0 30 0 0 30 0 0 30 0 0 30 0 0 30 0 0 30 0 0 30 0 0 30 0 0 30 0 0 30 0 0 30 0 0 30 68 0 66 79 0 77 87 0 85 94 0 92 100 0 98 105 0 103 109 0 107 113 0 111 117 0 115 120 0 118 123 0 121 126 0 124 128 0 126 131 0 129 133 0 131 135 0 133 137 0 134 138 0 136 140 0 138 141 0 139 142 0 140 143 0 141 144 0 142 145 0 143 146 0 144 147 0 145 148 0 145 148 0 146 149 0 147 149 0 147 150 1 147 150 1 148 150 1 148 150 2 148 150 2 148 150 2 148 149 2 147 148 2 146 147 2 145 147 1 145 148 1 146 149 0 147 151 0 148 152 0 150 153 0 151 154 0 152 155 0 153 156 0 154 157 0 155 158 0 156 159 0 157 160 0 157 160 0 158 160 0 158 159 0 157 0 0 30 0 0 30 0 0 30 0 0 30 0 0 30 0 0 30 0 0 30 0 0 30 0 0 30 0 0 30 0 0 30 0 0 30 0 0 30 0 0 30 0 0 30 0 0 30 0 0 30 0 0 30 0 0 30 0 0 30 0 0 30 0 0 30 0 0 30 0 0 30 0 0 30 0 0 30 0 0 30 0 0 30 0 0 30 0 0 30 0 0 30 0 0 30 0 0 30 0 0 30 0 0 30 0 0 30 0 0 30 0 0 30 0 0 30 0 0 30 0 0 30 0 0 30 0 0 30 0 0 30 0 0 30 0 0 30 0 0 30 0 0 30 0 0 30 0 0 30 0 0 30 0 0 30 0 0 30 0 0 30 0 0 30 0 0 30 0 0 30 0 0 30 0 0 30 0 0 30 0 0 30 0 0 30 0 0 30 0 0 30 0 0 30 0 0 30 0 0 30 0 0 30 0 0 30 0 0 30 0 0 30 0 0 30 0 0 30 0 0 30 0 0 30 0 0 30 0 0 30 0 0 30 0 0 30 0 0 30 0 0 30 0 0 30 0 0 30 0 0 30 0 0 30 0 0 30 0 0 30 0 0 30 0 0 30 0 0 30 0 0 30 0 0 30 0 0 30 0 0 30 0 0 30 0 0 30 0 0 30 0 0 30 0 0 30 0 0 30 0 0 30 0 0 30 0 0 30 0 0 30 0 0 30 0 0 30 0 0 30 0 0 30 0 0 30 0 0 30 0 0 30 0 0 30 0 0 30 0 0 30 0 0 30 0 0 30 0 0 30 0 0 30 0 0 30 0 0 30 0 0 30 0 0 30 
0 0 30 0 0 30 0 0 30 0 0 30 0 0 30 0 0 30 0 0 30 0 0 30 0 0 30 0 0 30 0 0 30 0 0 30 0 0 30 0 0 30 0 0 30 0 0 30 0 0 30 0 0 30 0 0 30 0 0 30 0 0 30 0 0 30 0 0 30 0 0 30 0 0 30 0 0 30 0 0 30 0 0 30 0 0 30 0 0 30 0 0 30 0 0 30 0 0 30 0 0 30 0 0 30 0 0 30 0 0 30 0 0 30 0 0 30 0 0 30 0 0 30 0 0 30 0 0 30 0 0 30 0 0 30 0 0 30 0 0 30 0 0 30 0 0 30 0 0 30 0 0 30 0 0 30 0 0 30 0 0 30 0 0 30 0 0 30 0 0 30 0 0 30 0 0 30 0 0 30 0 0 30 0 0 30 0 0 30 0 0 30 0 0 30 0 0 30 0 0 30 0 0 30 0 0 30 0 0 30 0 0 30 0 0 30 0 0 30 0 0 30 0 0 30 0 0 30 0 0 30 0 0 30 0 0 30 0 0 30 0 0 30 0 0 30 0 0 30 0 0 30 0 0 30 0 0 30 0 0 30 0 0 30 0 0 30 0 0 30 0 0 30 0 0 30 0 0 30 0 0 30 0 0 30 0 0 30 0 0 30 0 0 30 0 0 30 0 0 30 0 0 30 0 0 30 0 0 30 0 0 30 0 0 30 0 0 30 0 0 30 0 0 30 0 0 30 0 0 30 0 0 30 0 0 30 0 0 30 0 0 30 0 0 30 0 0 30 0 0 30 0 0 30 0 0 30 0 0 30 0 0 30 53 0 51 71 0 69 81 0 79 89 0 87 95 0 93 101 0 99 106 0 104 110 0 108 114 0 112 118 0 116 121 0 119 124 0 122 127 0 125 129 0 127 132 0 130 134 0 132 136 0 134 138 0 136 139 0 137 141 0 139 142 0 140 144 0 142 145 0 143 146 0 144 147 0 145 148 0 146 149 0 146 149 0 147 150 0 148 151 0 149 151 1 149 152 1 150 153 2 151 154 3 151 154 3 152 155 4 153 155 5 153 155 5 153 155 5 152 154 5 152 153 5 151 151 4 149 149 3 147 149 3 147 150 2 148 150 1 148 151 0 149 152 0 150 153 0 151 154 0 152 155 0 153 156 0 154 157 0 155 158 0 156 159 0 157 159 0 157 159 0 157 159 0 157 157 0 154 0 0 30 0 0 30 0 0 30 0 0 30 0 0 30 0 0 30 0 0 30 0 0 30 0 0 30 0 0 30 0 0 30 0 0 30 0 0 30 0 0 30 0 0 30 0 0 30 0 0 30 0 0 30 0 0 30 0 0 30 0 0 30 0 0 30 0 0 30 0 0 30 0 0 30 0 0 30 0 0 30 0 0 30 0 0 30 0 0 30 0 0 30 0 0 30 0 0 30 0 0 30 0 0 30 0 0 30 0 0 30 0 0 30 0 0 30 0 0 30 0 0 30 0 0 30 0 0 30 0 0 30 0 0 30 0 0 30 0 0 30 0 0 30 0 0 30 0 0 30 0 0 30 0 0 30 0 0 30 0 0 30 0 0 30 0 0 30 0 0 30 0 0 30 0 0 30 0 0 30 0 0 30 0 0 30 0 0 30 0 0 30 0 0 30 0 0 30 0 0 30 0 0 30 0 0 30 0 0 30 0 0 30 0 0 30 0 0 30 0 0 30 0 0 30 0 0 30 0 0 30 0 0 30 0 0 30 0 0 30 0 0 30 0 0 30 0 0 30 0 0 30 0 0 30 0 0 30 0 0 30 0 0 30 0 0 30 0 0 30 0 0 30 0 0 30 0 0 30 0 0 30 0 0 30 0 0 30 0 0 30 0 0 30 0 0 30 0 0 30 0 0 30 0 0 30 0 0 30 0 0 30 0 0 30 0 0 30 0 0 30 0 0 30 0 0 30 0 0 30 0 0 30 0 0 30 0 0 30 0 0 30 0 0 30 0 0 30 0 0 30 0 0 30 0 0 30 0 0 30 
0 0 30 0 0 30 0 0 30 0 0 30 0 0 30 0 0 30 0 0 30 0 0 30 0 0 30 0 0 30 0 0 30 0 0 30 0 0 30 0 0 30 0 0 30 0 0 30 0 0 30 0 0 30 0 0 30 0 0 30 0 0 30 0 0 30 0 0 30 0 0 30 0 0 30 0 0 30 0 0 30 0 0 30 0 0 30 0 0 30 0 0 30 0 0 30 0 0 30 0 0 30 0 0 30 0 0 30 0 0 30 0 0 30 0 0 30 0 0 30 0 0 30 0 0 30 0 0 30 0 0 30 0 0 30 0 0 30 0 0 30 0 0 30 0 0 30 0 0 30 0 0 30 0 0 30 0 0 30 0 0 30 0 0 30 0 0 30 0 0 30 0 0 30 0 0 30 0 0 30 0 0 30 0 0 30 0 0 30 0 0 30 0 0 30 0 0 30 0 0 30 0 0 30 0 0 30 0 0 30 0 0 30 0 0 30 0 0 30 0 0 30 0 0 30 0 0 30 0 0 30 0 0 30 0 0 30 0 0 30 0 0 30 0 0 30 0 0 30 0 0 30 0 0 30 0 0 30 0 0 30 0 0 30 0 0 30 0 0 30 0 0 30 0 0 30 0 0 30 0 0 30 0 0 30 0 0 30 0 0 30 0 0 30 0 0 30 0 0 30 0 0 30 0 0 30 0 0 30 0 0 30 0 0 30 0 0 30 0 0 30 0 0 30 0 0 30 0 0 30 0 0 30 0 0 30 0 0 30 0 0 30 0 0 30 0 0 30 0 0 30 0 0 30 0 0 30 0 0 30 57 0 55 72 0 70 82 0 80 89 0 87 96 0 94 101 0 99 106 0 104 111 0 109 115 0 113 118 0 116 122 0 120 125 0 123 127 0 125 130 0 128 132 0 130 135 0 133 137 0 135 139 0 136 140 0 138 142 0 140 143 0 141 145 0 143 146 0 144 147 0 145 148 0 146 149 0 147 150 0 148 151 0 149 152 0 149 152 1 150 153 1 151 154 2 152 155 3 153 157 4 155 158 5 156 159 7 157 161 8 158 162 9 159 162 10 160 162 11 160 162 11 160 161 11 159 159 10 157 157 9 155 154 7 152 151 5 149 151 4 149 151 2 149 151 1 149 152 0 150 152 0 150 153 0 151 154 0 152 155 0 153 156 0 154 157 0 155 158 0 155 158 0 156 158 0 156 158 0 156 156 0 154 0 0 30 0 0 30 0 0 30 0 0 30 0 0 30 0 0 30 0 0 30 0 0 30 0 0 30 0 0 30 0 0 30 0 0 30 0 0 30 0 0 30 0 0 30 0 0 30 0 0 30 0 0 30 0 0 30 0 0 30 0 0 30 0 0 30 0 0 30 0 0 30 0 0 30 0 0 30 0 0 30 0 0 30 0 0 30 0 0 30 0 0 30 0 0 30 0 0 30 0 0 30 0 0 30 0 0 30 0 0 30 0 0 30 0 0 30 0 0 30 0 0 30 0 0 30 0 0 30 0 0 30 0 0 30 0 0 30 0 0 30 0 0 30 0 0 30 0 0 30 0 0 30 0 0 30 0 0 30 0 0 30 0 0 30 0 0 30 0 0 30 0 0 30 0 0 30 0 0 30 0 0 30 0 0 30 0 0 30 0 0 30 0 0 30 0 0 30 0 0 30 0 0 30 0 0 30 0 0 30 0 0 30 0 0 30 0 0 30 0 0 30 0 0 30 0 0 30 0 0 30 0 0 30 0 0 30 0 0 30 0 0 30 0 0 30 0 0 30 0 0 30 0 0 30 0 0 30 0 0 30 0 0 30 0 0 30 0 0 30 0 0 30 0 0 30 0 0 30 0 0 30 0 0 30 0 0 30 0 0 30 0 0 30 0 0 30 0 0 30 0 0 30 0 0 30 0 0 30 0 0 30 0 0 30 0 0 30 0 0 30 0 0 30 0 0 30 0 0 30 0 0 30 0 0 30 0 0 30 0 0 30 0 0 30 0 0 30 0 0 30 0 0 30 0 0 30 
0 0 30 0 0 30 0 0 30 0 0 30 0 0 30 0 0 30 0 0 30 0 0 30 0 0 30 0 0 30 0 0 30 0 0 30 0 0 30 0 0 30 0 0 30 0 0 30 0 0 30 0 0 30 0 0 30 0 0 30 0 0 30 0 0 30 0 0 30 0 0 30 0 0 30 0 0 30 0 0 30 0 0 30 0 0 30 0 0 30 0 0 30 0 0 30 0 0 30 0 0 30 0 0 30 0 0 30 0 0 30 0 0 30 0 0 30 0 0 30 0 0 30 0 0 30 0 0 30 0 0 30 0 0 30 0 0 30 0 0 30 0 0 30 0 0 30 0 0 30 0 0 30 0 0 30 0 0 30 0 0 30 0 0 30 0 0 30 0 0 30 0 0 30 0 0 30 0 0 30 0 0 30 0 0 30 0 0 30 0 0 30 0 0 30 0 0 30 0 0 30 0 0 30 0 0 30 0 0 30 0 0 30 0 0 30 0 0 30 0 0 30 0 0 30 0 0 30 0 0 30 0 0 30 0 0 30 0 0 30 0 0 30 0 0 30 0 0 30 0 0 30 0 0 30 0 0 30 0 0 30 0 0 30 0 0 30 0 0 30 0 0 30 0 0 30 0 0 30 0 0 30 0 0 30 0 0 30 0 0 30 0 0 30 0 0 30 0 0 30 0 0 30 0 0 30 0 0 30 0 0 30 0 0 30 0 0 30 0 0 30 0 0 30 0 0 30 0 0 30 0 0 30 0 0 30 0 0 30 0 0 30 0 0 30 0 0 30 0 0 30 0 0 30 0 0 30 59 0 57 73 0 71 82 0 80 90 0 88 96 0 94 102 0 100 107 0 104 111 0 109 115 0 113 119 0 117 122 0 120 125 0 123 128 0 126 131 0 128 133 0 131 135 0 133 137 0 135 139 0 137 141 0 139 143 0 141 144 0 142 146 0 143 147 0 145 148 0 146 149 0 147 150 0 148 151 0 149 152 0 150 153 0 151 154 1 152 155 1 153 156 2 154 157 3 155 159 5 157 161 7 159 163 9 161 165 11 163 168 14 166 170 16 168 172 18 169 173 20 170 173 21 171 172 21 170 170 20 168 167 18 165 164 15 162 160 12 158 156 9 153 153 7 151 152 4 150 151 2 149 151 1 149 152 0 149 152 0 150 153 0 151 154 0 152 155 0 153 156 0 154 156 0 154 157 0 155 157 0 155 157 0 155 155 0 153 0 0 30 0 0 30 0 0 30 0 0 30 0 0 30 0 0 30 0 0 30 0 0 30 0 0 30 0 0 30 0 0 30 0 0 30 0 0 30 0 0 30 0 0 30 0 0 30 0 0 30 0 0 30 0 0 30 0 0 30 0 0 30 0 0 30 0 0 30 0 0 30 0 0 30 0 0 30 0 0 30 0 0 30 0 0 30 0 0 30 0 0 30 0 0 30 0 0 30 0 0 30 0 0 30 0 0 30 0 0 30 0 0 30 0 0 30 0 0 30 0 0 30 0 0 30 0 0 30 0 0 30 0 0 30 0 0 30 0 0 30 0 0 30 0 0 30 0 0 30 0 0 30 0 0 30 0 0 30 0 0 30 0 0 30 0 0 30 0 0 30 0 0 30 0 0 30 0 0 30 0 0 30 0 0 30 0 0 30 0 0 30 0 0 30 0 0 30 0 0 30 0 0 30 0 0 30 0 0 30 0 0 30 0 0 30 0 0 30 0 0 30 0 0 30 0 0 30 0 0 30 0 0 30 0 0 30 0 0 30 0 0 30 0 0 30 0 0 30 0 0 30 0 0 30 0 0 30 0 0 30 0 0 30 0 0 30 0 0 30 0 0 30 0 0 30 0 0 30 0 0 30 0 0 30 0 0 30 0 0 30 0 0 30 0 0 30 0 0 30 0 0 30 0 0 30 0 0 30 0 0 30 0 0 30 0 0 30 0 0 30 0 0 30 0 0 30 0 0 30 0 0 30 0 0 30 0 0 30 0 0 30 0 0 30 0 0 30 0 0 30 0 0 30 
0 0 30 0 0 30 0 0 30 0 0 30 0 0 30 0 0 30 0 0 30 0 0 30 0 0 30 0 0 30 0 0 30 0 0 30 0 0 30 0 0 30 0 0 30 0 0 30 0 0 30 0 0 30 0 0 30 0 0 30 0 0 30 0 0 30 0 0 30 0 0 30 0 0 30 0 0 30 0 0 30 0 0 30 0 0 30 0 0 30 0 0 30 0 0 30 0 0 30 0 0 30 0 0 30 0 0 30 0 0 30 0 0 30 0 0 30 0 0 30 0 0 30 0 0 30 0 0 30 0 0 30 0 0 30 0 0 30 0 0 30 0 0 30 0 0 30 0 0 30 0 0 30 0 0 30 0 0 30 0 0 30 0 0 30 0 0 30 0 0 30 0 0 30 0 0 30 0 0 30 0 0 30 0 0 30 0 0 30 0 0 30 0 0 30 0 0 30 0 0 30 0 0 30 0 0 30 0 0 30 0 0 30 0 0 30 0 0 30 0 0 30 0 0 30 0 0 30 0 0 30 0 0 30 0 0 30 0 0 30 0 0 30 0 0 30 0 0 30 0 0 30 0 0 30 0 0 30 0 0 30 0 0 30 0 0 30 0 0 30 0 0 30 0 0 30 0 0 30 0 0 30 0 0 30 0 0 30 0 0 30 0 0 30 0 0 30 0 0 30 0 0 30 0 0 30 0 0 30 0 0 30 0 0 30 0 0 30 0 0 30 0 0 30 0 0 30 0 0 30 0 0 30 0 0 30 0 0 30 0 0 30 0 0 30 0 0 30 0 0 30 0 0 30 59 0 57 72 0 70 82 0 80 89 0 87 96 0 94 101 0 99 106 0 104 111 0 109 115 0 113 119 0 117 122 0 120 125 0 123 128 0 126 131 0 129 133 0 131 136 0 133 138 0 136 140 0 137 141 0 139 143 0 141 145 0 143 146 0 144 147 0 145 149 0 147 150 0 148 151 0 149 152 0 150 153 0 151 154 0 152 155 0 152 156 1 154 157 2 155 158 3 156 160 5 158 163 7 161 165 10 163 169 13 167 172 16 170 176 20 174 180 24 177 183 28 181 185 31 183 187 33 185 187 34 185 185 33 183 182 31 180 178 28 176 173 24 171 167 19 165 161 14 159 155 10 153 153 7 151 152 4 149 151 2 149 151 1 149 151 0 149 152 0 150 153 0 151 154 0 152 154 0 152 155 0 153 155 0 153 156 0 153 155 0 153 154 0 152 0 0 30 0 0 30 0 0 30 0 0 30 0 0 30 0 0 30 0 0 30 0 0 30 0 0 30 0 0 30 0 0 30 0 0 30 0 0 30 0 0 30 0 0 30 0 0 30 0 0 30 0 0 30 0 0 30 0 0 30 0 0 30 0 0 30 0 0 30 0 0 30 0 0 30 0 0 30 0 0 30 0 0 30 0 0 30 0 0 30 0 0 30 0 0 30 0 0 30 0 0 30 0 0 30 0 0 30 0 0 30 0 0 30 0 0 30 0 0 30 0 0 30 0 0 30 0 0 30 0 0 30 0 0 30 0 0 30 0 0 30 0 0 30 0 0 30 0 0 30 0 0 30 0 0 30 0 0 30 0 0 30 0 0 30 0 0 30 0 0 30 0 0 30 0 0 30 0 0 30 0 0 30 0 0 30 0 0 30 0 0 30 0 0 30 0 0 30 0 0 30 0 0 30 0 0 30 0 0 30 0 0 30 0 0 30 0 0 30 0 0 30 0 0 30 0 0 30 0 0 30 0 0 30 0 0 30 0 0 30 0 0 30 0 0 30 0 0 30 0 0 30 0 0 30 0 0 30 0 0 30 0 0 30 0 0 30 0 0 30 0 0 30 0 0 30 0 0 30 0 0 30 0 0 30 0 0 30 0 0 30 0 0 30 0 0 30 0 0 30 0 0 30 0 0 30 0 0 30 0 0 30 0 0 30 0 0 30 0 0 30 0 0 30 0 0 30 0 0 30 0 0 30 0 0 30 0 0 30 0 0 30 0 0 30 0 0 30 0 0 30 
0 0 30 0 0 30 0 0 30 0 0 30 0 0 30 0 0 30 0 0 30 0 0 30 0 0 30 0 0 30 0 0 30 0 0 30 0 0 30 0 0 30 0 0 30 0 0 30 0 0 30 0 0 30 0 0 30 0 0 30 0 0 30 0 0 30 0 0 30 0 0 30 0 0 30 0 0 30 0 0 30 0 0 30 0 0 30 0 0 30 0 0 30 0 0 30 0 0 30 0 0 30 0 0 30 0 0 30 0 0 30 0 0 30 0 0 30 0 0 30 0 0 30 0 0 30 0 0 30 0 0 30 0 0 30 0 0 30 0 0 30 0 0 30 0 0 30 0 0 30 0 0 30 0 0 30 0 0 30 0 0 30 0 0 30 0 0 30 0 0 30 0 0 30 0 0 30 0 0 30 0 0 30 0 0 30 0 0 30 0 0 30 0 0 30 0 0 30 0 0 30 0 0 30 0 0 30 0 0 30 0 0 30 0 0 30 0 0 30 0 0 30 0 0 30 0 0 30 0 0 30 0 0 30 0 0 30 0 0 30 0 0 30 0 0 30 0 0 30 0 0 30 0 0 30 0 0 30 0 0 30 0 0 30 0 0 30 0 0 30 0 0 30 0 0 30 0 0 30 0 0 30 0 0 30 0 0 30 0 0 30 0 0 30 0 0 30 0 0 30 0 0 30 0 0 30 0 0 30 0 0 30 0 0 30 0 0 30 0 0 30 0 0 30 0 0 30 0 0 30 0 0 30 0 0 30 0 0 30 0 0 30 0 0 30 0 0 30 0 0 30 58 0 56 72 0 70 81 0 79 89 0 87 95 0 93 101 0 99 106 0 104 111 0 108 115 0 113 118 0 116 122 0 120 125 0 123 128 0 126 131 0 129 133 0 131 136 0 133 138 0 136 140 0 138 142 0 140 143 0 141 145 0 143 147 0 144 148 0 146 149 0 147 150 0 148 151 0 149 152 0 150 153 0 151 154 0 152 155 0 153 156 1 154 157 1 155 159 2 157 161 4 159 163 6 161 166 9 164 170 13 168 174 17 172 179 22 177 184 28 182 190 33 188 195 39 193 199 44 197 202 47 200 204 50 202 203 50 201 201 48 199 196 45 194 190 39 188 182 33 180 174 26 172 166 20 164 158 14 156 154 9 152 152 5 150 150 3 148 150 1 148 150 0 148 151 0 149 151 0 149 152 0 150 153 0 151 154 0 151 154 0 152 154 0 152 154 0 152 153 0 150 0 0 30 0 0 30 0 0 30 0 0 30 0 0 30 0 0 30 0 0 30 0 0 30 0 0 30 0 0 30 0 0 30 0 0 30 0 0 30 0 0 30 0 0 30 0 0 30 0 0 30 0 0 30 0 0 30 0 0 30 0 0 30 0 0 30 0 0 30 0 0 30 0 0 30 0 0 30 0 0 30 0 0 30 0 0 30 0 0 30 0 0 30 0 0 30 0 0 30 0 0 30 0 0 30 0 0 30 0 0 30 0 0 30 0 0 30 0 0 30 0 0 30 0 0 30 0 0 30 0 0 30 0 0 30 0 0 30 0 0 30 0 0 30 0 0 30 0 0 30 0 0 30 0 0 30 0 0 30 0 0 30 0 0 30 0 0 30 0 0 30 0 0 30 0 0 30 0 0 30 0 0 30 0 0 30 0 0 30 0 0 30 0 0 30 0 0 30 0 0 30 0 0 30 0 0 30 0 0 30 0 0 30 0 0 30 0 0 30 0 0 30 0 0 30 0 0 30 0 0 30 0 0 30 0 0 30 0 0 30 0 0 30 0 0 30 0 0 30 0 0 30 0 0 30 0 0 30 0 0 30 0 0 30 0 0 30 0 0 30 0 0 30 0 0 30 0 0 30 0 0 30 0 0 30 0 0 30 0 0 30 0 0 30 0 0 30 0 0 30 0 0 30 0 0 30 0 0 30 0 0 30 0 0 30 0 0 30 0 0 30 0 0 30 0 0 30 0 0 30 0 0 30 0 0 30 0 0 30 0 0 30 0 0 30 0 0 30 
0 0 30 0 0 30 0 0 30 0 0 30 0 0 30 0 0 30 0 0 30 0 0 30 0 0 30 0 0 30 0 0 30 0 0 30 0 0 30 0 0 30 0 0 30 0 0 30 0 0 30 0 0 30 0 0 30 0 0 30 0 0 30 0 0 30 0 0 30 0 0 30 0 0 30 0 0 30 0 0 30 0 0 30 0 0 30 0 0 30 0 0 30 0 0 30 0 0 30 0 0 30 0 0 30 0 0 30 0 0 30 0 0 30 0 0 30 0 0 30 0 0 30 0 0 30 0 0 30 0 0 30 0 0 30 0 0 30 0 0 30 0 0 30 0 0 30 0 0 30 0 0 30 0 0 30 0 0 30 0 0 30 0 0 30 0 0 30 0 0 30 0 0 30 0 0 30 0 0 30 0 0 30 0 0 30 0 0 30 0 0 30 0 0 30 0 0 30 0 0 30 0 0 30 0 0 30 0 0 30 0 0 30 0 0 30 0 0 30 0 0 30 0 0 30 0 0 30 0 0 30 0 0 30 0 0 30 0 0 30 0 0 30 0 0 30 0 0 30 0 0 30 0 0 30 0 0 30 0 0 30 0 0 30 0 0 30 0 0 30 0 0 30 0 0 30 0 0 30 0 0 30 0 0 30 0 0 30 0 0 30 0 0 30 0 0 30 0 0 30 0 0 30 0 0 30 0 0 30 0 0 30 0 0 30 0 0 30 0 0 30 0 0 30 0 0 30 0 0 30 0 0 30 0 0 30 0 0 30 0 0 30 0 0 30 0 0 30 56 0 54 70 0 68 80 0 78 88 0 86 94 0 92 100 0 98 105 0 103 110 0 108 114 0 112 118 0 116 121 0 119 125 0 123 128 0 126 131 0 128 133 0 131 136 0 133 138 0 136 140 0 138 142 0 140 144 0 141 145 0 143 147 0 145 148 0 146 150 0 147 151 0 149 152 0 150 153 0 151 154 0 152 155 0 153 156 0 154 157 0 154 158 1 156 159 2 157 161 3 159 163 5 161 166 7 163 169 11 167 174 15 171 179 21 177 185 27 183 192 34 190 199 42 197 207 49 204 213 57 211 218 62 216 222 67 220 223 68 221 221 68 219 217 64 215 210 58 208 201 51 199 191 42 189 181 33 179 170 24 168 161 17 159 155 11 153 151 6 149 150 3 147 149 1 147 149 0 147 149 0 147 150 0 148 151 0 149 152 0 149 152 0 150 152 0 150 152 0 150 152 0 150 151 0 149 0 0 30 0 0 30 0 0 30 0 0 30 0 0 30 0 0 30 0 0 30 0 0 30 0 0 30 0 0 30 0 0 30 0 0 30 0 0 30 0 0 30 0 0 30 0 0 30 0 0 30 0 0 30 0 0 30 0 0 30 0 0 30 0 0 30 0 0 30 0 0 30 0 0 30 0 0 30 0 0 30 0 0 30 0 0 30 0 0 30 0 0 30 0 0 30 0 0 30 0 0 30 0 0 30 0 0 30 0 0 30 0 0 30 0 0 30 0 0 30 0 0 30 0 0 30 0 0 30 0 0 30 0 0 30 0 0 30 0 0 30 0 0 30 0 0 30 0 0 30 0 0 30 0 0 30 0 0 30 0 0 30 0 0 30 0 0 30 0 0 30 0 0 30 0 0 30 0 0 30 0 0 30 0 0 30 0 0 30 0 0 30 0 0 30 0 0 30 0 0 30 0 0 30 0 0 30 0 0 30 0 0 30 0 0 30 0 0 30 0 0 30 0 0 30 0 0 30 0 0 30 0 0 30 0 0 30 0 0 30 0 0 30 0 0 30 0 0 30 0 0 30 0 0 30 0 0 30 0 0 30 0 0 30 0 0 30 0 0 30 0 0 30 0 0 30 0 0 30 0 0 30 0 0 30 0 0 30 0 0 30 0 0 30 0 0 30 0 0 30 0 0 30 0 0 30 0 0 30 0 0 30 0 0 30 0 0 30 0 0 30 0 0 30 0 0 30 0 0 30 0 0 30 0 0 30 0 0 30 0 0 30 0 0 30 
0 0 30 0 0 30 0 0 30 0 0 30 0 0 30 0 0 30 0 0 30 0 0 30 0 0 30 0 0 30 0 0 30 0 0 30 0 0 30 0 0 30 0 0 30 0 0 30 0 0 30 0 0 30 0 0 30 0 0 30 0 0 30 0 0 30 0 0 30 0 0 30 0 0 30 0 0 30 0 0 30 0 0 30 0 0 30 0 0 30 0 0 30 0 0 30 0 0 30 0 0 30 0 0 30 0 0 30 0 0 30 0 0 30 0 0 30 0 0 30 0 0 30 0 0 30 0 0 30 0 0 30 0 0 30 0 0 30 0 0 30 0 0 30 0 0 30 0 0 30 0 0 30 0 0 30 0 0 30 0 0 30 0 0 30 0 0 30 0 0 30 0 0 30 0 0 30 0 0 30 0 0 30 0 0 30 0 0 30 0 0 30 0 0 30 0 0 30 0 0 30 0 0 30 0 0 30 0 0 30 0 0 30 0 0 30 0 0 30 0 0 30 0 0 30 0 0 30 0 0 30 0 0 30 0 0 30 0 0 30 0 0 30 0 0 30 0 0 30 0 0 30 0 0 30 0 0 30 0 0 30 0 0 30 0 0 30 0 0 30 0 0 30 0 0 30 0 0 30 0 0 30 0 0 30 0 0 30 0 0 30 0 0 30 0 0 30 0 0 30 0 0 30 0 0 30 0 0 30 0 0 30 0 0 30 0 0 30 0 0 30 0 0 30 0 0 30 0 0 30 0 0 30 0 0 30 0 0 30 0 0 30 0 0 30 54 0 52 68 0 66 78 0 76 86 0 84 93 0 91 99 0 97 104 0 102 109 0 107 113 0 111 117 0 115 121 0 119 124 0 122 127 0 125 130 0 128 133 0 131 135 0 133 138 0 135 140 0 138 142 0 140 144 0 141 145 0 143 147 0 145 148 0 146 150 0 148 151 0 149 152 0 150 153 0 151 154 0 152 155 0 153 156 0 154 157 0 155 158 0 156 159 1 157 160 2 158 162 3 160 164 5 162 167 8 165 171 12 169 176 17 174 183 24 181 190 31 188 198 40 196 207 49 205 216 58 214 225 68 223 233 76 231 238 82 236 242 86 239 242 87 239 238 85 236 232 79 230 222 71 220 211 61 209 198 49 196 185 38 183 173 28 171 163 19 160 155 12 152 151 7 149 148 3 146 147 1 145 147 0 145 148 0 146 149 0 146 149 0 147 150 0 148 150 0 148 151 0 149 151 0 149 150 0 148 149 0 147 0 0 30 0 0 30 0 0 30 0 0 30 0 0 30 0 0 30 0 0 30 0 0 30 0 0 30 0 0 30 0 0 30 0 0 30 0 0 30 0 0 30 0 0 30 0 0 30 0 0 30 0 0 30 0 0 30 0 0 30 0 0 30 0 0 30 0 0 30 0 0 30 0 0 30 0 0 30 0 0 30 0 0 30 0 0 30 0 0 30 0 0 30 0 0 30 0 0 30 0 0 30 0 0 30 0 0 30 0 0 30 0 0 30 0 0 30 0 0 30 0 0 30 0 0 30 0 0 30 0 0 30 0 0 30 0 0 30 0 0 30 0 0 30 0 0 30 0 0 30 0 0 30 0 0 30 0 0 30 0 0 30 0 0 30 0 0 30 0 0 30 0 0 30 0 0 30 0 0 30 0 0 30 0 0 30 0 0 30 0 0 30 0 0 30 0 0 30 0 0 30 0 0 30 0 0 30 0 0 30 0 0 30 0 0 30 0 0 30 0 0 30 0 0 30 0 0 30 0 0 30 0 0 30 0 0 30 0 0 30 0 0 30 0 0 30 0 0 30 0 0 30 0 0 30 0 0 30 0 0 30 0 0 30 0 0 30 0 0 30 0 0 30 0 0 30 0 0 30 0 0 30 0 0 30 0 0 30 0 0 30 0 0 30 0 0 30 0 0 30 0 0 30 0 0 30 0 0 30 0 0 30 0 0 30 0 0 30 0 0 30 0 0 30 0 0 30 0 0 30 0 0 30 0 0 30 0 0 30 0 0 30 
0 0 30 0 0 30 0 0 30 0 0 30 0 0 30 0 0 30 0 0 30 0 0 30 0 0 30 0 0 30 0 0 30 0 0 30 0 0 30 0 0 30 0 0 30 0 0 30 0 0 30 0 0 30 0 0 30 0 0 30 0 0 30 0 0 30 0 0 30 0 0 30 0 0 30 0 0 30 0 0 30 0 0 30 0 0 30 0 0 30 0 0 30 0 0 30 0 0 30 0 0 30 0 0 30 0 0 30 0 0 30 0 0 30 0 0 30 0 0 30 0 0 30 0 0 30 0 0 30 0 0 30 0 0 30 0 0 30 0 0 30 0 0 30 0 0 30 0 0 30 0 0 30 0 0 30 0 0 30 0 0 30 0 0 30 0 0 30 0 0 30 0 0 30 0 0 30 0 0 30 0 0 30 0 0 30 0 0 30 0 0 30 0 0 30 0 0 30 0 0 30 0 0 30 0 0 30 0 0 30 0 0 30 0 0 30 0 0 30 0 0 30 0 0 30 0 0 30 0 0 30 0 0 30 0 0 30 0 0 30 0 0 30 0 0 30 0 0 30 0 0 30 0 0 30 0 0 30 0 0 30 0 0 30 0 0 30 0 0 30 0 0 30 0 0 30 0 0 30 0 0 30 0 0 30 0 0 30 0 0 30 0 0 30 0 0 30 0 0 30 0 0 30 0 0 30 0 0 30 0 0 30 0 0 30 0 0 30 0 0 30 0 0 30 0 0 30 0 0 30 0 0 30 0 0 30 0 0 30 0 0 30 50 0 48 66 0 63 76 0 74 85 0 82 92 0 89 98 0 96 103 0 101 108 0 106 112 0 110 116 0 114 120 0 118 123 0 121 127 0 125 130 0 127 132 0 130 135 0 133 137 0 135 139 0 137 141 0 139 143 0 141 145 0 143 147 0 145 148 0 146 150 0 148 151 0 149 152 0 150 153 0 151 154 0 152 155 0 153 156 0 154 157 0 155 158 0 156 159 0 157 160 1 158 161 2 159 163 3 161 165 6 163 169 9 167 173 13 171 178 18 176 185 25 183 193 33 191 202 43 200 212 53 210 223 64 221 234 76 232 244 86 241 252 95 249 255 101 255 255 104 255 255 103 255 252 98 250 243 91 241 231 80 229 217 67 215 202 54 200 187 41 185 174 29 172 162 19 160 153 12 151 149 7 147 147 3 145 146 1 144 146 0 144 146 0 144 147 0 145 148 0 146 148 0 146 149 0 147 149 0 147 149 0 147 148 0 146 146 0 144 0 0 30 0 0 30 0 0 30 0 0 30 0 0 30 0 0 30 0 0 30 0 0 30 0 0 30 0 0 30 0 0 30 0 0 30 0 0 30 0 0 30 0 0 30 0 0 30 0 0 30 0 0 30 0 0 30 0 0 30 0 0 30 0 0 30 0 0 30 0 0 30 0 0 30 0 0 30 0 0 30 0 0 30 0 0 30 0 0 30 0 0 30 0 0 30 0 0 30 0 0 30 0 0 30 0 0 30 0 0 30 0 0 30 0 0 30 0 0 30 0 0 30 0 0 30 0 0 30 0 0 30 0 0 30 0 0 30 0 0 30 0 0 30 0 0 30 0 0 30 0 0 30 0 0 30 0 0 30 0 0 30 0 0 30 0 0 30 0 0 30 0 0 30 0 0 30 0 0 30 0 0 30 0 0 30 0 0 30 0 0 30 0 0 30 0 0 30 0 0 30 0 0 30 0 0 30 0 0 30 0 0 30 0 0 30 0 0 30 0 0 30 0 0 30 0 0 30 0 0 30 0 0 30 0 0 30 0 0 30 0 0 30 0 0 30 0 0 30 0 0 30 0 0 30 0 0 30 0 0 30 0 0 30 0 0 30 0 0 30 0 0 30 0 0 30 0 0 30 0 0 30 0 0 30 0 0 30 0 0 30 0 0 30 0 0 30 0 0 30 0 0 30 0 0 30 0 0 30 0 0 30 0 0 30 0 0 30 0 0 30 0 0 30 0 0 30 0 0 30 0 0 30 0 0 30 0 0 30 
0 0 30 0 0 30 0 0 30 0 0 30 0 0 30 0 0 30 0 0 30 0 0 30 0 0 30 0 0 30 0 0 30 0 0 30 0 0 30 0 0 30 0 0 30 0 0 30 0 0 30 0 0 30 0 0 30 0 0 30 0 0 30 0 0 30 0 0 30 0 0 30 0 0 30 0 0 30 0 0 30 0 0 30 0 0 30 0 0 30 0 0 30 0 0 30 0 0 30 0 0 30 0 0 30 0 0 30 0 0 30 0 0 30 0 0 30 0 0 30 0 0 30 0 0 30 0 0 30 0 0 30 0 0 30 0 0 30 0 0 30 0 0 30 0 0 30 0 0 30 0 0 30 0 0 30 0 0 30 0 0 30 0 0 30 0 0 30 0 0 30 0 0 30 0 0 30 0 0 30 0 0 30 0 0 30 0 0 30 0 0 30 0 0 30 0 0 30 0 0 30 0 0 30 0 0 30 0 0 30 0 0 30 0 0 30 0 0 30 0 0 30 0 0 30 0 0 30 0 0 30 0 0 30 0 0 30 0 0 30 0 0 30 0 0 30 0 0 30 0 0 30 0 0 30 0 0 30 0 0 30 0 0 30 0 0 30 0 0 30 0 0 30 0 0 30 0 0 30 0 0 30 0 0 30 0 0 30 0 0 30 0 0 30 0 0 30 0 0 30 0 0 30 0 0 30 0 0 30 0 0 30 0 0 30 0 0 30 0 0 30 0 0 30 0 0 30 0 0 30 0 0 30 0 0 30 0 0 30 44 0 42 62 0 60 74 0 71 82 0 80 90 0 88 96 0 94 102 0 99 107 0 104 111 0 109 115 0 113 119 0 117 123 0 120 126 0 124 129 0 127 132 0 129 134 0 132 137 0 135 139 0 137 141 0 139 143 0 141 145 0 143 147 0 144 148 0 146 150 0 147 151 0 149 152 0 150 153 0 151 154 0 152 155 0 153 156 0 154 157 0 155 158 0 156 159 0 157 160 0 158 161 1 159 162 2 160 164 3 162 166 5 164 169 8 167 173 13 171 179 18 177 186 25 183 194 33 192 204 43 201 215 55 212 226 67 224 238 79 236 250 91 248 255 102 255 255 110 255 255 115 255 255 117 255 255 114 255 255 107 255 249 97 247 234 84 232 219 70 216 202 55 200 186 41 184 172 28 170 160 19 158 151 11 149 147 6 145 145 3 143 144 1 142 144 0 142 145 0 143 145 0 143 146 0 144 147 0 144 147 0 145 147 0 145 147 0 145 146 0 144 144 0 141 0 0 30 0 0 30 0 0 30 0 0 30 0 0 30 0 0 30 0 0 30 0 0 30 0 0 30 0 0 30 0 0 30 0 0 30 0 0 30 0 0 30 0 0 30 0 0 30 0 0 30 0 0 30 0 0 30 0 0 30 0 0 30 0 0 30 0 0 30 0 0 30 0 0 30 0 0 30 0 0 30 0 0 30 0 0 30 0 0 30 0 0 30 0 0 30 0 0 30 0 0 30 0 0 30 0 0 30 0 0 30 0 0 30 0 0 30 0 0 30 0 0 30 0 0 30 0 0 30 0 0 30 0 0 30 0 0 30 0 0 30 0 0 30 0 0 30 0 0 30 0 0 30 0 0 30 0 0 30 0 0 30 0 0 30 0 0 30 0 0 30 0 0 30 0 0 30 0 0 30 0 0 30 0 0 30 0 0 30 0 0 30 0 0 30 0 0 30 0 0 30 0 0 30 0 0 30 0 0 30 0 0 30 0 0 30 0 0 30 0 0 30 0 0 30 0 0 30 0 0 30 0 0 30 0 0 30 0 0 30 0 0 30 0 0 30 0 0 30 0 0 30 0 0 30 0 0 30 0 0 30 0 0 30 0 0 30 0 0 30 0 0 30 0 0 30 0 0 30 0 0 30 0 0 30 0 0 30 0 0 30 0 0 30 0 0 30 0 0 30 0 0 30 0 0 30 0 0 30 0 0 30 0 0 30 0 0 30 0 0 30 0 0 30 0 0 30 0 0 30 0 0 30 0 0 30 
0 0 30 0 0 30 0 0 30 0 0 30 0 0 30 0 0 30 0 0 30 0 0 30 0 0 30 0 0 30 0 0 30 0 0 30 0 0 30 0 0 30 0 0 30 0 0 30 0 0 30 0 0 30 0 0 30 0 0 30 0 0 30 0 0 30 0 0 30 0 0 30 0 0 30 0 0 30 0 0 30 0 0 30 0 0 30 0 0 30 0 0 30 0 0 30 0 0 30 0 0 30 0 0 30 0 0 30 0 0 30 0 0 30 0 0 30 0 0 30 0 0 30 0 0 30 0 0 30 0 0 30 0 0 30 0 0 30 0 0 30 0 0 30 0 0 30 0 0 30 0 0 30 0 0 30 0 0 30 0 0 30 0 0 30 0 0 30 0 0 30 0 0 30 0 0 30 0 0 30 0 0 30 0 0 30 0 0 30 0 0 30 0 0 30 0 0 30 0 0 30 0 0 30 0 0 30 0 0 30 0 0 30 0 0 30 0 0 30 0 0 30 0 0 30 0 0 30 0 0 30 0 0 30 0 0 30 0 0 30 0 0 30 0 0 30 0 0 30 0 0 30 0 0 30 0 0 30 0 0 30 0 0 30 0 0 30 0 0 30 0 0 30 0 0 30 0 0 30 0 0 30 0 0 30 0 0 30 0 0 30 0 0 30 0 0 30 0 0 30 0 0 30 0 0 30 0 0 30 0 0 30 0 0 30 0 0 30 0 0 30 0 0 30 0 0 30 0 0 30 0 0 30 0 0 30 35 0 33 58 0 56 70 0 68 80 0 78 87 0 85 94 0 92 100 0 98 105 0 103 110 0 107 114 0 112 118 0 116 121 0 119 125 0 123 128 0 126 131 0 129 133 0 131 136 0 134 138 0 136 140 0 138 142 0 140 144 0 142 146 0 144 148 0 146 149 0 147 151 0 149 152 0 150 153 0 151 154 0 152 155 0 153 156 0 154 157 0 155 158 0 156 159 0 157 159 0 157 160 0 158 161 1 159 162 2 160 164 3 162 166 5 164 169 8 167 173 12 171 178 17 176 185 24 183 193 32 191 202 42 200 214 53 211 226 66 224 238 79 236 251 92 249 255 104 255 255 114 255 255 121 255 255 125 255 255 124 255 255 119 255 255 110 255 249 98 247 233 83 231 216 67 213 198 52 196 183 38 180 169 26 166 157 16 155 148 10 146 145 5 143 143 2 141 142 1 140 143 0 140 143 0 141 144 0 142 144 0 142 145 0 143 145 0 143 145 0 143 145 0 143 144 0 142 140 0 138 0 0 30 0 0 30 0 0 30 0 0 30 0 0 30 0 0 30 0 0 30 0 0 30 0 0 30 0 0 30 0 0 30 0 0 30 0 0 30 0 0 30 0 0 30 0 0 30 0 0 30 0 0 30 0 0 30 0 0 30 0 0 30 0 0 30 0 0 30 0 0 30 0 0 30 0 0 30 0 0 30 0 0 30 0 0 30 0 0 30 0 0 30 0 0 30 0 0 30 0 0 30 0 0 30 0 0 30 0 0 30 0 0 30 0 0 30 0 0 30 0 0 30 0 0 30 0 0 30 0 0 30 0 0 30 0 0 30 0 0 30 0 0 30 0 0 30 0 0 30 0 0 30 0 0 30 0 0 30 0 0 30 0 0 30 0 0 30 0 0 30 0 0 30 0 0 30 0 0 30 0 0 30 0 0 30 0 0 30 0 0 30 0 0 30 0 0 30 0 0 30 0 0 30 0 0 30 0 0 30 0 0 30 0 0 30 0 0 30 0 0 30 0 0 30 0 0 30 0 0 30 0 0 30 0 0 30 0 0 30 0 0 30 0 0 30 0 0 30 0 0 30 0 0 30 0 0 30 0 0 30 0 0 30 0 0 30 0 0 30 0 0 30 0 0 30 0 0 30 0 0 30 0 0 30 0 0 30 0 0 30 0 0 30 0 0 30 0 0 30 0 0 30 0 0 30 0 0 30 0 0 30 0 0 30 0 0 30 0 0 30 0 0 30 0 0 30 0 0 30 0 0 30 
0 0 30 0 0 30 0 0 30 0 0 30 0 0 30 0 0 30 0 0 30 0 0 30 0 0 30 0 0 30 0 0 30 0 0 30 0 0 30 0 0 30 0 0 30 0 0 30 0 0 30 0 0 30 0 0 30 0 0 30 0 0 30 0 0 30 0 0 30 0 0 30 0 0 30 0 0 30 0 0 30 0 0 30 0 0 30 0 0 30 0 0 30 0 0 30 0 0 30 0 0 30 0 0 30 0 0 30 0 0 30 0 0 30 0 0 30 0 0 30 0 0 30 0 0 30 0 0 30 0 0 30 0 0 30 0 0 30 0 0 30 0 0 30 0 0 30 0 0 30 0 0 30 0 0 30 0 0 30 0 0 30 0 0 30 0 0 30 0 0 30 0 0 30 0 0 30 0 0 30 0 0 30 0 0 30 0 0 30 0 0 30 0 0 30 0 0 30 0 0 30 0 0 30 0 0 30 0 0 30 0 0 30 0 0 30 0 0 30 0 0 30 0 0 30 0 0 30 0 0 30 0 0 30 0 0 30 0 0 30 0 0 30 0 0 30 0 0 30 0 0 30 0 0 30 0 0 30 0 0 30 0 0 30 0 0 30 0 0 30 0 0 30 0 0 30 0 0 30 0 0 30 0 0 30 0 0 30 0 0 30 0 0 30 0 0 30 0 0 30 0 0 30 0 0 30 0 0 30 0 0 30 0 0 30 0 0 30 0 0 30 0 0 30 0 0 30 0 0 30 0 0 30 0 0 30 53 0 51 67 0 65 77 0 75 85 0 83 92 0 90 98 0 96 103 0 101 108 0 106 112 0 110 116 0 114 120 0 118 124 0 121 127 0 125 130 0 128 133 0 130 135 0 133 137 0 135 140 0 138 142 0 140 144 0 142 146 0 144 147 0 145 149 0 147 150 0 148 152 0 150 153 0 151 154 0 152 155 0 153 156 0 154 157 0 155 158 0 156 159 0 157 159 0 157 160 0 158 161 0 159 162 1 160 163 1 161 164 3 162 166 4 164 169 7 167 172 10 170 177 15 175 183 21 181 190 29 188 199 38 197 210 49 208 222 61 219 234 74 232 247 87 245 255 100 255 255 111 255 255 120 255 255 125 255 255 127 255 255 124 255 255 117 255 255 106 255 243 93 241 226 77 224 208 61 206 192 46 190 176 33 174 163 22 161 153 14 151 145 8 143 142 4 140 141 1 139 140 0 138 141 0 139 141 0 139 142 0 140 143 0 140 143 0 141 143 0 141 143 0 141 143 0 140 141 0 139 0 0 30 0 0 30 0 0 30 0 0 30 0 0 30 0 0 30 0 0 30 0 0 30 0 0 30 0 0 30 0 0 30 0 0 30 0 0 30 0 0 30 0 0 30 0 0 30 0 0 30 0 0 30 0 0 30 0 0 30 0 0 30 0 0 30 0 0 30 0 0 30 0 0 30 0 0 30 0 0 30 0 0 30 0 0 30 0 0 30 0 0 30 0 0 30 0 0 30 0 0 30 0 0 30 0 0 30 0 0 30 0 0 30 0 0 30 0 0 30 0 0 30 0 0 30 0 0 30 0 0 30 0 0 30 0 0 30 0 0 30 0 0 30 0 0 30 0 0 30 0 0 30 0 0 30 0 0 30 0 0 30 0 0 30 0 0 30 0 0 30 0 0 30 0 0 30 0 0 30 0 0 30 0 0 30 0 0 30 0 0 30 0 0 30 0 0 30 0 0 30 0 0 30 0 0 30 0 0 30 0 0 30 0 0 30 0 0 30 0 0 30 0 0 30 0 0 30 0 0 30 0 0 30 0 0 30 0 0 30 0 0 30 0 0 30 0 0 30 0 0 30 0 0 30 0 0 30 0 0 30 0 0 30 0 0 30 0 0 30 0 0 30 0 0 30 0 0 30 0 0 30 0 0 30 0 0 30 0 0 30 0 0 30 0 0 30 0 0 30 0 0 30 0 0 30 0 0 30 0 0 30 0 0 30 0 0 30 0 0 30 0 0 30 0 0 30 0 0 30 0 0 30 
0 0 30 0 0 30 0 0 30 0 0 30 0 0 30 0 0 30 0 0 30 0 0 30 0 0 30 0 0 30 0 0 30 0 0 30 0 0 30 0 0 30 0 0 30 0 0 30 0 0 30 0 0 30 0 0 30 0 0 30 0 0 30 0 0 30 0 0 30 0 0 30 0 0 30 0 0 30 0 0 30 0 0 30 0 0 30 0 0 30 0 0 30 0 0 30 0 0 30 0 0 30 0 0 30 0 0 30 0 0 30 0 0 30 0 0 30 0 0 30 0 0 30 0 0 30 0 0 30 0 0 30 0 0 30 0 0 30 0 0 30 0 0 30 0 0 30 0 0 30 0 0 30 0 0 30 0 0 30 0 0 30 0 0 30 0 0 30 0 0 30 0 0 30 0 0 30 0 0 30 0 0 30 0 0 30 0 0 30 0 0 30 0 0 30 0 0 30 0 0 30 0 0 30 0 0 30 0 0 30 0 0 30 0 0 30 0 0 30 0 0 30 0 0 30 0 0 30 0 0 30 0 0 30 0 0 30 0 0 30 0 0 30 0 0 30 0 0 30 0 0 30 0 0 30 0 0 30 0 0 30 0 0 30 0 0 30 0 0 30 0 0 30 0 0 30 0 0 30 0 0 30 0 0 30 0 0 30 0 0 30 0 0 30 0 0 30 0 0 30 0 0 30 0 0 30 0 0 30 0 0 30 0 0 30 0 0 30 0 0 30 0 0 30 0 0 30 0 0 30 0 0 30 46 0 44 62 0 60 73 0 71 82 0 80 89 0 87 95 0 93 101 0 99 106 0 104 111 0 108 115 0 113 119 0 116 122 0 120 125 0 123 129 0 126 131 0 129 134 0 132 137 0 134 139 0 137 141 0 139 143 0 141 145 0 143 147 0 145 148 0 146 150 0 148 151 0 149 153 0 151 154 0 152 155 0 153 156 0 154 157 0 155 158 0 156 159 0 156 159 0 157 160 0 158 161 0 158 161 0 159 162 0 160 163 1 161 164 2 162 166 3 164 168 6 166 171 9 169 175 13 173 180 18 178 187 25 184 195 33 193 204 43 202 215 54 213 227 66 225 239 79 237 251 92 249 255 103 255 255 113 255 255 120 255 255 123 255 255 122 255 255 118 255 255 109 255 248 97 245 232 83 230 215 68 213 198 53 196 183 39 181 169 27 167 157 17 155 148 10 146 141 6 139 139 3 137 139 1 136 139 0 136 139 0 137 140 0 137 140 0 138 141 0 139 141 0 139 141 0 139 141 0 139 140 0 138 138 0 136 0 0 30 0 0 30 0 0 30 0 0 30 0 0 30 0 0 30 0 0 30 0 0 30 0 0 30 0 0 30 0 0 30 0 0 30 0 0 30 0 0 30 0 0 30 0 0 30 0 0 30 0 0 30 0 0 30 0 0 30 0 0 30 0 0 30 0 0 30 0 0 30 0 0 30 0 0 30 0 0 30 0 0 30 0 0 30 0 0 30 0 0 30 0 0 30 0 0 30 0 0 30 0 0 30 0 0 30 0 0 30 0 0 30 0 0 30 0 0 30 0 0 30 0 0 30 0 0 30 0 0 30 0 0 30 0 0 30 0 0 30 0 0 30 0 0 30 0 0 30 0 0 30 0 0 30 0 0 30 0 0 30 0 0 30 0 0 30 0 0 30 0 0 30 0 0 30 0 0 30 0 0 30 0 0 30 0 0 30 0 0 30 0 0 30 0 0 30 0 0 30 0 0 30 0 0 30 0 0 30 0 0 30 0 0 30 0 0 30 0 0 30 0 0 30 0 0 30 0 0 30 0 0 30 0 0 30 0 0 30 0 0 30 0 0 30 0 0 30 0 0 30 0 0 30 0 0 30 0 0 30 0 0 30 0 0 30 0 0 30 0 0 30 0 0 30 0 0 30 0 0 30 0 0 30 0 0 30 0 0 30 0 0 30 0 0 30 0 0 30 0 0 30 0 0 30 0 0 30 0 0 30 0 0 30 0 0 30 0 0 30 0 0 30 0 0 30 0 0 30 
0 0 30 0 0 30 0 0 30 0 0 30 0 0 30 0 0 30 0 0 30 0 0 30 0 0 30 0 0 30 0 0 30 0 0 30 0 0 30 0 0 30 0 0 30 0 0 30 0 0 30 0 0 30 0 0 30 0 0 30 0 0 30 0 0 30 0 0 30 0 0 30 0 0 30 0 0 30 0 0 30 0 0 30 0 0 30 0 0 30 0 0 30 0 0 30 0 0 30 0 0 30 0 0 30 0 0 30 0 0 30 0 0 30 0 0 30 0 0 30 0 0 30 0 0 30 0 0 30 0 0 30 0 0 30 0 0 30 0 0 30 0 0 30 0 0 30 0 0 30 0 0 30 0 0 30 0 0 30 0 0 30 0 0 30 0 0 30 0 0 30 0 0 30 0 0 30 0 0 30 0 0 30 0 0 30 0 0 30 0 0 30 0 0 30 0 0 30 0 0 30 0 0 30 0 0 30 0 0 30 0 0 30 0 0 30 0 0 30 0 0 30 0 0 30 0 0 30 0 0 30 0 0 30 0 0 30 0 0 30 0 0 30 0 0 30 0 0 30 0 0 30 0 0 30 0 0 30 0 0 30 0 0 30 0 0 30 0 0 30 0 0 30 0 0 30 0 0 30 0 0 30 0 0 30 0 0 30 0 0 30 0 0 30 0 0 30 0 0 30 0 0 30 0 0 30 0 0 30 0 0 30 0 0 30 0 0 30 0 0 30 0 0 30 0 0 30 0 0 30 42 0 40 57 0 55 69 0 67 78 0 76 86 0 84 93 0 90 98 0 96 104 0 102 109 0 106 113 0 111 117 0 115 121 0 118 124 0 122 127 0 125 130 0 128 133 0 131 135 0 133 138 0 136 140 0 138 142 0 140 144 0 142 146 0 144 148 0 146 149 0 147 151 0 149 152 0 150 153 0 151 155 0 152 156 0 154 157 0 155 158 0 155 158 0 156 159 0 157 160 0 158 160 0 158 161 0 159 162 0 160 162 0 160 163 1 161 164 1 162 165 3 163 167 4 165 169 7 167 173 10 171 177 15 175 182 20 180 189 27 187 197 36 195 207 46 205 217 57 215 228 69 226 240 80 238 250 92 248 255 101 255 255 109 255 255 114 255 255 115 255 255 112 255 255 106 255 247 96 245 233 84 231 218 70 216 202 56 200 187 43 185 173 31 171 161 21 159 151 13 149 143 7 141 138 4 136 137 1 134 136 0 134 137 0 135 137 0 135 138 0 136 138 0 136 139 0 137 139 0 137 139 0 137 139 0 136 137 0 135 134 0 132 0 0 30 0 0 30 0 0 30 0 0 30 0 0 30 0 0 30 0 0 30 0 0 30 0 0 30 0 0 30 0 0 30 0 0 30 0 0 30 0 0 30 0 0 30 0 0 30 0 0 30 0 0 30 0 0 30 0 0 30 0 0 30 0 0 30 0 0 30 0 0 30 0 0 30 0 0 30 0 0 30 0 0 30 0 0 30 0 0 30 0 0 30 0 0 30 0 0 30 0 0 30 0 0 30 0 0 30 0 0 30 0 0 30 0 0 30 0 0 30 0 0 30 0 0 30 0 0 30 0 0 30 0 0 30 0 0 30 0 0 30 0 0 30 0 0 30 0 0 30 0 0 30 0 0 30 0 0 30 0 0 30 0 0 30 0 0 30 0 0 30 0 0 30 0 0 30 0 0 30 0 0 30 0 0 30 0 0 30 0 0 30 0 0 30 0 0 30 0 0 30 0 0 30 0 0 30 0 0 30 0 0 30 0 0 30 0 0 30 0 0 30 0 0 30 0 0 30 0 0 30 0 0 30 0 0 30 0 0 30 0 0 30 0 0 30 0 0 30 0 0 30 0 0 30 0 0 30 0 0 30 0 0 30 0 0 30 0 0 30 0 0 30 0 0 30 0 0 30 0 0 30 0 0 30 0 0 30 0 0 30 0 0 30 0 0 30 0 0 30 0 0 30 0 0 30 0 0 30 0 0 30 0 0 30 0 0 30 0 0 30 0 0 30 0 0 30 
0 0 30 0 0 30 0 0 30 0 0 30 0 0 30 0 0 30 0 0 30 0 0 30 0 0 30 0 0 30 0 0 30 0 0 30 0 0 30 0 0 30 0 0 30 0 0 30 0 0 30 0 0 30 0 0 30 0 0 30 0 0 30 0 0 30 0 0 30 0 0 30 0 0 30 0 0 30 0 0 30 0 0 30 0 0 30 0 0 30 0 0 30 0 0 30 0 0 30 0 0 30 0 0 30 0 0 30 0 0 30 0 0 30 0 0 30 0 0 30 0 0 30 0 0 30 0 0 30 0 0 30 0 0 30 0 0 30 0 0 30 0 0 30 0 0 30 0 0 30 0 0 30 0 0 30 0 0 30 0 0 30 0 0 30 0 0 30 0 0 30 0 0 30 0 0 30 0 0 30 0 0 30 0 0 30 0 0 30 0 0 30 0 0 30 0 0 30 0 0 30 0 0 30 0 0 30 0 0 30 0 0 30 0 0 30 0 0 30 0 0 30 0 0 30 0 0 30 0 0 30 0 0 30 0 0 30 0 0 30 0 0 30 0 0 30 0 0 30 0 0 30 0 0 30 0 0 30 0 0 30 0 0 30 0 0 30 0 0 30 0 0 30 0 0 30 0 0 30 0 0 30 0 0 30 0 0 30 0 0 30 0 0 30 0 0 30 0 0 30 0 0 30 0 0 30 0 0 30 0 0 30 0 0 30 0 0 30 0 0 30 0 0 30 0 0 30 0 0 30 54 0 52 64 0 62 74 0 72 83 0 80 90 0 87 96 0 94 101 0 99 106 0 104 111 0 109 115 0 113 119 0 117 122 0 120 126 0 124 129 0 127 132 0 129 134 0 132 137 0 135 139 0 137 141 0 139 143 0 141 145 0 143 147 0 145 149 0 146 150 0 148 152 0 149 153 0 151 154 0 152 155 0 153 156 0 154 157 0 155 158 0 156 159 0 157 160 0 158 160 0 158 161 0 159 161 0 159 162 0 160 162 0 160 163 0 161 164 1 162 165 2 163 166 3 164 168 5 166 171 8 168 174 11 172 178 16 176 184 22 182 190 29 188 198 37 196 207 47 205 217 57 215 227 67 225 236 78 234 245 87 243 252 95 249 255 100 254 255 102 255 255 102 253 250 97 248 241 90 239 230 80 228 217 69 215 203 56 201 188 44 186 175 32 173 163 23 161 153 15 151 145 9 143 138 5 136 135 2 133 134 1 132 134 0 132 135 0 133 135 0 133 136 0 134 136 0 134 137 0 135 137 0 135 137 0 135 136 0 134 134 0 132 0 0 30 0 0 30 0 0 30 0 0 30 0 0 30 0 0 30 0 0 30 0 0 30 0 0 30 0 0 30 0 0 30 0 0 30 0 0 30 0 0 30 0 0 30 0 0 30 0 0 30 0 0 30 0 0 30 0 0 30 0 0 30 0 0 30 0 0 30 0 0 30 0 0 30 0 0 30 0 0 30 0 0 30 0 0 30 0 0 30 0 0 30 0 0 30 0 0 30 0 0 30 0 0 30 0 0 30 0 0 30 0 0 30 0 0 30 0 0 30 0 0 30 0 0 30 0 0 30 0 0 30 0 0 30 0 0 30 0 0 30 0 0 30 0 0 30 0 0 30 0 0 30 0 0 30 0 0 30 0 0 30 0 0 30 0 0 30 0 0 30 0 0 30 0 0 30 0 0 30 0 0 30 0 0 30 0 0 30 0 0 30 0 0 30 0 0 30 0 0 30 0 0 30 0 0 30 0 0 30 0 0 30 0 0 30 0 0 30 0 0 30 0 0 30 0 0 30 0 0 30 0 0 30 0 0 30 0 0 30 0 0 30 0 0 30 0 0 30 0 0 30 0 0 30 0 0 30 0 0 30 0 0 30 0 0 30 0 0 30 0 0 30 0 0 30 0 0 30 0 0 30 0 0 30 0 0 30 0 0 30 0 0 30 0 0 30 0 0 30 0 0 30 0 0 30 0 0 30 0 0 30 0 0 30 0 0 30 0 0 30 0 0 30 0 0 30 
0 0 30 0 0 30 0 0 30 0 0 30 0 0 30 0 0 30 0 0 30 0 0 30 0 0 30 0 0 30 0 0 30 0 0 30 0 0 30 0 0 30 0 0 30 0 0 30 0 0 30 0 0 30 0 0 30 0 0 30 0 0 30 0 0 30 0 0 30 0 0 30 0 0 30 0 0 30 0 0 30 0 0 30 0 0 30 0 0 30 0 0 30 0 0 30 0 0 30 0 0 30 0 0 30 0 0 30 0 0 30 0 0 30 0 0 30 0 0 30 0 0 30 0 0 30 0 0 30 0 0 30 0 0 30 0 0 30 0 0 30 0 0 30 0 0 30 0 0 30 0 0 30 0 0 30 0 0 30 0 0 30 0 0 30 0 0 30 0 0 30 0 0 30 0 0 30 0 0 30 0 0 30 0 0 30 0 0 30 0 0 30 0 0 30 0 0 30 0 0 30 0 0 30 0 0 30 0 0 30 0 0 30 0 0 30 0 0 30 0 0 30 0 0 30 0 0 30 0 0 30 0 0 30 0 0 30 0 0 30 0 0 30 0 0 30 0 0 30 0 0 30 0 0 30 0 0 30 0 0 30 0 0 30 0 0 30 0 0 30 0 0 30 0 0 30 0 0 30 0 0 30 0 0 30 0 0 30 0 0 30 0 0 30 0 0 30 0 0 30 0 0 30 0 0 30 0 0 30 0 0 30 0 0 30 0 0 30 0 0 30 0 0 30 0 0 30 51 0 49 62 0 60 70 0 67 79 0 77 86 0 84 93 0 91 99 0 96 104 0 102 109 0 106 113 0 111 117 0 115 121 0 118 124 0 122 127 0 125 130 0 128 133 0 131 135 0 133 138 0 136 140 0 138 142 0 140 144 0 142 146 0 144 148 0 146 149 0 147 151 0 149 152 0 150 154 0 151 155 0 153 156 0 154 157 0 155 158 0 156 159 0 156 159 0 157 160 0 158 161 0 159 161 0 159 162 0 160 162 0 160 163 0 160 163 0 161 164 1 161 164 1 162 165 2 163 167 4 165 169 6 166 171 8 169 174 12 172 179 16 176 184 22 182 190 29 188 197 36 195 205 45 203 213 54 211 222 63 219 229 71 227 236 79 233 240 84 238 242 87 240 242 88 240 238 86 236 232 81 230 223 73 221 212 64 210 200 53 198 187 43 185 175 32 173 164 23 162 154 16 152 146 10 144 140 6 137 134 3 132 132 1 130 132 0 130 132 0 130 133 0 131 133 0 131 134 0 132 134 0 132 135 0 132 135 0 132 134 0 132 133 0 131 131 0 129 0 0 30 0 0 30 0 0 30 0 0 30 0 0 30 0 0 30 0 0 30 0 0 30 0 0 30 0 0 30 0 0 30 0 0 30 0 0 30 0 0 30 0 0 30 0 0 30 0 0 30 0 0 30 0 0 30 0 0 30 0 0 30 0 0 30 0 0 30 0 0 30 0 0 30 0 0 30 0 0 30 0 0 30 0 0 30 0 0 30 0 0 30 0 0 30 0 0 30 0 0 30 0 0 30 0 0 30 0 0 30 0 0 30 0 0 30 0 0 30 0 0 30 0 0 30 0 0 30 0 0 30 0 0 30 0 0 30 0 0 30 0 0 30 0 0 30 0 0 30 0 0 30 0 0 30 0 0 30 0 0 30 0 0 30 0 0 30 0 0 30 0 0 30 0 0 30 0 0 30 0 0 30 0 0 30 0 0 30 0 0 30 0 0 30 0 0 30 0 0 30 0 0 30 0 0 30 0 0 30 0 0 30 0 0 30 0 0 30 0 0 30 0 0 30 0 0 30 0 0 30 0 0 30 0 0 30 0 0 30 0 0 30 0 0 30 0 0 30 0 0 30 0 0 30 0 0 30 0 0 30 0 0 30 0 0 30 0 0 30 0 0 30 0 0 30 0 0 30 0 0 30 0 0 30 0 0 30 0 0 30 0 0 30 0 0 30 0 0 30 0 0 30 0 0 30 0 0 30 0 0 30 0 0 30 0 0 30 0 0 30 0 0 30 
0 0 30 0 0 30 0 0 30 0 0 30 0 0 30 0 0 30 0 0 30 0 0 30 0 0 30 0 0 30 0 0 30 0 0 30 0 0 30 0 0 30 0 0 30 0 0 30 0 0 30 0 0 30 0 0 30 0 0 30 0 0 30 0 0 30 0 0 30 0 0 30 0 0 30 0 0 30 0 0 30 0 0 30 0 0 30 0 0 30 0 0 30 0 0 30 0 0 30 0 0 30 0 0 30 0 0 30 0 0 30 0 0 30 0 0 30 0 0 30 0 0 30 0 0 30 0 0 30 0 0 30 0 0 30 0 0 30 0 0 30 0 0 30 0 0 30 0 0 30 0 0 30 0 0 30 0 0 30 0 0 30 0 0 30 0 0 30 0 0 30 0 0 30 0 0 30 0 0 30 0 0 30 0 0 30 0 0 30 0 0 30 0 0 30 0 0 30 0 0 30 0 0 30 0 0 30 0 0 30 0 0 30 0 0 30 0 0 30 0 0 30 0 0 30 0 0 30 0 0 30 0 0 30 0 0 30 0 0 30 0 0 30 0 0 30 0 0 30 0 0 30 0 0 30 0 0 30 0 0 30 0 0 30 0 0 30 0 0 30 0 0 30 0 0 30 0 0 30 0 0 30 0 0 30 0 0 30 0 0 30 0 0 30 0 0 30 0 0 30 0 0 30 0 0 30 0 0 30 0 0 30 0 0 30 0 0 30 0 0 30 0 0 30 42 0 39 60 0 58 69 0 66 74 0 72 82 0 80 89 0 87 96 0 93 101 0 99 106 0 104 111 0 108 115 0 113 119 0 116 122 0 120 125 0 123 128 0 126 131 0 129 134 0 132 137 0 134 139 0 137 141 0 139 143 0 141 145 0 143 147 0 145 148 0 146 150 0 148 152 0 149 153 0 151 154 0 152 155 0 153 156 0 154 157 0 155 158 0 156 159 0 157 160 0 158 160 0 158 161 0 159 161 0 159 162 0 160 162 0 160 163 0 161 163 0 161 163 0 161 164 1 162 165 1 163 166 2 163 167 4 165 169 6 167 171 8 169 174 12 172 178 16 176 183 21 181 188 27 186 194 34 192 201 41 199 208 49 205 214 56 212 220 63 217 224 68 222 226 71 224 227 73 224 224 72 222 220 69 218 213 64 211 205 56 202 195 48 193 184 39 182 174 31 171 163 23 161 154 16 152 147 10 145 140 6 138 135 3 133 130 1 128 130 0 127 130 0 128 130 0 128 131 0 129 131 0 129 132 0 130 132 0 130 132 0 130 132 0 130 132 0 129 130 0 128 125 0 123 0 0 30 0 0 30 0 0 30 0 0 30 0 0 30 0 0 30 0 0 30 0 0 30 0 0 30 0 0 30 0 0 30 0 0 30 0 0 30 0 0 30 0 0 30 0 0 30 0 0 30 0 0 30 0 0 30 0 0 30 0 0 30 0 0 30 0 0 30 0 0 30 0 0 30 0 0 30 0 0 30 0 0 30 0 0 30 0 0 30 0 0 30 0 0 30 0 0 30 0 0 30 0 0 30 0 0 30 0 0 30 0 0 30 0 0 30 0 0 30 0 0 30 0 0 30 0 0 30 0 0 30 0 0 30 0 0 30 0 0 30 0 0 30 0 0 30 0 0 30 0 0 30 0 0 30 0 0 30 0 0 30 0 0 30 0 0 30 0 0 30 0 0 30 0 0 30 0 0 30 0 0 30 0 0 30 0 0 30 0 0 30 0 0 30 0 0 30 0 0 30 0 0 30 0 0 30 0 0 30 0 0 30 0 0 30 0 0 30 0 0 30 0 0 30 0 0 30 0 0 30 0 0 30 0 0 30 0 0 30 0 0 30 0 0 30 0 0 30 0 0 30 0 0 30 0 0 30 0 0 30 0 0 30 0 0 30 0 0 30 0 0 30 0 0 30 0 0 30 0 0 30 0 0 30 0 0 30 0 0 30 0 0 30 0 0 30 0 0 30 0 0 30 0 0 30 0 0 30 0 0 30 0 0 30 0 0 30 0 0 30 
0 0 30 0 0 30 0 0 30 0 0 30 0 0 30 0 0 30 0 0 30 0 0 30 0 0 30 0 0 30 0 0 30 0 0 30 0 0 30 0 0 30 0 0 30 0 0 30 0 0 30 0 0 30 0 0 30 0 0 30 0 0 30 0 0 30 0 0 30 0 0 30 0 0 30 0 0 30 0 0 30 0 0 30 0 0 30 0 0 30 0 0 30 0 0 30 0 0 30 0 0 30 0 0 30 0 0 30 0 0 30 0 0 30 0 0 30 0 0 30 0 0 30 0 0 30 0 0 30 0 0 30 0 0 30 0 0 30 0 0 30 0 0 30 0 0 30 0 0 30 0 0 30 0 0 30 0 0 30 0 0 30 0 0 30 0 0 30 0 0 30 0 0 30 0 0 30 0 0 30 0 0 30 0 0 30 0 0 30 0 0 30 0 0 30 0 0 30 0 0 30 0 0 30 0 0 30 0 0 30 0 0 30 0 0 30 0 0 30 0 0 30 0 0 30 0 0 30 0 0 30 0 0 30 0 0 30 0 0 30 0 0 30 0 0 30 0 0 30 0 0 30 0 0 30 0 0 30 0 0 30 0 0 30 0 0 30 0 0 30 0 0 30 0 0 30 0 0 30 0 0 30 0 0 30 0 0 30 0 0 30 0 0 30 0 0 30 0 0 30 0 0 30 0 0 30 0 0 30 0 0 30 0 0 30 0 0 30 0 0 30 0 0 30 57 0 55 67 0 65 74 0 72 79 0 77 86 0 83 92 0 90 98 0 96 103 0 101 108 0 106 112 0 110 116 0 114 120 0 118 123 0 121 127 0 125 130 0 128 132 0 130 135 0 133 137 0 135 140 0 138 142 0 140 144 0 142 146 0 144 147 0 145 149 0 147 151 0 149 152 0 150 153 0 151 155 0 152 156 0 154 157 0 155 158 0 156 158 0 156 159 0 157 160 0 158 161 0 158 161 0 159 162 0 159 162 0 160 162 0 160 163 0 161 163 0 161 163 0 161 164 0 161 164 1 162 165 1 163 165 2 163 167 4 165 168 6 166 170 8 168 173 11 171 176 15 174 180 20 178 185 25 183 190 30 188 195 36 193 200 42 198 205 48 202 208 52 206 211 56 209 211 58 209 210 58 208 207 56 205 202 53 200 196 48 194 188 41 186 179 34 177 170 27 168 162 21 159 154 15 151 146 10 144 140 6 138 135 3 133 131 2 129 127 0 125 127 0 125 128 0 126 128 0 126 129 0 127 129 0 127 130 0 128 130 0 128 130 0 128 130 0 127 129 0 127 126 0 124 0 0 30 0 0 30 0 0 30 0 0 30 0 0 30 0 0 30 0 0 30 0 0 30 0 0 30 0 0 30 0 0 30 0 0 30 0 0 30 0 0 30 0 0 30 0 0 30 0 0 30 0 0 30 0 0 30 0 0 30 0 0 30 0 0 30 0 0 30 0 0 30 0 0 30 0 0 30 0 0 30 0 0 30 0 0 30 0 0 30 0 0 30 0 0 30 0 0 30 0 0 30 0 0 30 0 0 30 0 0 30 0 0 30 0 0 30 0 0 30 0 0 30 0 0 30 0 0 30 0 0 30 0 0 30 0 0 30 0 0 30 0 0 30 0 0 30 0 0 30 0 0 30 0 0 30 0 0 30 0 0 30 0 0 30 0 0 30 0 0 30 0 0 30 0 0 30 0 0 30 0 0 30 0 0 30 0 0 30 0 0 30 0 0 30 0 0 30 0 0 30 0 0 30 0 0 30 0 0 30 0 0 30 0 0 30 0 0 30 0 0 30 0 0 30 0 0 30 0 0 30 0 0 30 0 0 30 0 0 30 0 0 30 0 0 30 0 0 30 0 0 30 0 0 30 0 0 30 0 0 30 0 0 30 0 0 30 0 0 30 0 0 30 0 0 30 0 0 30 0 0 30 0 0 30 0 0 30 0 0 30 0 0 30 0 0 30 0 0 30 0 0 30 0 0 30 0 0 30 0 0 30 0 0 30 0 0 30 0 0 30 
0 0 30 0 0 30 0 0 30 0 0 30 0 0 30 0 0 30 0 0 30 0 0 30 0 0 30 0 0 30 0 0 30 0 0 30 0 0 30 0 0 30 0 0 30 0 0 30 0 0 30 0 0 30 0 0 30 0 0 30 0 0 30 0 0 30 0 0 30 0 0 30 0 0 30 0 0 30 0 0 30 0 0 30 0 0 30 0 0 30 0 0 30 0 0 30 0 0 30 0 0 30 0 0 30 0 0 30 0 0 30 0 0 30 0 0 30 0 0 30 0 0 30 0 0 30 0 0 30 0 0 30 0 0 30 0 0 30 0 0 30 0 0 30 0 0 30 0 0 30 0 0 30 0 0 30 0 0 30 0 0 30 0 0 30 0 0 30 0 0 30 0 0 30 0 0 30 0 0 30 0 0 30 0 0 30 0 0 30 0 0 30 0 0 30 0 0 30 0 0 30 0 0 30 0 0 30 0 0 30 0 0 30 0 0 30 0 0 30 0 0 30 0 0 30 0 0 30 0 0 30 0 0 30 0 0 30 0 0 30 0 0 30 0 0 30 0 0 30 0 0 30 0 0 30 0 0 30 0 0 30 0 0 30 0 0 30 0 0 30 0 0 30 0 0 30 0 0 30 0 0 30 0 0 30 0 0 30 0 0 30 0 0 30 0 0 30 0 0 30 0 0 30 0 0 30 0 0 30 0 0 30 0 0 30 0 0 30 0 0 30 48 0 46 65 0 63 73 0 71 79 0 77 84 0 82 88 0 86 95 0 92 100 0 98 105 0 103 110 0 108 114 0 112 118 0 116 121 0 119 125 0 123 128 0 126 131 0 129 133 0 131 136 0 134 138 0 136 141 0 138 143 0 140 145 0 142 146 0 144 148 0 146 150 0 148 151 0 149 152 0 150 154 0 152 155 0 153 156 0 154 157 0 155 158 0 156 159 0 157 159 0 157 160 0 158 161 0 159 161 0 159 162 0 160 162 0 160 162 0 160 163 0 161 163 0 161 163 0 161 163 0 161 164 0 161 164 1 162 164 1 162 165 2 163 166 4 164 167 5 165 169 8 167 171 10 169 174 14 172 177 17 175 181 22 179 185 26 182 188 31 186 192 35 190 195 39 192 197 42 194 197 44 195 197 45 195 195 44 193 191 42 189 186 38 184 180 34 178 173 29 171 166 23 164 159 18 157 152 13 150 146 9 143 140 6 138 135 3 133 131 2 129 127 1 125 125 0 123 125 0 123 126 0 124 126 0 124 127 0 125 127 0 125 128 0 125 128 0 126 127 0 125 127 0 125 125 0 123 121 0 119 1 1 31 1 1 31 1 1 31 1 1 31 1 1 31 1 1 31 1 1 31 1 1 31 1 1 31 1 1 31 1 1 31 1 1 31 1 1 31 1 1 31 1 1 31 1 1 31 1 1 31 1 1 31 1 1 31 1 1 31 1 1 31 1 1 31 1 1 31 1 1 31 1 1 31 1 1 31 1 1 31 1 1 31 1 1 31 1 1 31 1 1 31 1 1 31 1 1 31 1 1 31 1 1 31 0 0 30 0 0 30 0 0 30 0 0 30 0 0 30 0 0 30 0 0 30 0 0 30 0 0 30 0 0 30 0 0 30 0 0 30 0 0 30 0 0 30 0 0 30 0 0 30 0 0 30 0 0 30 0 0 30 0 0 30 0 0 30 0 0 30 0 0 30 0 0 30 0 0 30 0 0 30 0 0 30 0 0 30 0 0 30 0 0 30 0 0 30 0 0 30 0 0 30 0 0 30 0 0 30 0 0 30 0 0 30 0 0 30 0 0 30 0 0 30 0 0 30 0 0 30 0 0 30 0 0 30 0 0 30 0 0 30 0 0 30 0 0 30 0 0 30 0 0 30 0 0 30 0 0 30 0 0 30 0 0 30 0 0 30 0 0 30 0 0 30 0 0 30 0 0 30 0 0 30 0 0 30 0 0 30 0 0 30 0 0 30 0 0 30 0 0 30 0 0 30 0 0 30 0 0 30 0 0 30 0 0 30 
0 0 30 0 0 30 0 0 30 0 0 30 0 0 30 0 0 30 0 0 30 0 0 30 0 0 30 0 0 30 0 0 30 0 0 30 0 0 30 0 0 30 0 0 30 0 0 30 0 0 30 0 0 30 0 0 30 0 0 30 0 0 30 0 0 30 0 0 30 0 0 30 0 0 30 0 0 30 0 0 30 0 0 30 0 0 30 0 0 30 0 0 30 0 0 30 0 0 30 0 0 30 0 0 30 0 0 30 0 0 30 0 0 30 0 0 30 0 0 30 0 0 30 0 0 30 0 0 30 0 0 30 0 0 30 0 0 30 0 0 30 0 0 30 0 0 30 0 0 30 0 0 30 0 0 30 0 0 30 0 0 30 0 0 30 0 0 30 0 0 30 0 0 30 0 0 30 0 0 30 0 0 30 0 0 30 0 0 30 0 0 30 0 0 30 0 0 30 0 0 30 0 0 30 0 0 30 0 0 30 0 0 30 0 0 30 0 0 30 0 0 30 0 0 30 0 0 30 0 0 30 0 0 30 0 0 30 0 0 30 0 0 30 0 0 30 0 0 30 0 0 30 0 0 30 0 0 30 0 0 30 0 0 30 0 0 30 0 0 30 0 0 30 0 0 30 0 0 30 0 0 30 0 0 30 0 0 30 0 0 30 0 0 30 0 0 30 0 0 30 0 0 30 0 0 30 0 0 30 0 0 30 0 0 30 0 0 30 0 0 30 61 0 59 72 0 70 79 0 76 84 0 82 88 0 86 91 0 89 97 0 95 102 0 100 107 0 105 111 0 109 115 0 113 119 0 117 123 0 120 126 0 124 129 0 127 132 0 130 134 0 132 137 0 135 139 0 137 141 0 139 143 0 141 145 0 143 147 0 145 149 0 146 150 0 148 152 0 149 153 0 151 154 0 152 155 0 153 156 0 154 157 0 155 158 0 156 159 0 157 160 0 158 160 0 158 161 0 159 161 0 159 162 0 160 162 0 160 162 0 160 163 0 161 163 0 161 163 0 161 163 0 161 163 0 161 163 0 161 164 1 161 164 1 162 164 2 162 165 3 163 166 5 164 168 7 165 169 9 167 171 12 169 174 15 171 176 18 174 179 21 177 181 25 179 183 28 181 185 30 182 185 32 183 185 33 183 184 33 181 181 32 179 177 30 175 173 27 170 167 23 165 161 19 159 155 15 153 150 11 148 144 8 142 139 5 137 135 3 133 131 2 129 127 1 125 123 0 121 123 0 121 123 0 121 124 0 122 124 0 122 125 0 123 125 0 123 125 0 123 125 0 123 125 0 123 124 0 122 122 0 119 1 1 31 1 1 31 1 1 31 1 1 31 1 1 31 1 1 31 1 1 31 1 1 31 1 1 31 1 1 31 1 1 31 1 1 31 1 1 31 1 1 31 1 1 31 1 1 31 1 1 31 1 1 31 1 1 31 1 1 31 1 1 31 1 1 31 1 1 31 1 1 31 1 1 31 1 1 31 1 1 31 1 1 31 1 1 31 1 1 31 1 1 31 1 1 31 1 1 31 1 1 31 1 1 31 1 1 31 1 1 31 1 1 31 1 1 31 1 1 31 1 1 31 1 1 31 1 1 31 1 1 31 1 1 31 1 1 31 1 1 31 1 1 31 1 1 31 1 1 31 0 0 30 0 0 30 0 0 30 0 0 30 0 0 30 0 0 30 0 0 30 0 0 30 0 0 30 0 0 30 0 0 30 0 0 30 0 0 30 0 0 30 0 0 30 0 0 30 0 0 30 0 0 30 0 0 30 0 0 30 0 0 30 0 0 30 0 0 30 0 0 30 0 0 30 0 0 30 0 0 30 0 0 30 0 0 30 0 0 30 0 0 30 0 0 30 0 0 30 0 0 30 0 0 30 0 0 30 0 0 30 0 0 30 0 0 30 0 0 30 0 0 30 0 0 30 0 0 30 0 0 30 0 0 30 0 0 30 0 0 30 0 0 30 0 0 30 0 0 30 0 0 30 0 0 30 0 0 30 0 0 30 0 0 30 0 0 30 
0 0 30 0 0 30 0 0 30 0 0 30 0 0 30 0 0 30 0 0 30 0 0 30 0 0 30 0 0 30 0 0 30 0 0 30 0 0 30 0 0 30 0 0 30 0 0 30 0 0 30 0 0 30 0 0 30 0 0 30 0 0 30 0 0 30 0 0 30 0 0 30 0 0 30 0 0 30 0 0 30 0 0 30 0 0 30 0 0 30 0 0 30 0 0 30 0 0 30 0 0 30 0 0 30 0 0 30 0 0 30 0 0 30 0 0 30 0 0 30 0 0 30 0 0 30 0 0 30 0 0 30 0 0 30 0 0 30 0 0 30 0 0 30 0 0 30 0 0 30 0 0 30 0 0 30 0 0 30 0 0 30 0 0 30 0 0 30 0 0 30 0 0 30 0 0 30 0 0 30 0 0 30 0 0 30 0 0 30 0 0 30 0 0 30 0 0 30 0 0 30 0 0 30 0 0 30 0 0 30 0 0 30 0 0 30 0 0 30 0 0 30 0 0 30 0 0 30 0 0 30 0 0 30 0 0 30 0 0 30 0 0 30 0 0 30 0 0 30 0 0 30 0 0 30 0 0 30 0 0 30 0 0 30 0 0 30 0 0 30 0 0 30 0 0 30 0 0 30 0 0 30 0 0 30 0 0 30 0 0 30 0 0 30 0 0 30 0 0 30 0 0 30 0 0 30 0 0 30 0 0 30 0 0 30 0 0 30 50 0 48 69 0 67 77 0 75 83 0 81 88 0 86 92 0 90 95 0 93 99 0 97 104 0 102 108 0 106 113 0 111 117 0 114 120 0 118 124 0 121 127 0 125 130 0 128 132 0 130 135 0 133 137 0 135 140 0 138 142 0 140 144 0 142 146 0 143 147 0 145 149 0 147 150 0 148 152 0 150 153 0 151 154 0 152 155 0 153 156 0 154 157 0 155 158 0 156 159 0 157 160 0 158 160 0 158 161 0 159 161 0 159 162 0 160 162 0 160 162 0 160 163 0 160 163 0 161 163 0 161 163 0 161 163 0 161 163 0 161 163 0 161 163 1 161 163 1 161 164 2 161 164 3 162 165 4 163 166 6 164 167 7 165 168 9 166 170 12 168 171 14 169 173 17 171 174 19 172 175 21 173 175 22 173 175 23 173 174 24 172 172 23 170 169 22 167 166 20 164 161 17 159 157 15 155 152 12 150 147 9 145 143 6 140 138 4 136 134 3 132 130 1 128 127 0 125 123 0 121 120 0 118 121 0 119 121 0 119 122 0 120 122 0 120 123 0 121 123 0 121 123 0 121 123 0 120 122 0 120 120 0 118 115 0 113 2 2 32 2 2 32 2 2 32 2 2 32 2 2 32 2 2 32 2 2 32 2 2 32 2 2 32 2 2 32 2 2 32 2 2 32 2 2 32 2 2 32 2 2 32 2 2 32 2 2 32 2 2 32 2 2 32 2 2 32 2 2 32 2 2 32 2 2 32 2 2 32 2 2 32 2 2 32 2 2 32 2 2 32 2 2 32 2 2 32 2 2 32 2 2 32 1 1 31 1 1 31 1 1 31 1 1 31 1 1 31 1 1 31 1 1 31 1 1 31 1 1 31 1 1 31 1 1 31 1 1 31 1 1 31 1 1 31 1 1 31 1 1 31 1 1 31 1 1 31 1 1 31 1 1 31 1 1 31 1 1 31 1 1 31 1 1 31 1 1 31 1 1 31 1 1 31 1 1 31 1 1 31 0 0 30 0 0 30 0 0 30 0 0 30 0 0 30 0 0 30 0 0 30 0 0 30 0 0 30 0 0 30 0 0 30 0 0 30 0 0 30 0 0 30 0 0 30 0 0 30 0 0 30 0 0 30 0 0 30 0 0 30 0 0 30 0 0 30 0 0 30 0 0 30 0 0 30 0 0 30 0 0 30 0 0 30 0 0 30 0 0 30 0 0 30 0 0 30 0 0 30 0 0 30 0 0 30 0 0 30 0 0 30 0 0 30 0 0 30 0 0 30 0 0 30 0 0 30 0 0 30 0 0 30 
0 0 30 0 0 30 0 0 30 0 0 30 0 0 30 0 0 30 0 0 30 0 0 30 0 0 30 0 0 30 0 0 30 0 0 30 0 0 30 0 0 30 0 0 30 0 0 30 0 0 30 0 0 30 0 0 30 0 0 30 0 0 30 0 0 30 0 0 30 0 0 30 0 0 30 0 0 30 0 0 30 0 0 30 0 0 30 0 0 30 0 0 30 0 0 30 0 0 30 0 0 30 0 0 30 0 0 30 0 0 30 0 0 30 0 0 30 0 0 30 0 0 30 0 0 30 0 0 30 0 0 30 0 0 30 0 0 30 0 0 30 0 0 30 0 0 30 0 0 30 0 0 30 0 0 30 0 0 30 0 0 30 0 0 30 0 0 30 0 0 30 0 0 30 0 0 30 0 0 30 0 0 30 0 0 30 0 0 30 0 0 30 0 0 30 0 0 30 0 0 30 0 0 30 0 0 30 0 0 30 0 0 30 0 0 30 0 0 30 0 0 30 0 0 30 0 0 30 0 0 30 0 0 30 0 0 30 0 0 30 0 0 30 0 0 30 0 0 30 0 0 30 0 0 30 0 0 30 0 0 30 0 0 30 0 0 30 0 0 30 0 0 30 0 0 30 0 0 30 0 0 30 0 0 30 0 0 30 0 0 30 0 0 30 0 0 30 0 0 30 0 0 30 0 0 30 0 0 30 0 0 30 0 0 30 0 0 30 63 0 61 75 0 73 82 0 80 88 0 85 92 0 90 95 0 93 98 0 96 101 0 99 105 0 103 110 0 108 114 0 112 118 0 116 121 0 119 125 0 122 128 0 125 130 0 128 133 0 131 136 0 134 138 0 136 140 0 138 142 0 140 144 0 142 146 0 144 148 0 146 149 0 147 151 0 149 152 0 150 153 0 151 155 0 152 156 0 153 157 0 154 157 0 155 158 0 156 159 0 157 160 0 158 160 0 158 161 0 159 161 0 159 162 0 160 162 0 160 162 0 160 162 0 160 163 0 160 163 0 160 163 0 160 163 0 160 162 0 160 162 0 160 162 0 160 162 0 160 162 1 160 162 1 160 163 2 161 163 3 161 164 4 161 164 6 162 165 7 163 166 9 164 166 11 164 167 12 165 168 14 165 168 15 165 167 16 165 166 16 164 165 16 163 162 15 160 160 14 158 156 13 154 153 11 151 149 9 147 145 7 143 141 5 139 137 3 135 133 2 131 130 1 128 126 0 124 123 0 121 120 0 118 118 0 116 119 0 117 119 0 117 120 0 118 120 0 118 120 0 118 120 0 118 120 0 118 120 0 118 119 0 117 116 0 114 2 2 32 2 2 32 2 2 32 2 2 32 2 2 32 2 2 32 2 2 32 2 2 32 2 2 32 2 2 32 2 2 32 2 2 32 2 2 32 2 2 32 2 2 32 2 2 32 2 2 32 2 2 32 2 2 32 2 2 32 2 2 32 2 2 32 2 2 32 2 2 32 2 2 32 2 2 32 2 2 32 2 2 32 2 2 32 2 2 32 2 2 32 2 2 32 2 2 32 2 2 32 2 2 32 2 2 32 2 2 32 2 2 32 2 2 32 2 2 32 2 2 32 2 2 32 2 2 32 2 2 32 2 2 32 2 2 32 2 2 32 2 2 32 1 1 31 1 1 31 1 1 31 1 1 31 1 1 31 1 1 31 1 1 31 1 1 31 1 1 31 1 1 31 1 1 31 1 1 31 1 1 31 1 1 31 1 1 31 1 1 31 1 1 31 1 1 31 1 1 31 1 1 31 1 1 31 1 1 31 0 0 30 0 0 30 0 0 30 0 0 30 0 0 30 0 0 30 0 0 30 0 0 30 0 0 30 0 0 30 0 0 30 0 0 30 0 0 30 0 0 30 0 0 30 0 0 30 0 0 30 0 0 30 0 0 30 0 0 30 0 0 30 0 0 30 0 0 30 0 0 30 0 0 30 0 0 30 0 0 30 0 0 30 0 0 30 0 0 30 0 0 30 0 0 30 0 0 30 0 0 30 0 0 30 
0 0 30 0 0 30 0 0 30 0 0 30 0 0 30 0 0 30 0 0 30 0 0 30 0 0 30 0 0 30 0 0 30 0 0 30 0 0 30 0 0 30 0 0 30 0 0 30 0 0 30 0 0 30 0 0 30 0 0 30 0 0 30 0 0 30 0 0 30 0 0 30 0 0 30 0 0 30 0 0 30 0 0 30 0 0 30 0 0 30 0 0 30 0 0 30 0 0 30 0 0 30 0 0 30 0 0 30 0 0 30 0 0 30 0 0 30 0 0 30 0 0 30 0 0 30 0 0 30 0 0 30 0 0 30 0 0 30 0 0 30 0 0 30 0 0 30 0 0 30 0 0 30 0 0 30 0 0 30 0 0 30 0 0 30 0 0 30 0 0 30 0 0 30 0 0 30 0 0 30 0 0 30 0 0 30 0 0 30 0 0 30 0 0 30 0 0 30 0 0 30 0 0 30 0 0 30 0 0 30 0 0 30 0 0 30 0 0 30 0 0 30 0 0 30 0 0 30 0 0 30 0 0 30 0 0 30 0 0 30 0 0 30 0 0 30 0 0 30 0 0 30 0 0 30 0 0 30 0 0 30 0 0 30 0 0 30 0 0 30 0 0 30 0 0 30 0 0 30 0 0 30 0 0 30 0 0 30 0 0 30 0 0 30 0 0 30 0 0 30 0 0 30 0 0 30 0 0 30 0 0 30 0 0 30 0 0 30 71 0 69 80 0 78 87 0 84 92 0 89 96 0 93 99 0 97 102 0 100 104 0 102 107 0 104 111 0 109 115 0 113 119 0 117 122 0 120 125 0 123 128 0 126 131 0 129 134 0 132 136 0 134 139 0 136 141 0 139 143 0 141 145 0 142 146 0 144 148 0 146 149 0 147 151 0 149 152 0 150 153 0 151 155 0 153 156 0 154 157 0 155 158 0 155 158 0 156 159 0 157 160 0 158 160 0 158 161 0 159 161 0 159 162 0 159 162 0 160 162 0 160 162 0 160 162 0 160 162 0 160 162 0 160 162 0 160 162 0 160 162 0 160 162 0 160 162 0 159 161 0 159 161 1 159 161 1 159 161 2 159 161 2 159 161 3 159 162 4 159 162 5 160 162 7 160 162 8 160 162 9 160 162 10 160 161 10 159 160 11 158 159 11 157 157 10 155 155 10 153 152 9 150 149 8 147 146 6 144 142 5 140 139 4 137 136 2 134 132 1 130 129 1 127 126 0 124 123 0 121 120 0 117 116 0 114 116 0 114 117 0 115 117 0 115 118 0 115 118 0 116 118 0 116 118 0 116 118 0 115 117 0 115 115 0 113 3 3 33 3 3 33 3 3 33 3 3 33 3 3 33 3 3 33 3 3 33 3 3 33 3 3 33 3 3 33 3 3 33 3 3 33 3 3 33 3 3 33 3 3 33 3 3 33 3 3 33 3 3 33 3 3 33 3 3 33 3 3 33 3 3 33 3 3 33 3 3 33 3 3 33 3 3 33 3 3 33 3 3 33 3 3 33 3 3 33 3 3 33 3 3 33 3 3 33 3 3 33 3 3 33 3 3 33 3 3 33 3 3 33 3 3 33 2 2 32 2 2 32 2 2 32 2 2 32 2 2 32 2 2 32 2 2 32 2 2 32 2 2 32 2 2 32 2 2 32 2 2 32 2 2 32 2 2 32 2 2 32 2 2 32 2 2 32 2 2 32 2 2 32 2 2 32 2 2 32 1 1 31 1 1 31 1 1 31 1 1 31 1 1 31 1 1 31 1 1 31 1 1 31 1 1 31 1 1 31 1 1 31 1 1 31 1 1 31 1 1 31 1 1 31 1 1 31 1 1 31 1 1 31 1 1 31 0 0 30 0 0 30 0 0 30 0 0 30 0 0 30 0 0 30 0 0 30 0 0 30 0 0 30 0 0 30 0 0 30 0 0 30 0 0 30 0 0 30 0 0 30 0 0 30 0 0 30 0 0 30 0 0 30 0 0 30 0 0 30 0 0 30 0 0 30 0 0 30 0 0 30 0 0 30 
0 0 30 0 0 30 0 0 30 0 0 30 0 0 30 0 0 30 0 0 30 0 0 30 0 0 30 0 0 30 0 0 30 0 0 30 0 0 30 0 0 30 0 0 30 0 0 30 0 0 30 0 0 30 0 0 30 0 0 30 0 0 30 0 0 30 0 0 30 0 0 30 0 0 30 0 0 30 0 0 30 0 0 30 0 0 30 0 0 30 0 0 30 0 0 30 0 0 30 0 0 30 0 0 30 0 0 30 0 0 30 0 0 30 0 0 30 0 0 30 0 0 30 0 0 30 0 0 30 0 0 30 0 0 30 0 0 30 0 0 30 0 0 30 0 0 30 0 0 30 0 0 30 0 0 30 0 0 30 0 0 30 0 0 30 0 0 30 0 0 30 0 0 30 0 0 30 0 0 30 0 0 30 0 0 30 0 0 30 0 0 30 0 0 30 0 0 30 0 0 30 0 0 30 0 0 30 0 0 30 0 0 30 0 0 30 0 0 30 0 0 30 0 0 30 0 0 30 0 0 30 0 0 30 0 0 30 0 0 30 0 0 30 0 0 30 0 0 30 0 0 30 0 0 30 0 0 30 0 0 30 0 0 30 0 0 30 0 0 30 0 0 30 0 0 30 0 0 30 0 0 30 0 0 30 0 0 30 0 0 30 0 0 30 0 0 30 0 0 30 0 0 30 0 0 30 0 0 30 0 0 30 0 0 30 63 0 61 77 0 75 85 0 83 91 0 88 95 0 93 99 0 97 102 0 100 105 0 103 107 0 105 109 0 107 112 0 110 116 0 114 119 0 117 123 0 121 126 0 124 129 0 127 132 0 130 134 0 132 137 0 135 139 0 137 141 0 139 143 0 141 145 0 143 147 0 144 148 0 146 150 0 148 151 0 149 152 0 150 154 0 151 155 0 153 156 0 154 157 0 155 157 0 155 158 0 156 159 0 157 160 0 157 160 0 158 161 0 158 161 0 159 161 0 159 162 0 159 162 0 160 162 0 160 162 0 160 162 0 160 162 0 160 162 0 160 162 0 160 161 0 159 161 0 159 161 0 159 161 0 159 160 0 158 160 0 158 160 1 158 160 1 157 159 2 157 159 2 157 159 3 157 159 4 157 158 5 156 158 5 156 157 6 155 157 6 155 156 7 154 154 7 152 153 7 151 151 6 149 149 6 146 146 5 144 143 4 141 140 3 138 137 2 135 134 2 132 131 1 129 128 0 126 125 0 123 122 0 120 119 0 117 116 0 114 113 0 111 114 0 112 115 0 112 115 0 113 115 0 113 115 0 113 115 0 113 115 0 113 115 0 112 113 0 111 110 0 108 4 4 34 4 4 34 4 4 34 4 4 34 4 4 34 4 4 34 4 4 34 4 4 34 4 4 34 4 4 34 4 4 34 4 4 34 4 4 34 4 4 34 4 4 34 4 4 34 4 4 34 4 4 34 4 4 34 4 4 34 4 4 34 4 4 34 4 4 34 4 4 34 4 4 34 4 4 34 4 4 34 4 4 34 4 4 34 4 4 34 3 3 33 3 3 33 3 3 33 3 3 33 3 3 33 3 3 33 3 3 33 3 3 33 3 3 33 3 3 33 3 3 33 3 3 33 3 3 33 3 3 33 3 3 33 3 3 33 3 3 33 3 3 33 3 3 33 3 3 33 3 3 33 3 3 33 2 2 32 2 2 32 2 2 32 2 2 32 2 2 32 2 2 32 2 2 32 2 2 32 2 2 32 2 2 32 2 2 32 2 2 32 2 2 32 2 2 32 2 2 32 2 2 32 1 1 31 1 1 31 1 1 31 1 1 31 1 1 31 1 1 31 1 1 31 1 1 31 1 1 31 1 1 31 1 1 31 1 1 31 1 1 31 1 1 31 1 1 31 1 1 31 1 1 31 0 0 30 0 0 30 0 0 30 0 0 30 0 0 30 0 0 30 0 0 30 0 0 30 0 0 30 0 0 30 0 0 30 0 0 30 0 0 30 0 0 30 0 0 30 0 0 30 0 0 30 0 0 30 0 0 30 
0 0 30 0 0 30 0 0 30 0 0 30 0 0 30 0 0 30 0 0 30 0 0 30 0 0 30 0 0 30 0 0 30 0 0 30 0 0 30 0 0 30 0 0 30 0 0 30 0 0 30 0 0 30 0 0 30 0 0 30 0 0 30 0 0 30 0 0 30 0 0 30 0 0 30 0 0 30 0 0 30 0 0 30 0 0 30 0 0 30 0 0 30 0 0 30 0 0 30 0 0 30 0 0 30 0 0 30 0 0 30 0 0 30 0 0 30 0 0 30 0 0 30 0 0 30 0 0 30 0 0 30 0 0 30 0 0 30 0 0 30 0 0 30 0 0 30 0 0 30 0 0 30 0 0 30 0 0 30 0 0 30 0 0 30 0 0 30 0 0 30 0 0 30 0 0 30 0 0 30 0 0 30 0 0 30 0 0 30 0 0 30 0 0 30 0 0 30 0 0 30 0 0 30 0 0 30 0 0 30 0 0 30 0 0 30 0 0 30 0 0 30 0 0 30 0 0 30 0 0 30 0 0 30 0 0 30 0 0 30 0 0 30 0 0 30 0 0 30 0 0 30 0 0 30 0 0 30 0 0 30 0 0 30 0 0 30 0 0 30 0 0 30 0 0 30 0 0 30 0 0 30 0 0 30 0 0 30 0 0 30 0 0 30 0 0 30 0 0 30 0 0 30 0 0 30 0 0 30 0 0 30 0 0 30 71 0 69 82 0 80 89 0 87 94 0 92 99 0 97 102 0 100 105 0 103 108 0 106 110 0 108 112 0 110 114 0 112 117 0 115 120 0 118 123 0 121 127 0 124 129 0 127 132 0 130 135 0 133 137 0 135 139 0 137 141 0 139 143 0 141 145 0 143 147 0 145 148 0 146 150 0 148 151 0 149 152 0 150 154 0 151 155 0 153 156 0 154 157 0 154 157 0 155 158 0 156 159 0 157 159 0 157 160 0 158 160 0 158 161 0 159 161 0 159 161 0 159 162 0 159 162 0 160 162 0 160 162 0 160 162 0 159 161 0 159 161 0 159 161 0 159 161 0 159 160 0 158 160 0 158 160 0 157 159 0 157 159 0 157 158 0 156 158 1 156 157 1 155 157 2 155 156 2 154 156 2 154 155 3 153 154 3 152 153 4 151 152 4 150 151 4 149 150 4 147 148 4 146 146 4 144 144 3 141 141 3 139 139 2 137 136 1 134 133 1 131 131 1 128 128 0 126 125 0 123 122 0 120 119 0 117 116 0 113 112 0 110 111 0 109 112 0 110 112 0 110 113 0 111 113 0 111 113 0 111 113 0 111 112 0 110 111 0 109 109 0 107 5 5 35 5 5 35 5 5 35 5 5 35 5 5 35 5 5 35 5 5 35 5 5 35 5 5 35 5 5 35 5 5 35 5 5 35 5 5 35 5 5 35 5 5 35 5 5 35 5 5 35 5 5 35 5 5 35 5 5 35 5 5 35 4 4 34 4 4 34 4 4 34 4 4 34 4 4 34 4 4 34 4 4 34 4 4 34 4 4 34 4 4 34 4 4 34 4 4 34 4 4 34 4 4 34 4 4 34 4 4 34 4 4 34 4 4 34 4 4 34 4 4 34 4 4 34 4 4 34 4 4 34 4 4 34 4 4 34 3 3 33 3 3 33 3 3 33 3 3 33 3 3 33 3 3 33 3 3 33 3 3 33 3 3 33 3 3 33 3 3 33 3 3 33 3 3 33 3 3 33 3 3 33 3 3 33 2 2 32 2 2 32 2 2 32 2 2 32 2 2 32 2 2 32 2 2 32 2 2 32 2 2 32 2 2 32 2 2 32 2 2 32 2 2 32 2 2 32 2 2 32 1 1 31 1 1 31 1 1 31 1 1 31 1 1 31 1 1 31 1 1 31 1 1 31 1 1 31 1 1 31 1 1 31 1 1 31 1 1 31 1 1 31 1 1 31 0 0 30 0 0 30 0 0 30 0 0 30 0 0 30 0 0 30 0 0 30 0 0 30 0 0 30 0 0 30 0 0 30 0 0 30 
0 0 30 0 0 30 0 0 30 0 0 30 0 0 30 0 0 30 0 0 30 0 0 30 0 0 30 0 0 30 0 0 30 0 0 30 0 0 30 0 0 30 0 0 30 0 0 30 0 0 30 0 0 30 0 0 30 0 0 30 0 0 30 0 0 30 0 0 30 0 0 30 0 0 30 0 0 30 0 0 30 0 0 30 0 0 30 0 0 30 0 0 30 0 0 30 0 0 30 0 0 30 0 0 30 0 0 30 0 0 30 0 0 30 0 0 30 0 0 30 0 0 30 0 0 30 0 0 30 0 0 30 0 0 30 0 0 30 0 0 30 0 0 30 0 0 30 0 0 30 0 0 30 0 0 30 0 0 30 0 0 30 0 0 30 0 0 30 0 0 30 0 0 30 0 0 30 0 0 30 0 0 30 0 0 30 0 0 30 0 0 30 0 0 30 0 0 30 0 0 30 0 0 30 0 0 30 0 0 30 0 0 30 0 0 30 0 0 30 0 0 30 0 0 30 0 0 30 0 0 30 0 0 30 0 0 30 0 0 30 0 0 30 0 0 30 0 0 30 0 0 30 0 0 30 0 0 30 0 0 30 0 0 30 0 0 30 0 0 30 0 0 30 0 0 30 0 0 30 0 0 30 0 0 30 0 0 30 0 0 30 0 0 30 0 0 30 0 0 30 0 0 30 0 0 30 0 0 30 0 0 30 0 0 30 78 0 75 87 0 84 93 0 91 98 0 96 102 0 100 105 0 103 108 0 106 111 0 109 113 0 111 115 0 113 116 0 114 118 0 115 121 0 119 124 0 122 127 0 125 130 0 128 132 0 130 135 0 133 137 0 135 139 0 137 141 0 139 143 0 141 145 0 143 147 0 145 148 0 146 150 0 148 151 0 149 152 0 150 153 0 151 155 0 152 156 0 153 156 0 154 157 0 155 158 0 156 159 0 156 159 0 157 160 0 158 160 0 158 160 0 158 161 0 159 161 0 159 161 0 159 161 0 159 161 0 159 161 0 159 161 0 159 161 0 159 161 0 159 161 0 158 160 0 158 160 0 158 159 0 157 159 0 157 158 0 156 158 0 156 157 0 155 157 0 155 156 0 154 155 1 153 155 1 153 154 1 152 153 1 151 152 2 150 151 2 149 150 2 148 149 2 147 147 2 145 145 2 143 144 2 142 142 2 140 139 1 137 137 1 135 135 1 133 132 0 130 130 0 128 127 0 125 124 0 122 121 0 119 118 0 116 115 0 113 112 0 110 109 0 107 109 0 107 110 0 108 110 0 108 110 0 108 110 0 108 110 0 108 110 0 108 109 0 107 107 0 105 5 5 35 5 5 35 5 5 35 5 5 35 5 5 35 5 5 35 5 5 35 5 5 35 5 5 35 5 5 35 5 5 35 5 5 35 5 5 35 5 5 35 5 5 35 5 5 35 5 5 35 5 5 35 5 5 35 5 5 35 5 5 35 5 5 35 5 5 35 5 5 35 5 5 35 5 5 35 5 5 35 5 5 35 5 5 35 5 5 35 5 5 35 5 5 35 5 5 35 5 5 35 5 5 35 5 5 35 5 5 35 5 5 35 5 5 35 5 5 35 5 5 35 5 5 35 5 5 35 4 4 34 4 4 34 4 4 34 4 4 34 4 4 34 4 4 34 4 4 34 4 4 34 4 4 34 4 4 34 4 4 34 4 4 34 4 4 34 4 4 34 4 4 34 3 3 33 3 3 33 3 3 33 3 3 33 3 3 33 3 3 33 3 3 33 3 3 33 3 3 33 3 3 33 3 3 33 3 3 33 3 3 33 2 2 32 2 2 32 2 2 32 2 2 32 2 2 32 2 2 32 2 2 32 2 2 32 2 2 32 2 2 32 2 2 32 2 2 32 2 2 32 1 1 31 1 1 31 1 1 31 1 1 31 1 1 31 1 1 31 1 1 31 1 1 31 1 1 31 1 1 31 1 1 31 1 1 31 1 1 31 1 1 31 1 1 31 0 0 30 0 0 30 0 0 30 0 0 30 0 0 30 
0 0 30 0 0 30 0 0 30 0 0 30 0 0 30 0 0 30 0 0 30 0 0 30 0 0 30 0 0 30 0 0 30 0 0 30 0 0 30 0 0 30 0 0 30 0 0 30 0 0 30 0 0 30 0 0 30 0 0 30 0 0 30 0 0 30 0 0 30 0 0 30 0 0 30 0 0 30 0 0 30 0 0 30 0 0 30 0 0 30 0 0 30 0 0 30 0 0 30 0 0 30 0 0 30 0 0 30 0 0 30 0 0 30 0 0 30 0 0 30 0 0 30 0 0 30 0 0 30 0 0 30 0 0 30 0 0 30 0 0 30 0 0 30 0 0 30 0 0 30 0 0 30 0 0 30 0 0 30 0 0 30 0 0 30 0 0 30 0 0 30 0 0 30 0 0 30 0 0 30 0 0 30 0 0 30 0 0 30 0 0 30 0 0 30 0 0 30 0 0 30 0 0 30 0 0 30 0 0 30 0 0 30 0 0 30 0 0 30 0 0 30 0 0 30 0 0 30 0 0 30 0 0 30 0 0 30 0 0 30 0 0 30 0 0 30 0 0 30 0 0 30 0 0 30 0 0 30 0 0 30 0 0 30 0 0 30 0 0 30 0 0 30 0 0 30 0 0 30 0 0 30 0 0 30 0 0 30 0 0 30 0 0 30 0 0 30 0 0 30 0 0 30 0 0 30 0 0 30 0 0 30 69 0 67 83 0 81 91 0 88 96 0 94 101 0 99 105 0 103 108 0 106 111 0 109 113 0 111 115 0 113 117 0 115 119 0 117 120 0 118 121 0 119 124 0 122 127 0 125 130 0 128 133 0 131 135 0 133 137 0 135 140 0 137 142 0 139 143 0 141 145 0 143 147 0 145 148 0 146 150 0 148 151 0 149 152 0 150 153 0 151 154 0 152 155 0 153 156 0 154 157 0 155 158 0 156 158 0 156 159 0 157 159 0 157 160 0 158 160 0 158 160 0 158 161 0 159 161 0 159 161 0 159 161 0 159 161 0 159 161 0 159 161 0 158 160 0 158 160 0 158 160 0 158 159 0 157 159 0 157 158 0 156 158 0 156 157 0 155 156 0 154 156 0 154 155 0 153 154 0 152 153 0 151 152 0 150 152 1 149 150 1 148 149 1 147 148 1 146 147 1 145 145 1 143 144 1 142 142 1 140 140 1 138 138 1 136 136 1 134 134 0 131 131 0 129 129 0 127 126 0 124 123 0 121 121 0 119 118 0 116 115 0 112 111 0 109 108 0 106 107 0 105 107 0 105 108 0 105 108 0 106 108 0 106 108 0 106 107 0 105 107 0 105 105 0 103 102 0 100 6 6 36 6 6 36 6 6 36 6 6 36 6 6 36 6 6 36 6 6 36 6 6 36 6 6 36 6 6 36 6 6 36 6 6 36 6 6 36 6 6 36 6 6 36 6 6 36 6 6 36 6 6 36 6 6 36 6 6 36 6 6 36 6 6 36 6 6 36 6 6 36 6 6 36 6 6 36 6 6 36 6 6 36 6 6 36 6 6 36 6 6 36 6 6 36 6 6 36 6 6 36 6 6 36 6 6 36 6 6 36 6 6 36 6 6 36 5 5 35 5 5 35 5 5 35 5 5 35 5 5 35 5 5 35 5 5 35 5 5 35 5 5 35 5 5 35 5 5 35 5 5 35 5 5 35 5 5 35 5 5 35 4 4 34 4 4 34 4 4 34 4 4 34 4 4 34 4 4 34 4 4 34 4 4 34 4 4 34 4 4 34 4 4 34 4 4 34 3 3 33 3 3 33 3 3 33 3 3 33 3 3 33 3 3 33 3 3 33 3 3 33 3 3 33 3 3 33 3 3 33 3 3 33 2 2 32 2 2 32 2 2 32 2 2 32 2 2 32 2 2 32 2 2 32 2 2 32 2 2 32 2 2 32 2 2 32 2 2 32 1 1 31 1 1 31 1 1 31 1 1 31 1 1 31 1 1 31 1 1 31 1 1 31 1 1 31 1 1 31 1 1 31 1 1 31 1 1 31 
0 0 30 0 0 30 0 0 30 0 0 30 0 0 30 0 0 30 0 0 30 0 0 30 0 0 30 0 0 30 0 0 30 0 0 30 0 0 30 0 0 30 0 0 30 0 0 30 0 0 30 0 0 30 0 0 30 0 0 30 0 0 30 0 0 30 0 0 30 0 0 30 0 0 30 0 0 30 0 0 30 0 0 30 0 0 30 0 0 30 0 0 30 0 0 30 0 0 30 0 0 30 0 0 30 0 0 30 0 0 30 0 0 30 0 0 30 0 0 30 0 0 30 0 0 30 0 0 30 0 0 30 0 0 30 0 0 30 0 0 30 0 0 30 0 0 30 0 0 30 0 0 30 0 0 30 0 0 30 0 0 30 0 0 30 0 0 30 0 0 30 0 0 30 0 0 30 0 0 30 0 0 30 0 0 30 0 0 30 0 0 30 0 0 30 0 0 30 0 0 30 0 0 30 0 0 30 0 0 30 0 0 30 0 0 30 0 0 30 0 0 30 0 0 30 0 0 30 0 0 30 0 0 30 0 0 30 0 0 30 0 0 30 0 0 30 0 0 30 0 0 30 0 0 30 0 0 30 0 0 30 0 0 30 0 0 30 0 0 30 0 0 30 0 0 30 0 0 30 0 0 30 0 0 30 0 0 30 0 0 30 0 0 30 0 0 30 0 0 30 0 0 30 0 0 30 0 0 30 0 0 30 76 0 74 87 0 85 94 0 92 100 0 98 104 0 102 108 0 106 111 0 109 114 0 111 116 0 114 118 0 116 120 0 117 121 0 119 122 0 120 123 0 121 125 0 123 128 0 126 130 0 128 133 0 131 135 0 133 138 0 135 140 0 138 142 0 139 143 0 141 145 0 143 147 0 145 148 0 146 150 0 147 151 0 149 152 0 150 153 0 151 154 0 152 155 0 153 156 0 154 157 0 155 157 0 155 158 0 156 159 0 156 159 0 157 159 0 157 160 0 158 160 0 158 160 0 158 160 0 158 160 0 158 160 0 158 160 0 158 160 0 158 160 0 158 160 0 158 159 0 157 159 0 157 159 0 157 158 0 156 158 0 156 157 0 155 156 0 154 156 0 154 155 0 153 154 0 152 153 0 151 152 0 150 151 0 149 150 0 148 149 0 147 148 0 146 147 0 145 145 0 143 144 0 142 142 0 140 141 0 138 139 0 137 137 0 135 135 0 133 133 0 130 130 0 128 128 0 126 125 0 123 123 0 121 120 0 118 117 0 115 114 0 112 111 0 109 107 0 105 104 0 102 105 0 102 105 0 103 105 0 103 105 0 103 105 0 103 105 0 103 104 0 102 103 0 101 101 0 99 7 7 37 7 7 37 7 7 37 7 7 37 7 7 37 7 7 37 7 7 37 7 7 37 7 7 37 7 7 37 7 7 37 7 7 37 7 7 37 7 7 37 7 7 37 7 7 37 7 7 37 7 7 37 7 7 37 7 7 37 7 7 37 7 7 37 7 7 37 7 7 37 7 7 37 7 7 37 7 7 37 7 7 37 7 7 37 7 7 37 7 7 37 7 7 37 7 7 37 7 7 37 7 7 37 7 7 37 7 7 37 6 6 36 6 6 36 6 6 36 6 6 36 6 6 36 6 6 36 6 6 36 6 6 36 6 6 36 6 6 36 6 6 36 6 6 36 6 6 36 6 6 36 6 6 36 5 5 35 5 5 35 5 5 35 5 5 35 5 5 35 5 5 35 5 5 35 5 5 35 5 5 35 5 5 35 5 5 35 5 5 35 4 4 34 4 4 34 4 4 34 4 4 34 4 4 34 4 4 34 4 4 34 4 4 34 4 4 34 4 4 34 4 4 34 3 3 33 3 3 33 3 3 33 3 3 33 3 3 33 3 3 33 3 3 33 3 3 33 3 3 33 3 3 33 2 2 32 2 2 32 2 2 32 2 2 32 2 2 32 2 2 32 2 2 32 2 2 32 2 2 32 2 2 32 2 2 32 1 1 31 1 1 31 1 1 31 1 1 31 1 1 31 1 1 31 1 1 31 
0 0 30 0 0 30 0 0 30 0 0 30 0 0 30 0 0 30 0 0 30 0 0 30 0 0 30 0 0 30 0 0 30 0 0 30 0 0 30 0 0 30 0 0 30 0 0 30 0 0 30 0 0 30 0 0 30 0 0 30 0 0 30 0 0 30 0 0 30 0 0 30 0 0 30 0 0 30 0 0 30 0 0 30 0 0 30 0 0 30 0 0 30 0 0 30 0 0 30 0 0 30 0 0 30 0 0 30 0 0 30 0 0 30 0 0 30 0 0 30 0 0 30 0 0 30 0 0 30 0 0 30 0 0 30 0 0 30 0 0 30 0 0 30 0 0 30 0 0 30 0 0 30 0 0 30 0 0 30 0 0 30 0 0 30 0 0 30 0 0 30 0 0 30 0 0 30 0 0 30 0 0 30 0 0 30 0 0 30 0 0 30 0 0 30 0 0 30 0 0 30 0 0 30 0 0 30 0 0 30 0 0 30 0 0 30 0 0 30 0 0 30 0 0 30 0 0 30 0 0 30 0 0 30 0 0 30 0 0 30 0 0 30 0 0 30 0 0 30 0 0 30 0 0 30 0 0 30 0 0 30 0 0 30 0 0 30 0 0 30 0 0 30 0 0 30 0 0 30 0 0 30 0 0 30 0 0 30 0 0 30 0 0 30 0 0 30 0 0 30 1 1 31 1 1 31 1 1 31 1 1 31 81 0 79 91 0 89 98 0 96 103 0 101 107 0 105 111 0 108 114 0 111 116 0 114 118 0 116 120 0 118 122 0 120 123 0 121 125 0 123 126 0 124 127 0 124 128 0 126 131 0 128 133 0 131 135 0 133 138 0 135 140 0 138 142 0 139 143 0 141 145 0 143 147 0 144 148 0 146 149 0 147 151 0 149 152 0 150 153 0 151 154 0 152 155 0 153 156 0 154 156 0 154 157 0 155 158 0 156 158 0 156 159 0 156 159 0 157 159 0 157 160 0 157 160 0 158 160 0 158 160 0 158 160 0 158 160 0 158 160 0 158 159 0 157 159 0 157 159 0 157 158 0 156 158 0 156 158 0 155 157 0 155 156 0 154 156 0 154 155 0 153 154 0 152 153 0 151 152 0 150 151 0 149 150 0 148 149 0 147 148 0 146 147 0 145 146 0 143 144 0 142 143 0 141 141 0 139 139 0 137 138 0 135 136 0 134 134 0 132 132 0 129 129 0 127 127 0 125 124 0 122 122 0 120 119 0 117 116 0 114 113 0 111 110 0 108 107 0 104 103 0 101 102 0 100 102 0 100 103 0 100 103 0 101 103 0 101 103 0 100 102 0 100 101 0 99 99 0 97 8 8 38 8 8 38 8 8 38 8 8 38 8 8 38 8 8 38 8 8 38 8 8 38 8 8 38 8 8 38 8 8 38 8 8 38 8 8 38 8 8 38 8 8 38 8 8 38 8 8 38 8 8 38 8 8 38 8 8 38 8 8 38 8 8 38 8 8 38 8 8 38 8 8 38 8 8 38 8 8 38 8 8 38 8 8 38 8 8 38 8 8 38 8 8 38 8 8 38 8 8 38 8 8 38 8 8 38 8 8 38 7 7 37 7 7 37 7 7 37 7 7 37 7 7 37 7 7 37 7 7 37 7 7 37 7 7 37 7 7 37 7 7 37 7 7 37 7 7 37 7 7 37 6 6 36 6 6 36 6 6 36 6 6 36 6 6 36 6 6 36 6 6 36 6 6 36 6 6 36 6 6 36 6 6 36 5 5 35 5 5 35 5 5 35 5 5 35 5 5 35 5 5 35 5 5 35 5 5 35 5 5 35 5 5 35 4 4 34 4 4 34 4 4 34 4 4 34 4 4 34 4 4 34 4 4 34 4 4 34 4 4 34 4 4 34 3 3 33 3 3 33 3 3 33 3 3 33 3 3 33 3 3 33 3 3 33 3 3 33 3 3 33 3 3 33 2 2 32 2 2 32 2 2 32 2 2 32 2 2 32 2 2 32 2 2 32 2 2 32 2 2 32 2 2 32 2 2 32 
0 0 30 0 0 30 0 0 30 0 0 30 0 0 30 0 0 30 0 0 30 0 0 30 0 0 30 0 0 30 0 0 30 0 0 30 0 0 30 0 0 30 0 0 30 0 0 30 0 0 30 0 0 30 0 0 30 0 0 30 0 0 30 0 0 30 0 0 30 0 0 30 0 0 30 0 0 30 0 0 30 0 0 30 0 0 30 0 0 30 0 0 30 0 0 30 0 0 30 0 0 30 0 0 30 0 0 30 0 0 30 0 0 30 0 0 30 0 0 30 0 0 30 0 0 30 0 0 30 0 0 30 0 0 30 0 0 30 0 0 30 0 0 30 0 0 30 0 0 30 0 0 30 0 0 30 0 0 30 0 0 30 0 0 30 0 0 30 0 0 30 0 0 30 0 0 30 0 0 30 0 0 30 0 0 30 0 0 30 0 0 30 0 0 30 0 0 30 0 0 30 0 0 30 0 0 30 0 0 30 0 0 30 0 0 30 0 0 30 0 0 30 0 0 30 0 0 30 0 0 30 0 0 30 0 0 30 0 0 30 0 0 30 0 0 30 0 0 30 0 0 30 0 0 30 0 0 30 0 0 30 0 0 30 0 0 30 0 0 30 0 0 30 0 0 30 0 0 30 0 0 30 0 0 30 0 0 30 1 1 31 1 1 31 1 1 31 1 1 31 1 1 31 1 1 31 1 1 31 69 0 67 86 0 84 95 0 93 101 0 99 106 0 104 110 0 108 113 0 111 116 0 114 119 0 116 121 0 119 123 0 120 124 0 122 126 0 123 127 0 125 128 0 126 129 0 127 129 0 127 131 0 128 133 0 131 135 0 133 138 0 135 140 0 137 141 0 139 143 0 141 145 0 143 146 0 144 148 0 146 149 0 147 150 0 148 152 0 149 153 0 151 154 0 151 155 0 152 155 0 153 156 0 154 157 0 155 157 0 155 158 0 156 158 0 156 159 0 156 159 0 157 159 0 157 159 0 157 159 0 157 159 0 157 159 0 157 159 0 157 159 0 157 159 0 157 159 0 156 158 0 156 158 0 156 157 0 155 157 0 155 156 0 154 156 0 153 155 0 153 154 0 152 153 0 151 152 0 150 152 0 149 151 0 148 149 0 147 148 0 146 147 0 145 146 0 144 145 0 142 143 0 141 142 0 139 140 0 138 138 0 136 137 0 134 135 0 133 133 0 131 131 0 128 128 0 126 126 0 124 124 0 121 121 0 119 118 0 116 115 0 113 112 0 110 109 0 107 106 0 104 102 0 100 99 0 97 100 0 98 100 0 98 100 0 98 100 0 98 100 0 98 100 0 97 99 0 96 97 0 95 92 0 90 9 9 39 9 9 39 9 9 39 9 9 39 9 9 39 9 9 39 9 9 39 9 9 39 9 9 39 9 9 39 9 9 39 9 9 39 9 9 39 9 9 39 9 9 39 9 9 39 9 9 39 9 9 39 9 9 39 9 9 39 9 9 39 9 9 39 9 9 39 9 9 39 9 9 39 9 9 39 9 9 39 9 9 39 9 9 39 9 9 39 9 9 39 9 9 39 9 9 39 9 9 39 9 9 39 9 9 39 8 8 38 8 8 38 8 8 38 8 8 38 8 8 38 8 8 38 8 8 38 8 8 38 8 8 38 8 8 38 8 8 38 8 8 38 8 8 38 7 7 37 7 7 37 7 7 37 7 7 37 7 7 37 7 7 37 7 7 37 7 7 37 7 7 37 7 7 37 7 7 37 6 6 36 6 6 36 6 6 36 6 6 36 6 6 36 6 6 36 6 6 36 6 6 36 6 6 36 6 6 36 5 5 35 5 5 35 5 5 35 5 5 35 5 5 35 5 5 35 5 5 35 5 5 35 5 5 35 4 4 34 4 4 34 4 4 34 4 4 34 4 4 34 4 4 34 4 4 34 4 4 34 4 4 34 3 3 33 3 3 33 3 3 33 3 3 33 3 3 33 3 3 33 3 3 33 3 3 33 3 3 33 2 2 32 2 2 32 2 2 32 2 2 32 2 2 32 
0 0 30 0 0 30 0 0 30 0 0 30 0 0 30 0 0 30 0 0 30 0 0 30 0 0 30 0 0 30 0 0 30 0 0 30 0 0 30 0 0 30 0 0 30 0 0 30 0 0 30 0 0 30 0 0 30 0 0 30 0 0 30 0 0 30 0 0 30 0 0 30 0 0 30 0 0 30 0 0 30 0 0 30 0 0 30 0 0 30 0 0 30 0 0 30 0 0 30 0 0 30 0 0 30 0 0 30 0 0 30 0 0 30 0 0 30 0 0 30 0 0 30 0 0 30 0 0 30 0 0 30 0 0 30 0 0 30 0 0 30 0 0 30 0 0 30 0 0 30 0 0 30 0 0 30 0 0 30 0 0 30 0 0 30 0 0 30 0 0 30 0 0 30 0 0 30 0 0 30 0 0 30 0 0 30 0 0 30 0 0 30 0 0 30 0 0 30 0 0 30 0 0 30 0 0 30 0 0 30 0 0 30 0 0 30 0 0 30 0 0 30 0 0 30 0 0 30 0 0 30 0 0 30 0 0 30 0 0 30 0 0 30 0 0 30 0 0 30 0 0 30 0 0 30 0 0 30 0 0 30 0 0 30 0 0 30 0 0 30 0 0 30 1 1 31 1 1 31 1 1 31 1 1 31 1 1 31 1 1 31 1 1 31 1 1 31 1 1 31 1 1 31 1 1 31 1 1 31 77 0 75 90 0 88 98 0 96 104 0 102 108 0 106 112 0 110 116 0 114 118 0 116 121 0 119 123 0 121 125 0 123 126 0 124 128 0 126 129 0 127 130 0 128 131 0 129 131 0 129 132 0 130 133 0 131 135 0 133 137 0 135 139 0 137 141 0 139 143 0 141 145 0 143 146 0 144 148 0 145 149 0 147 150 0 148 151 0 149 152 0 150 153 0 151 154 0 152 155 0 153 156 0 154 156 0 154 157 0 155 157 0 155 158 0 156 158 0 156 158 0 156 158 0 156 159 0 156 159 0 157 159 0 157 159 0 157 159 0 156 158 0 156 158 0 156 158 0 156 157 0 155 157 0 155 157 0 154 156 0 154 155 0 153 155 0 153 154 0 152 153 0 151 153 0 150 152 0 150 151 0 149 150 0 148 149 0 146 147 0 145 146 0 144 145 0 143 144 0 141 142 0 140 141 0 138 139 0 137 137 0 135 136 0 133 134 0 132 132 0 130 130 0 127 127 0 125 125 0 123 123 0 121 120 0 118 117 0 115 115 0 112 112 0 109 108 0 106 105 0 103 101 0 99 97 0 95 97 0 95 97 0 95 98 0 95 98 0 95 97 0 95 97 0 95 96 0 94 95 0 93 91 0 89 10 10 40 10 10 40 10 10 40 10 10 40 10 10 40 10 10 40 10 10 40 10 10 40 10 10 40 10 10 40 10 10 40 10 10 40 10 10 40 10 10 40 10 10 40 10 10 40 10 10 40 10 10 40 10 10 40 10 10 40 10 10 40 10 10 40 10 10 40 10 10 40 10 10 40 10 10 40 10 10 40 10 10 40 10 10 40 10 10 40 10 10 40 10 10 40 10 10 40 10 10 40 10 10 40 10 10 40 9 9 39 9 9 39 9 9 39 9 9 39 9 9 39 9 9 39 9 9 39 9 9 39 9 9 39 9 9 39 9 9 39 9 9 39 9 9 39 8 8 38 8 8 38 8 8 38 8 8 38 8 8 38 8 8 38 8 8 38 8 8 38 8 8 38 8 8 38 8 8 38 7 7 37 7 7 37 7 7 37 7 7 37 7 7 37 7 7 37 7 7 37 7 7 37 7 7 37 6 6 36 6 6 36 6 6 36 6 6 36 6 6 36 6 6 36 6 6 36 6 6 36 5 5 35 5 5 35 5 5 35 5 5 35 5 5 35 5 5 35 5 5 35 5 5 35 5 5 35 4 4 34 4 4 34 4 4 34 4 4 34 4 4 34 4 4 34 4 4 34 4 4 34 3 3 33 3 3 33 3 3 33 3 3 33 3 3 33 3 3 33 3 3 33 3 3 33 
0 0 30 0 0 30 0 0 30 0 0 30 0 0 30 0 0 30 0 0 30 0 0 30 0 0 30 0 0 30 0 0 30 0 0 30 0 0 30 0 0 30 0 0 30 0 0 30 0 0 30 0 0 30 0 0 30 0 0 30 0 0 30 0 0 30 0 0 30 0 0 30 0 0 30 0 0 30 0 0 30 0 0 30 0 0 30 0 0 30 0 0 30 0 0 30 0 0 30 0 0 30 0 0 30 0 0 30 0 0 30 0 0 30 0 0 30 0 0 30 0 0 30 0 0 30 0 0 30 0 0 30 0 0 30 0 0 30 0 0 30 0 0 30 0 0 30 0 0 30 0 0 30 0 0 30 0 0 30 0 0 30 0 0 30 0 0 30 0 0 30 0 0 30 0 0 30 0 0 30 0 0 30 0 0 30 0 0 30 0 0 30 0 0 30 0 0 30 0 0 30 0 0 30 0 0 30 0 0 30 0 0 30 0 0 30 0 0 30 0 0 30 0 0 30 0 0 30 0 0 30 0 0 30 0 0 30 0 0 30 0 0 30 0 0 30 0 0 30 0 0 30 0 0 30 0 0 30 0 0 30 1 1 31 1 1 31 1 1 31 1 1 31 1 1 31 1 1 31 1 1 31 1 1 31 1 1 31 1 1 31 1 1 31 1 1 31 1 1 31 2 2 32 2 2 32 2 2 32 82 0 80 94 0 91 101 0 99 107 0 104 111 0 109 115 0 113 118 0 116 121 0 119 123 0 121 125 0 123 127 0 125 128 0 126 130 0 128 131 0 129 132 0 130 133 0 131 133 0 131 134 0 132 134 0 132 135 0 133 137 0 135 139 0 137 141 0 139 143 0 141 144 0 142 146 0 144 147 0 145 149 0 146 150 0 148 151 0 149 152 0 150 153 0 151 154 0 152 155 0 152 155 0 153 156 0 154 156 0 154 157 0 155 157 0 155 157 0 155 158 0 156 158 0 156 158 0 156 158 0 156 158 0 156 158 0 156 158 0 156 158 0 156 157 0 155 157 0 155 157 0 155 156 0 154 156 0 154 155 0 153 155 0 153 154 0 152 153 0 151 153 0 150 152 0 150 151 0 149 150 0 148 149 0 147 148 0 146 146 0 144 145 0 143 144 0 142 143 0 140 141 0 139 140 0 137 138 0 136 136 0 134 134 0 132 133 0 130 131 0 129 129 0 126 126 0 124 124 0 122 122 0 120 119 0 117 116 0 114 114 0 111 111 0 108 107 0 105 104 0 102 100 0 98 97 0 94 94 0 92 95 0 93 95 0 93 95 0 93 95 0 93 94 0 92 94 0 92 92 0 90 90 0 88 11 11 41 11 11 41 11 11 41 11 11 41 11 11 41 11 11 41 11 11 41 11 11 41 11 11 41 11 11 41 11 11 41 11 11 41 11 11 41 11 11 41 11 11 41 11 11 41 11 11 41 11 11 41 11 11 41 11 11 41 11 11 41 11 11 41 11 11 41 11 11 41 11 11 41 11 11 41 11 11 41 11 11 41 11 11 41 11 11 41 11 11 41 11 11 41 11 11 41 11 11 41 11 11 41 11 11 41 11 11 41 11 11 41 10 10 40 10 10 40 10 10 40 10 10 40 10 10 40 10 10 40 10 10 40 10 10 40 10 10 40 10 10 40 10 10 40 10 10 40 9 9 39 9 9 39 9 9 39 9 9 39 9 9 39 9 9 39 9 9 39 9 9 39 9 9 39 9 9 39 8 8 38 8 8 38 8 8 38 8 8 38 8 8 38 8 8 38 8 8 38 8 8 38 7 7 37 7 7 37 7 7 37 7 7 37 7 7 37 7 7 37 7 7 37 7 7 37 6 6 36 6 6 36 6 6 36 6 6 36 6 6 36 6 6 36 6 6 36 6 6 36 5 5 35 5 5 35 5 5 35 5 5 35 5 5 35 5 5 35 5 5 35 5 5 35 4 4 34 4 4 34 4 4 34 4 4 34 4 4 34 4 4 34 4 4 34 4 4 34 3 3 33 3 3 33 
0 0 30 0 0 30 0 0 30 0 0 30 0 0 30 0 0 30 0 0 30 0 0 30 0 0 30 0 0 30 0 0 30 0 0 30 0 0 30 0 0 30 0 0 30 0 0 30 0 0 30 0 0 30 0 0 30 0 0 30 0 0 30 0 0 30 0 0 30 0 0 30 0 0 30 0 0 30 0 0 30 0 0 30 0 0 30 0 0 30 0 0 30 0 0 30 0 0 30 0 0 30 0 0 30 0 0 30 0 0 30 0 0 30 0 0 30 0 0 30 0 0 30 0 0 30 0 0 30 0 0 30 0 0 30 0 0 30 0 0 30 0 0 30 0 0 30 0 0 30 0 0 30 0 0 30 0 0 30 0 0 30 0 0 30 0 0 30 0 0 30 0 0 30 0 0 30 0 0 30 0 0 30 0 0 30 0 0 30 0 0 30 0 0 30 0 0 30 0 0 30 0 0 30 0 0 30 0 0 30 0 0 30 0 0 30 0 0 30 0 0 30 0 0 30 0 0 30 0 0 30 0 0 30 0 0 30 0 0 30 0 0 30 0 0 30 0 0 30 1 1 31 1 1 31 1 1 31 1 1 31 1 1 31 1 1 31 1 1 31 1 1 31 1 1 31 1 1 31 1 1 31 1 1 31 1 1 31 2 2 32 2 2 32 2 2 32 2 2 32 2 2 32 2 2 32 2 2 32 87 0 84 97 0 95 104 0 102 109 0 107 113 0 111 117 0 115 120 0 118 123 0 121 125 0 123 127 0 125 129 0 127 130 0 128 132 0 130 133 0 131 134 0 132 135 0 132 135 0 133 136 0 134 136 0 134 136 0 134 137 0 135 139 0 137 141 0 139 142 0 140 144 0 142 146 0 143 147 0 145 148 0 146 150 0 147 151 0 149 152 0 150 153 0 151 154 0 151 154 0 152 155 0 153 156 0 153 156 0 154 156 0 154 157 0 155 157 0 155 157 0 155 157 0 155 157 0 155 157 0 155 157 0 155 157 0 155 157 0 155 157 0 155 157 0 155 156 0 154 156 0 154 156 0 153 155 0 153 154 0 152 154 0 152 153 0 151 152 0 150 152 0 149 151 0 149 150 0 148 149 0 147 148 0 146 147 0 145 146 0 143 144 0 142 143 0 141 142 0 139 140 0 138 139 0 136 137 0 135 135 0 133 133 0 131 132 0 129 130 0 127 128 0 125 125 0 123 123 0 121 121 0 118 118 0 116 115 0 113 113 0 110 110 0 107 106 0 104 103 0 101 99 0 97 96 0 94 92 0 90 92 0 90 92 0 90 92 0 90 92 0 90 92 0 90 91 0 89 90 0 88 88 0 86 12 12 42 12 12 42 12 12 42 12 12 42 12 12 42 12 12 42 12 12 42 12 12 42 12 12 42 12 12 42 12 12 42 12 12 42 12 12 42 12 12 42 12 12 42 12 12 42 12 12 42 12 12 42 12 12 42 12 12 42 12 12 42 12 12 42 12 12 42 12 12 42 12 12 42 12 12 42 12 12 42 12 12 42 12 12 42 12 12 42 12 12 42 12 12 42 12 12 42 12 12 42 12 12 42 12 12 42 12 12 42 12 12 42 12 12 42 11 11 41 11 11 41 11 11 41 11 11 41 11 11 41 11 11 41 11 11 41 11 11 41 11 11 41 11 11 41 11 11 41 11 11 41 10 10 40 10 10 40 10 10 40 10 10 40 10 10 40 10 10 40 10 10 40 10 10 40 10 10 40 9 9 39 9 9 39 9 9 39 9 9 39 9 9 39 9 9 39 9 9 39 9 9 39 8 8 38 8 8 38 8 8 38 8 8 38 8 8 38 8 8 38 8 8 38 8 8 38 7 7 37 7 7 37 7 7 37 7 7 37 7 7 37 7 7 37 7 7 37 6 6 36 6 6 36 6 6 36 6 6 36 6 6 36 6 6 36 6 6 36 6 6 36 5 5 35 5 5 35 5 5 35 5 5 35 5 5 35 5 5 35 5 5 35 4 4 34 4 4 34 4 4 34 4 4 34 
0 0 30 0 0 30 0 0 30 0 0 30 0 0 30 0 0 30 0 0 30 0 0 30 0 0 30 0 0 30 0 0 30 0 0 30 0 0 30 0 0 30 0 0 30 0 0 30 0 0 30 0 0 30 0 0 30 0 0 30 0 0 30 0 0 30 0 0 30 0 0 30 0 0 30 0 0 30 0 0 30 0 0 30 0 0 30 0 0 30 0 0 30 0 0 30 0 0 30 0 0 30 0 0 30 0 0 30 0 0 30 0 0 30 0 0 30 0 0 30 0 0 30 0 0 30 0 0 30 0 0 30 0 0 30 0 0 30 0 0 30 0 0 30 0 0 30 0 0 30 0 0 30 0 0 30 0 0 30 0 0 30 0 0 30 0 0 30 0 0 30 0 0 30 0 0 30 0 0 30 0 0 30 0 0 30 0 0 30 0 0 30 0 0 30 0 0 30 0 0 30 0 0 30 0 0 30 0 0 30 0 0 30 0 0 30 0 0 30 0 0 30 0 0 30 0 0 30 0 0 30 0 0 30 0 0 30 1 1 31 1 1 31 1 1 31 1 1 31 1 1 31 1 1 31 1 1 31 1 1 31 1 1 31 1 1 31 1 1 31 1 1 31 1 1 31 2 2 32 2 2 32 2 2 32 2 2 32 2 2 32 2 2 32 2 2 32 2 2 32 2 2 32 2 2 32 3 3 33 90 0 88 100 0 98 106 0 104 111 0 109 116 0 114 119 0 117 122 0 120 125 0 123 127 0 125 129 0 127 131 0 129 132 0 130 134 0 131 135 0 133 136 0 133 136 0 134 137 0 135 137 0 135 138 0 136 138 0 136 138 0 136 139 0 136 140 0 138 142 0 140 144 0 142 145 0 143 147 0 145 148 0 146 149 0 147 151 0 148 152 0 150 153 0 150 153 1 151 154 1 152 155 1 153 155 0 153 156 0 154 156 0 154 156 0 154 157 0 154 157 0 154 157 0 155 157 0 155 157 0 155 157 0 154 156 0 154 156 0 154 156 0 154 156 0 154 155 0 153 155 0 153 155 0 153 154 0 152 154 0 151 153 0 151 152 0 150 151 0 149 151 0 149 150 0 148 149 0 147 148 0 146 147 0 145 146 0 144 145 0 142 143 0 141 142 0 140 141 0 138 139 0 137 137 0 135 136 0 134 134 0 132 132 0 130 130 0 128 128 0 126 126 0 124 124 0 122 122 0 120 120 0 117 117 0 115 114 0 112 111 0 109 108 0 106 105 0 103 102 0 100 98 0 96 95 0 92 91 0 88 89 0 87 90 0 87 90 0 88 90 0 87 89 0 87 89 0 86 88 0 85 85 0 83 13 13 43 13 13 43 13 13 43 13 13 43 13 13 43 13 13 43 14 14 44 14 14 44 14 14 44 14 14 44 14 14 44 14 14 44 14 14 44 14 14 44 14 14 44 14 14 44 14 14 44 14 14 44 14 14 44 14 14 44 14 14 44 14 14 44 13 13 43 13 13 43 13 13 43 13 13 43 13 13 43 13 13 43 13 13 43 13 13 43 13 13 43 13 13 43 13 13 43 13 13 43 13 13 43 13 13 43 13 13 43 13 13 43 13 13 43 13 13 43 13 13 43 12 12 42 12 12 42 12 12 42 12 12 42 12 12 42 12 12 42 12 12 42 12 12 42 12 12 42 12 12 42 12 12 42 11 11 41 11 11 41 11 11 41 11 11 41 11 11 41 11 11 41 11 11 41 11 11 41 11 11 41 10 10 40 10 10 40 10 10 40 10 10 40 10 10 40 10 10 40 10 10 40 9 9 39 9 9 39 9 9 39 9 9 39 9 9 39 9 9 39 9 9 39 9 9 39 8 8 38 8 8 38 8 8 38 8 8 38 8 8 38 8 8 38 8 8 38 7 7 37 7 7 37 7 7 37 7 7 37 7 7 37 7 7 37 7 7 37 6 6 36 6 6 36 6 6 36 6 6 36 6 6 36 6 6 36 5 5 35 5 5 35 5 5 35 5 5 35 5 5 35 5 5 35 
0 0 30 0 0 30 0 0 30 0 0 30 0 0 30 0 0 30 0 0 30 0 0 30 0 0 30 0 0 30 0 0 30 0 0 30 0 0 30 0 0 30 0 0 30 0 0 30 0 0 30 0 0 30 0 0 30 0 0 30 0 0 30 0 0 30 0 0 30 0 0 30 0 0 30 0 0 30 0 0 30 0 0 30 0 0 30 0 0 30 0 0 30 0 0 30 0 0 30 0 0 30 0 0 30 0 0 30 0 0 30 0 0 30 0 0 30 0 0 30 0 0 30 0 0 30 0 0 30 0 0 30 0 0 30 0 0 30 0 0 30 0 0 30 0 0 30 0 0 30 0 0 30 0 0 30 0 0 30 0 0 30 0 0 30 0 0 30 0 0 30 0 0 30 0 0 30 0 0 30 0 0 30 0 0 30 0 0 30 0 0 30 0 0 30 0 0 30 0 0 30 0 0 30 0 0 30 0 0 30 0 0 30 0 0 30 0 0 30 0 0 30 0 0 30 0 0 30 1 1 31 1 1 31 1 1 31 1 1 31 1 1 31 1 1 31 1 1 31 1 1 31 1 1 31 1 1 31 1 1 31 1 1 31 2 2 32 2 2 32 2 2 32 2 2 32 2 2 32 2 2 32 2 2 32 2 2 32 2 2 32 2 2 32 3 3 33 3 3 33 3 3 33 3 3 33 76 0 74 93 0 91 102 0 100 109 0 107 114 0 112 118 0 116 121 0 119 124 0 122 127 0 125 129 0 127 131 0 129 133 0 131 134 0 132 135 0 133 136 0 134 137 0 135 138 0 136 139 0 137 139 0 137 140 0 137 140 0 138 140 0 138 140 0 138 140 0 138 142 0 140 143 0 141 145 0 143 146 0 144 148 0 146 149 1 147 151 1 148 152 1 150 153 1 151 154 1 152 154 1 152 155 1 153 155 1 153 156 1 154 156 1 154 156 1 154 156 0 154 156 0 154 156 0 154 156 0 154 156 0 154 156 0 154 156 0 154 156 0 153 155 0 153 155 0 153 155 0 152 154 0 152 154 0 152 153 0 151 153 0 151 152 0 150 151 0 149 151 0 148 150 0 148 149 0 147 148 0 146 147 0 145 146 0 144 145 0 143 143 0 141 142 0 140 141 0 139 139 0 137 138 0 136 136 0 134 135 0 133 133 0 131 131 0 129 129 0 127 127 0 125 125 0 123 123 0 121 121 0 119 118 0 116 116 0 114 113 0 111 110 0 108 107 0 105 104 0 102 101 0 99 97 0 95 93 0 91 89 0 87 87 0 85 87 0 85 87 0 85 87 0 85 87 0 84 86 0 84 85 0 83 83 0 81 78 0 76 15 15 45 15 15 45 15 15 45 15 15 45 15 15 45 15 15 45 15 15 45 15 15 45 15 15 45 15 15 45 15 15 45 15 15 45 15 15 45 15 15 45 15 15 45 15 15 45 15 15 45 15 15 45 15 15 45 15 15 45 15 15 45 15 15 45 15 15 45 15 15 45 15 15 45 15 15 45 14 14 44 14 14 44 14 14 44 14 14 44 14 14 44 14 14 44 14 14 44 14 14 44 14 14 44 14 14 44 14 14 44 14 14 44 14 14 44 14 14 44 14 14 44 14 14 44 13 13 43 13 13 43 13 13 43 13 13 43 13 13 43 13 13 43 13 13 43 13 13 43 13 13 43 13 13 43 12 12 42 12 12 42 12 12 42 12 12 42 12 12 42 12 12 42 12 12 42 12 12 42 11 11 41 11 11 41 11 11 41 11 11 41 11 11 41 11 11 41 11 11 41 11 11 41 10 10 40 10 10 40 10 10 40 10 10 40 10 10 40 10 10 40 10 10 40 9 9 39 9 9 39 9 9 39 9 9 39 9 9 39 9 9 39 8 8 38 8 8 38 8 8 38 8 8 38 8 8 38 8 8 38 8 8 38 7 7 37 7 7 37 7 7 37 7 7 37 7 7 37 7 7 37 6 6 36 6 6 36 6 6 36 6 6 36 6 6 36 6 6 36 6 6 36 
0 0 30 0 0 30 0 0 30 0 0 30 0 0 30 0 0 30 0 0 30 0 0 30 0 0 30 0 0 30 0 0 30 0 0 30 0 0 30 0 0 30 0 0 30 0 0 30 0 0 30 0 0 30 0 0 30 0 0 30 0 0 30 0 0 30 0 0 30 0 0 30 0 0 30 0 0 30 0 0 30 0 0 30 0 0 30 0 0 30 0 0 30 0 0 30 0 0 30 0 0 30 0 0 30 0 0 30 0 0 30 0 0 30 0 0 30 0 0 30 0 0 30 0 0 30 0 0 30 0 0 30 0 0 30 0 0 30 0 0 30 0 0 30 0 0 30 0 0 30 0 0 30 0 0 30 0 0 30 0 0 30 0 0 30 0 0 30 0 0 30 0 0 30 0 0 30 0 0 30 0 0 30 0 0 30 0 0 30 0 0 30 0 0 30 0 0 30 0 0 30 0 0 30 0 0 30 0 0 30 0 0 30 0 0 30 1 1 31 1 1 31 1 1 31 1 1 31 1 1 31 1 1 31 1 1 31 1 1 31 1 1 31 1 1 31 1 1 31 1 1 31 2 2 32 2 2 32 2 2 32 2 2 32 2 2 32 2 2 32 2 2 32 2 2 32 2 2 32 2 2 32 3 3 33 3 3 33 3 3 33 3 3 33 3 3 33 3 3 33 3 3 33 3 3 33 81 0 79 96 0 94 105 0 103 111 0 109 116 0 114 120 0 118 123 0 121 126 0 124 129 0 127 131 0 129 133 0 131 134 0 132 136 0 134 137 0 135 138 0 136 139 0 137 140 0 138 140 0 138 141 0 139 141 0 139 141 0 139 142 0 139 142 0 140 142 0 140 142 0 140 143 0 141 145 0 143 146 1 144 148 1 146 149 1 147 151 2 149 152 2 150 153 3 151 154 3 152 155 3 153 156 3 154 156 2 154 156 2 154 156 2 154 156 1 154 156 1 154 156 1 154 156 0 154 156 0 153 155 0 153 155 0 153 155 0 153 155 0 153 154 0 152 154 0 152 154 0 152 153 0 151 153 0 151 152 0 150 152 0 150 151 0 149 150 0 148 150 0 147 149 0 147 148 0 146 147 0 145 146 0 144 145 0 143 144 0 141 142 0 140 141 0 139 140 0 138 138 0 136 137 0 135 135 0 133 134 0 131 132 0 130 130 0 128 128 0 126 126 0 124 124 0 122 122 0 120 120 0 117 117 0 115 115 0 112 112 0 110 109 0 107 106 0 104 103 0 101 100 0 98 96 0 94 92 0 90 88 0 86 84 0 82 84 0 82 84 0 82 84 0 82 84 0 82 83 0 81 82 0 80 81 0 79 77 0 75 16 16 46 16 16 46 16 16 46 16 16 46 16 16 46 16 16 46 16 16 46 16 16 46 16 16 46 16 16 46 16 16 46 16 16 46 16 16 46 16 16 46 16 16 46 16 16 46 16 16 46 16 16 46 16 16 46 16 16 46 16 16 46 16 16 46 16 16 46 16 16 46 16 16 46 16 16 46 16 16 46 16 16 46 16 16 46 16 16 46 15 15 45 15 15 45 15 15 45 15 15 45 15 15 45 15 15 45 15 15 45 15 15 45 15 15 45 15 15 45 15 15 45 15 15 45 15 15 45 15 15 45 14 14 44 14 14 44 14 14 44 14 14 44 14 14 44 14 14 44 14 14 44 14 14 44 14 14 44 13 13 43 13 13 43 13 13 43 13 13 43 13 13 43 13 13 43 13 13 43 13 13 43 12 12 42 12 12 42 12 12 42 12 12 42 12 12 42 12 12 42 12 12 42 12 12 42 11 11 41 11 11 41 11 11 41 11 11 41 11 11 41 11 11 41 10 10 40 10 10 40 10 10 40 10 10 40 10 10 40 10 10 40 10 10 40 9 9 39 9 9 39 9 9 39 9 9 39 9 9 39 9 9 39 8 8 38 8 8 38 8 8 38 8 8 38 8 8 38 8 8 38 7 7 37 7 7 37 7 7 37 7 7 37 7 7 37 7 7 37 6 6 36 
0 0 30 0 0 30 0 0 30 0 0 30 0 0 30 0 0 30 0 0 30 0 0 30 0 0 30 0 0 30 0 0 30 0 0 30 0 0 30 0 0 30 0 0 30 0 0 30 0 0 30 0 0 30 0 0 30 0 0 30 0 0 30 0 0 30 0 0 30 0 0 30 0 0 30 0 0 30 0 0 30 0 0 30 0 0 30 0 0 30 0 0 30 0 0 30 0 0 30 0 0 30 0 0 30 0 0 30 0 0 30 0 0 30 0 0 30 0 0 30 0 0 30 0 0 30 0 0 30 0 0 30 0 0 30 0 0 30 0 0 30 0 0 30 0 0 30 0 0 30 0 0 30 0 0 30 0 0 30 0 0 30 0 0 30 0 0 30 0 0 30 0 0 30 0 0 30 0 0 30 0 0 30 0 0 30 0 0 30 0 0 30 0 0 30 0 0 30 0 0 30 0 0 30 0 0 30 1 1 31 1 1 31 1 1 31 1 1 31 1 1 31 1 1 31 1 1 31 1 1 31 1 1 31 1 1 31 1 1 31 1 1 31 2 2 32 2 2 32 2 2 32 2 2 32 2 2 32 2 2 32 2 2 32 2 2 32 2 2 32 3 3 33 3 3 33 3 3 33 3 3 33 3 3 33 3 3 33 3 3 33 3 3 33 4 4 34 4 4 34 4 4 34 4 4 34 85 0 83 99 0 97 107 0 105 113 0 111 118 0 116 122 0 120 125 0 123 128 0 126 130 0 128 133 0 130 134 0 132 136 0 134 137 0 135 139 0 137 140 0 138 141 0 138 141 0 139 142 0 140 142 0 140 143 0 141 143 0 141 143 0 141 143 0 141 143 0 141 143 0 141 143 0 141 145 1 142 146 1 144 148 2 146 150 3 148 152 3 150 153 4 151 155 4 152 156 5 154 156 5 154 157 5 155 157 4 155 157 4 155 157 3 155 157 3 154 156 2 154 156 1 154 155 1 153 155 1 153 155 0 153 154 0 152 154 0 152 154 0 152 153 0 151 153 0 151 153 0 151 152 0 150 152 0 150 151 0 149 151 0 149 150 0 148 149 0 147 148 0 146 148 0 145 147 0 145 146 0 144 145 0 143 144 0 141 142 0 140 141 0 139 140 0 138 139 0 136 137 0 135 136 0 134 134 0 132 132 0 130 131 0 129 129 0 127 127 0 125 125 0 123 123 0 121 121 0 118 118 0 116 116 0 114 113 0 111 111 0 109 108 0 106 105 0 103 102 0 100 98 0 96 95 0 93 91 0 89 87 0 85 83 0 80 82 0 79 82 0 79 82 0 79 81 0 79 81 0 79 80 0 78 78 0 76 75 0 72 17 17 47 17 17 47 17 17 47 17 17 47 17 17 47 17 17 47 17 17 47 17 17 47 17 17 47 17 17 47 17 17 47 17 17 47 17 17 47 17 17 47 17 17 47 17 17 47 17 17 47 17 17 47 17 17 47 17 17 47 17 17 47 17 17 47 17 17 47 17 17 47 17 17 47 17 17 47 17 17 47 17 17 47 17 17 47 17 17 47 17 17 47 17 17 47 17 17 47 17 17 47 16 16 46 16 16 46 16 16 46 16 16 46 16 16 46 16 16 46 16 16 46 16 16 46 16 16 46 16 16 46 16 16 46 16 16 46 15 15 45 15 15 45 15 15 45 15 15 45 15 15 45 15 15 45 15 15 45 15 15 45 15 15 45 14 14 44 14 14 44 14 14 44 14 14 44 14 14 44 14 14 44 14 14 44 14 14 44 13 13 43 13 13 43 13 13 43 13 13 43 13 13 43 13 13 43 12 12 42 12 12 42 12 12 42 12 12 42 12 12 42 12 12 42 12 12 42 11 11 41 11 11 41 11 11 41 11 11 41 11 11 41 11 11 41 10 10 40 10 10 40 10 10 40 10 10 40 10 10 40 10 10 40 9 9 39 9 9 39 9 9 39 9 9 39 9 9 39 9 9 39 8 8 38 8 8 38 8 8 38 8 8 38 8 8 38 7 7 37 7 7 37 
0 0 30 0 0 30 0 0 30 0 0 30 0 0 30 0 0 30 0 0 30 0 0 30 0 0 30 0 0 30 0 0 30 0 0 30 0 0 30 0 0 30 0 0 30 0 0 30 0 0 30 0 0 30 0 0 30 0 0 30 0 0 30 0 0 30 0 0 30 0 0 30 0 0 30 0 0 30 0 0 30 0 0 30 0 0 30 0 0 30 0 0 30 0 0 30 0 0 30 0 0 30 0 0 30 0 0 30 0 0 30 0 0 30 0 0 30 0 0 30 0 0 30 0 0 30 0 0 30 0 0 30 0 0 30 0 0 30 0 0 30 0 0 30 0 0 30 0 0 30 0 0 30 0 0 30 0 0 30 0 0 30 0 0 30 0 0 30 0 0 30 0 0 30 0 0 30 0 0 30 0 0 30 0 0 30 0 0 30 0 0 30 0 0 30 1 1 31 1 1 31 1 1 31 1 1 31 1 1 31 1 1 31 1 1 31 1 1 31 1 1 31 1 1 31 1 1 31 1 1 31 2 2 32 2 2 32 2 2 32 2 2 32 2 2 32 2 2 32 2 2 32 2 2 32 2 2 32 2 2 32 3 3 33 3 3 33 3 3 33 3 3 33 3 3 33 3 3 33 3 3 33 4 4 34 4 4 34 4 4 34 4 4 34 4 4 34 4 4 34 4 4 34 4 4 34 88 0 86 101 0 99 109 0 107 115 0 113 120 0 117 123 0 121 127 0 125 130 0 127 132 0 130 134 0 132 136 0 134 138 0 136 139 0 137 140 0 138 141 0 139 142 0 140 143 0 141 143 0 141 144 0 142 144 0 142 144 0 142 145 0 143 145 0 143 145 0 143 145 0 143 145 1 143 146 2 144 147 2 145 149 3 147 151 5 149 153 6 151 155 7 153 157 7 155 158 8 156 159 8 157 159 8 157 159 7 157 159 7 157 158 6 156 158 5 156 157 4 155 156 3 154 155 2 153 155 1 153 154 1 152 154 0 152 153 0 151 153 0 151 153 0 150 152 0 150 152 0 150 151 0 149 151 0 149 150 0 148 150 0 147 149 0 147 148 0 146 147 0 145 147 0 144 146 0 143 145 0 142 144 0 141 142 0 140 141 0 139 140 0 138 139 0 137 137 0 135 136 0 134 134 0 132 133 0 131 131 0 129 129 0 127 128 0 125 126 0 124 124 0 122 122 0 119 119 0 117 117 0 115 115 0 112 112 0 110 109 0 107 106 0 104 104 0 101 100 0 98 97 0 95 93 0 91 90 0 88 86 0 84 81 0 79 79 0 77 79 0 77 79 0 77 79 0 76 78 0 76 77 0 75 76 0 73 72 0 70 18 18 48 18 18 48 18 18 48 18 18 48 18 18 48 18 18 48 18 18 48 18 18 48 18 18 48 18 18 48 18 18 48 18 18 48 18 18 48 18 18 48 18 18 48 18 18 48 18 18 48 18 18 48 18 18 48 18 18 48 18 18 48 18 18 48 18 18 48 18 18 48 18 18 48 18 18 48 18 18 48 18 18 48 18 18 48 18 18 48 18 18 48 18 18 48 18 18 48 18 18 48 18 18 48 18 18 48 18 18 48 18 18 48 17 17 47 17 17 47 17 17 47 17 17 47 17 17 47 17 17 47 17 17 47 17 17 47 17 17 47 17 17 47 16 16 46 16 16 46 16 16 46 16 16 46 16 16 46 16 16 46 16 16 46 16 16 46 16 16 46 15 15 45 15 15 45 15 15 45 15 15 45 15 15 45 15 15 45 15 15 45 14 14 44 14 14 44 14 14 44 14 14 44 14 14 44 14 14 44 13 13 43 13 13 43 13 13 43 13 13 43 13 13 43 13 13 43 12 12 42 12 12 42 12 12 42 12 12 42 12 12 42 12 12 42 11 11 41 11 11 41 11 11 41 11 11 41 11 11 41 11 11 41 10 10 40 10 10 40 10 10 40 10 10 40 10 10 40 10 10 40 9 9 39 9 9 39 9 9 39 9 9 39 9 9 39 8 8 38 8 8 38 
0 0 30 0 0 30 0 0 30 0 0 30 0 0 30 0 0 30 0 0 30 0 0 30 0 0 30 0 0 30 0 0 30 0 0 30 0 0 30 0 0 30 0 0 30 0 0 30 0 0 30 0 0 30 0 0 30 0 0 30 0 0 30 0 0 30 0 0 30 0 0 30 0 0 30 0 0 30 0 0 30 0 0 30 0 0 30 0 0 30 0 0 30 0 0 30 0 0 30 0 0 30 0 0 30 0 0 30 0 0 30 0 0 30 0 0 30 0 0 30 0 0 30 0 0 30 0 0 30 0 0 30 0 0 30 0 0 30 0 0 30 0 0 30 0 0 30 0 0 30 0 0 30 0 0 30 0 0 30 0 0 30 0 0 30 0 0 30 0 0 30 0 0 30 0 0 30 0 0 30 0 0 30 0 0 30 1 1 31 1 1 31 1 1 31 1 1 31 1 1 31 1 1 31 1 1 31 1 1 31 1 1 31 1 1 31 1 1 31 1 1 31 2 2 32 2 2 32 2 2 32 2 2 32 2 2 32 2 2 32 2 2 32 2 2 32 2 2 32 3 3 33 3 3 33 3 3 33 3 3 33 3 3 33 3 3 33 3 3 33 3 3 33 4 4 34 4 4 34 4 4 34 4 4 34 4 4 34 4 4 34 4 4 34 5 5 35 5 5 35 5 5 35 5 5 35 91 0 89 103 0 101 111 0 109 117 0 114 121 0 119 125 0 123 128 0 126 131 0 129 134 0 131 136 0 134 138 0 135 139 0 137 141 0 138 142 0 140 143 0 141 144 0 141 144 0 142 145 0 143 145 0 143 146 0 144 146 0 144 146 0 144 146 0 144 147 0 145 147 1 145 148 2 145 148 3 146 149 4 147 150 6 148 153 7 151 156 9 154 158 10 156 160 11 158 161 12 159 162 12 160 163 12 160 162 11 160 162 10 160 161 9 158 159 7 157 158 6 156 157 4 155 156 3 154 155 2 153 154 1 152 153 1 151 153 0 150 152 0 150 152 0 150 151 0 149 151 0 149 150 0 148 150 0 148 149 0 147 148 0 146 148 0 146 147 0 145 146 0 144 145 0 143 144 0 142 143 0 141 142 0 140 141 0 139 140 0 138 139 0 137 138 0 135 136 0 134 135 0 133 133 0 131 132 0 129 130 0 128 128 0 126 126 0 124 124 0 122 122 0 120 120 0 118 118 0 116 116 0 114 113 0 111 111 0 108 108 0 106 105 0 103 102 0 100 99 0 97 96 0 93 92 0 90 88 0 86 84 0 82 80 0 78 76 0 74 76 0 74 76 0 74 76 0 74 75 0 73 74 0 72 73 0 71 70 0 68 19 19 49 19 19 49 19 19 49 19 19 49 19 19 49 19 19 49 19 19 49 20 20 50 20 20 50 20 20 50 20 20 50 20 20 50 20 20 50 20 20 50 20 20 50 20 20 50 20 20 50 20 20 50 20 20 50 20 20 50 20 20 50 20 20 50 20 20 50 20 20 50 19 19 49 19 19 49 19 19 49 19 19 49 19 19 49 19 19 49 19 19 49 19 19 49 19 19 49 19 19 49 19 19 49 19 19 49 19 19 49 19 19 49 19 19 49 19 19 49 19 19 49 18 18 48 18 18 48 18 18 48 18 18 48 18 18 48 18 18 48 18 18 48 18 18 48 18 18 48 17 17 47 17 17 47 17 17 47 17 17 47 17 17 47 17 17 47 17 17 47 17 17 47 16 16 46 16 16 46 16 16 46 16 16 46 16 16 46 16 16 46 16 16 46 15 15 45 15 15 45 15 15 45 15 15 45 15 15 45 15 15 45 14 14 44 14 14 44 14 14 44 14 14 44 14 14 44 14 14 44 13 13 43 13 13 43 13 13 43 13 13 43 13 13 43 13 13 43 12 12 42 12 12 42 12 12 42 12 12 42 12 12 42 11 11 41 11 11 41 11 11 41 11 11 41 11 11 41 11 11 41 10 10 40 10 10 40 10 10 40 10 10 40 10 10 40 9 9 39 9 9 39 
0 0 30 0 0 30 0 0 30 0 0 30 0 0 30 0 0 30 0 0 30 0 0 30 0 0 30 0 0 30 0 0 30 0 0 30 0 0 30 0 0 30 0 0 30 0 0 30 0 0 30 0 0 30 0 0 30 0 0 30 0 0 30 0 0 30 0 0 30 0 0 30 0 0 30 0 0 30 0 0 30 0 0 30 0 0 30 0 0 30 0 0 30 0 0 30 0 0 30 0 0 30 0 0 30 0 0 30 0 0 30 0 0 30 0 0 30 0 0 30 0 0 30 0 0 30 0 0 30 0 0 30 0 0 30 0 0 30 0 0 30 0 0 30 0 0 30 0 0 30 0 0 30 0 0 30 0 0 30 0 0 30 0 0 30 0 0 30 0 0 30 0 0 30 0 0 30 1 1 31 1 1 31 1 1 31 1 1 31 1 1 31 1 1 31 1 1 31 1 1 31 1 1 31 1 1 31 1 1 31 1 1 31 2 2 32 2 2 32 2 2 32 2 2 32 2 2 32 2 2 32 2 2 32 2 2 32 2 2 32 3 3 33 3 3 33 3 3 33 3 3 33 3 3 33 3 3 33 3 3 33 4 4 34 4 4 34 4 4 34 4 4 34 4 4 34 4 4 34 4 4 34 5 5 35 5 5 35 5 5 35 5 5 35 5 5 35 5 5 35 5 5 35 6 6 36 93 0 91 105 0 103 112 0 110 118 0 116 123 0 121 127 0 124 130 0 128 133 0 131 135 0 133 137 0 135 139 0 137 141 0 138 142 0 140 143 0 141 144 0 142 145 0 143 146 0 144 146 0 144 147 0 145 147 0 145 147 0 145 148 0 146 148 0 146 148 1 146 149 2 147 150 3 148 151 4 149 153 6 151 154 8 152 156 11 154 159 13 157 162 15 160 164 17 162 166 18 164 167 18 165 167 18 165 167 17 165 166 15 164 164 13 162 162 11 160 160 9 158 158 7 156 157 5 154 155 3 153 154 2 152 153 1 151 152 1 150 151 0 149 151 0 149 150 0 148 150 0 148 149 0 147 149 0 146 148 0 146 147 0 145 147 0 144 146 0 144 145 0 143 144 0 142 143 0 141 142 0 140 141 0 139 140 0 138 139 0 137 138 0 135 136 0 134 135 0 133 133 0 131 132 0 130 130 0 128 129 0 126 127 0 125 125 0 123 123 0 121 121 0 119 119 0 117 117 0 114 114 0 112 112 0 110 109 0 107 106 0 104 104 0 101 101 0 98 97 0 95 94 0 92 91 0 88 87 0 85 83 0 81 78 0 76 74 0 72 73 0 71 73 0 71 73 0 71 73 0 70 72 0 70 70 0 68 67 0 65 20 20 50 21 21 51 21 21 51 21 21 51 21 21 51 21 21 51 21 21 51 21 21 51 21 21 51 21 21 51 21 21 51 21 21 51 21 21 51 21 21 51 21 21 51 21 21 51 21 21 51 21 21 51 21 21 51 21 21 51 21 21 51 21 21 51 21 21 51 21 21 51 21 21 51 21 21 51 21 21 51 21 21 51 21 21 51 21 21 51 21 21 51 20 20 50 20 20 50 20 20 50 20 20 50 20 20 50 20 20 50 20 20 50 20 20 50 20 20 50 20 20 50 20 20 50 20 20 50 20 20 50 19 19 49 19 19 49 19 19 49 19 19 49 19 19 49 19 19 49 19 19 49 19 19 49 19 19 49 18 18 48 18 18 48 18 18 48 18 18 48 18 18 48 18 18 48 18 18 48 17 17 47 17 17 47 17 17 47 17 17 47 17 17 47 17 17 47 16 16 46 16 16 46 16 16 46 16 16 46 16 16 46 16 16 46 15 15 45 15 15 45 15 15 45 15 15 45 15 15 45 15 15 45 14 14 44 14 14 44 14 14 44 14 14 44 14 14 44 13 13 43 13 13 43 13 13 43 13 13 43 13 13 43 13 13 43 12 12 42 12 12 42 12 12 42 12 12 42 12 12 42 11 11 41 11 11 41 11 11 41 11 11 41 11 11 41 10 10 40 10 10 40 
0 0 30 0 0 30 0 0 30 0 0 30 0 0 30 0 0 30 0 0 30 0 0 30 0 0 30 0 0 30 0 0 30 0 0 30 0 0 30 0 0 30 0 0 30 0 0 30 0 0 30 0 0 30 0 0 30 0 0 30 0 0 30 0 0 30 0 0 30 0 0 30 0 0 30 0 0 30 0 0 30 0 0 30 0 0 30 0 0 30 0 0 30 0 0 30 0 0 30 0 0 30 0 0 30 0 0 30 0 0 30 0 0 30 0 0 30 0 0 30 0 0 30 0 0 30 0 0 30 0 0 30 0 0 30 0 0 30 0 0 30 0 0 30 0 0 30 0 0 30 0 0 30 0 0 30 0 0 30 0 0 30 0 0 30 0 0 30 1 1 31 1 1 31 1 1 31 1 1 31 1 1 31 1 1 31 1 1 31 1 1 31 1 1 31 1 1 31 1 1 31 2 2 32 2 2 32 2 2 32 2 2 32 2 2 32 2 2 32 2 2 32 2 2 32 2 2 32 3 3 33 3 3 33 3 3 33 3 3 33 3 3 33 3 3 33 3 3 33 3 3 33 4 4 34 4 4 34 4 4 34 4 4 34 4 4 34 4 4 34 4 4 34 5 5 35 5 5 35 5 5 35 5 5 35 5 5 35 5 5 35 6 6 36 6 6 36 6 6 36 6 6 36 6 6 36 95 0 93 107 0 104 114 0 112 120 0 117 124 0 122 128 0 126 131 0 129 134 0 132 136 0 134 139 0 136 140 0 138 142 0 140 143 0 141 144 0 142 145 0 143 146 0 144 147 0 145 148 0 145 148 0 146 148 0 146 149 0 147 149 0 147 150 0 147 150 1 148 151 2 149 153 4 151 155 6 152 157 9 155 159 12 157 162 15 160 165 19 163 167 22 165 171 24 168 173 25 171 174 26 172 174 25 172 173 24 171 171 22 169 169 19 167 166 16 164 163 13 161 160 10 158 158 7 156 156 5 154 154 3 152 153 2 150 151 1 149 150 1 148 150 0 148 149 0 147 149 0 146 148 0 146 147 0 145 147 0 145 146 0 144 145 0 143 145 0 143 144 0 142 143 0 141 142 0 140 141 0 139 140 0 138 139 0 137 137 0 135 136 0 134 135 0 133 133 0 131 132 0 130 130 0 128 129 0 127 127 0 125 125 0 123 123 0 121 121 0 119 119 0 117 117 0 115 115 0 113 113 0 111 110 0 108 108 0 106 105 0 103 102 0 100 99 0 97 96 0 94 93 0 90 89 0 87 85 0 83 81 0 79 77 0 75 72 0 70 71 0 69 71 0 69 70 0 68 70 0 68 69 0 67 67 0 65 65 0 63 22 22 52 22 22 52 22 22 52 22 22 52 22 22 52 22 22 52 22 22 52 22 22 52 22 22 52 22 22 52 22 22 52 22 22 52 22 22 52 22 22 52 22 22 52 22 22 52 22 22 52 22 22 52 22 22 52 22 22 52 22 22 52 22 22 52 22 22 52 22 22 52 22 22 52 22 22 52 22 22 52 22 22 52 22 22 52 22 22 52 22 22 52 22 22 52 22 22 52 22 22 52 22 22 52 21 21 51 21 21 51 21 21 51 21 21 51 21 21 51 21 21 51 21 21 51 21 21 51 21 21 51 21 21 51 21 21 51 20 20 50 20 20 50 20 20 50 20 20 50 20 20 50 20 20 50 20 20 50 20 20 50 20 20 50 19 19 49 19 19 49 19 19 49 19 19 49 19 19 49 19 19 49 19 19 49 18 18 48 18 18 48 18 18 48 18 18 48 18 18 48 18 18 48 17 17 47 17 17 47 17 17 47 17 17 47 17 17 47 17 17 47 16 16 46 16 16 46 16 16 46 16 16 46 16 16 46 15 15 45 15 15 45 15 15 45 15 15 45 15 15 45 14 14 44 14 14 44 14 14 44 14 14 44 14 14 44 13 13 43 13 13 43 13 13 43 13 13 43 13 13 43 12 12 42 12 12 42 12 12 42 12 12 42 12 12 42 11 11 41 11 11 41 
0 0 30 0 0 30 0 0 30 0 0 30 0 0 30 0 0 30 0 0 30 0 0 30 0 0 30 0 0 30 0 0 30 0 0 30 0 0 30 0 0 30 0 0 30 0 0 30 0 0 30 0 0 30 0 0 30 0 0 30 0 0 30 0 0 30 0 0 30 0 0 30 0 0 30 0 0 30 0 0 30 0 0 30 0 0 30 0 0 30 0 0 30 0 0 30 0 0 30 0 0 30 0 0 30 0 0 30 0 0 30 0 0 30 0 0 30 0 0 30 0 0 30 0 0 30 0 0 30 0 0 30 0 0 30 0 0 30 0 0 30 0 0 30 0 0 30 0 0 30 0 0 30 0 0 30 0 0 30 1 1 31 1 1 31 1 1 31 1 1 31 1 1 31 1 1 31 1 1 31 1 1 31 1 1 31 1 1 31 1 1 31 2 2 32 2 2 32 2 2 32 2 2 32 2 2 32 2 2 32 2 2 32 2 2 32 2 2 32 3 3 33 3 3 33 3 3 33 3 3 33 3 3 33 3 3 33 3 3 33 3 3 33 4 4 34 4 4 34 4 4 34 4 4 34 4 4 34 4 4 34 4 4 34 5 5 35 5 5 35 5 5 35 5 5 35 5 5 35 5 5 35 6 6 36 6 6 36 6 6 36 6 6 36 6 6 36 6 6 36 7 7 37 7 7 37 97 0 95 108 0 106 115 0 113 121 0 119 126 0 123 129 0 127 133 0 130 135 0 133 138 0 136 140 0 138 142 0 140 143 0 141 145 0 142 146 0 144 147 0 145 148 0 145 148 0 146 149 0 147 149 0 147 150 0 148 150 0 148 151 0 148 151 1 149 152 2 150 154 4 151 156 6 153 158 9 156 161 12 159 165 17 163 169 21 167 173 25 171 176 29 174 178 32 176 181 34 179 182 35 180 182 34 180 181 33 178 178 30 176 175 26 173 171 22 169 167 18 165 163 14 161 160 10 158 157 7 155 154 5 152 152 3 150 151 2 149 150 1 148 149 0 147 148 0 146 147 0 145 147 0 145 146 0 144 146 0 143 145 0 143 144 0 142 143 0 141 143 0 140 142 0 139 141 0 139 140 0 137 139 0 136 137 0 135 136 0 134 135 0 133 133 0 131 132 0 130 131 0 128 129 0 127 127 0 125 126 0 124 124 0 122 122 0 120 120 0 118 118 0 116 116 0 114 114 0 111 111 0 109 109 0 107 106 0 104 103 0 101 101 0 98 97 0 95 94 0 92 91 0 89 87 0 85 84 0 81 79 0 77 75 0 73 70 0 68 68 0 66 68 0 66 68 0 65 67 0 65 66 0 64 65 0 63 62 0 60 23 23 53 23 23 53 23 23 53 23 23 53 23 23 53 23 23 53 23 23 53 23 23 53 23 23 53 23 23 53 23 23 53 23 23 53 23 23 53 23 23 53 23 23 53 23 23 53 23 23 53 23 23 53 23 23 53 23 23 53 23 23 53 23 23 53 23 23 53 23 23 53 23 23 53 23 23 53 23 23 53 23 23 53 23 23 53 23 23 53 23 23 53 23 23 53 23 23 53 23 23 53 23 23 53 23 23 53 23 23 53 23 23 53 23 23 53 22 22 52 22 22 52 22 22 52 22 22 52 22 22 52 22 22 52 22 22 52 22 22 52 22 22 52 22 22 52 21 21 51 21 21 51 21 21 51 21 21 51 21 21 51 21 21 51 21 21 51 21 21 51 20 20 50 20 20 50 20 20 50 20 20 50 20 20 50 20 20 50 19 19 49 19 19 49 19 19 49 19 19 49 19 19 49 19 19 49 18 18 48 18 18 48 18 18 48 18 18 48 18 18 48 18 18 48 17 17 47 17 17 47 17 17 47 17 17 47 17 17 47 16 16 46 16 16 46 16 16 46 16 16 46 16 16 46 15 15 45 15 15 45 15 15 45 15 15 45 15 15 45 14 14 44 14 14 44 14 14 44 14 14 44 14 14 44 13 13 43 13 13 43 13 13 43 13 13 43 12 12 42 12 12 42 
0 0 30 0 0 30 0 0 30 0 0 30 0 0 30 0 0 30 0 0 30 0 0 30 0 0 30 0 0 30 0 0 30 0 0 30 0 0 30 0 0 30 0 0 30 0 0 30 0 0 30 0 0 30 0 0 30 0 0 30 0 0 30 0 0 30 0 0 30 0 0 30 0 0 30 0 0 30 0 0 30 0 0 30 0 0 30 0 0 30 0 0 30 0 0 30 0 0 30 0 0 30 0 0 30 0 0 30 0 0 30 0 0 30 0 0 30 0 0 30 0 0 30 0 0 30 0 0 30 0 0 30 0 0 30 0 0 30 0 0 30 0 0 30 0 0 30 0 0 30 1 1 31 1 1 31 1 1 31 1 1 31 1 1 31 1 1 31 1 1 31 1 1 31 1 1 31 1 1 31 1 1 31 2 2 32 2 2 32 2 2 32 2 2 32 2 2 32 2 2 32 2 2 32 2 2 32 2 2 32 3 3 33 3 3 33 3 3 33 3 3 33 3 3 33 3 3 33 3 3 33 3 3 33 4 4 34 4 4 34 4 4 34 4 4 34 4 4 34 4 4 34 5 5 35 5 5 35 5 5 35 5 5 35 5 5 35 5 5 35 6 6 36 6 6 36 6 6 36 6 6 36 6 6 36 6 6 36 7 7 37 7 7 37 7 7 37 7 7 37 7 7 37 7 7 37 98 0 96 109 0 107 116 0 114 122 0 120 127 0 125 131 0 128 134 0 132 137 0 134 139 0 137 141 0 139 143 0 141 144 0 142 146 0 144 147 0 145 148 0 146 149 0 147 149 0 147 150 0 148 150 0 148 151 0 149 151 0 149 152 0 150 153 1 151 154 3 152 156 5 154 159 8 157 162 12 160 167 17 165 172 22 170 177 28 175 182 33 180 186 39 184 190 43 187 191 45 189 192 46 190 192 45 190 190 43 188 186 39 184 182 34 180 177 29 175 172 24 170 167 19 165 162 14 160 158 10 156 155 7 153 153 5 151 151 3 149 149 2 147 148 1 146 147 0 145 146 0 144 146 0 144 145 0 143 144 0 142 144 0 141 143 0 141 142 0 140 141 0 139 140 0 138 139 0 137 138 0 136 137 0 135 136 0 134 135 0 133 133 0 131 132 0 130 131 0 129 129 0 127 128 0 125 126 0 124 124 0 122 122 0 120 120 0 118 118 0 116 116 0 114 114 0 112 112 0 110 110 0 107 107 0 105 104 0 102 102 0 100 99 0 97 96 0 94 93 0 90 89 0 87 86 0 84 82 0 80 78 0 76 73 0 71 69 0 67 65 0 63 65 0 63 65 0 63 64 0 62 63 0 61 62 0 60 59 0 57 24 24 54 24 24 54 24 24 54 24 24 54 24 24 54 24 24 54 25 25 55 25 25 55 25 25 55 25 25 55 25 25 55 25 25 55 25 25 55 25 25 55 25 25 55 25 25 55 25 25 55 25 25 55 25 25 55 25 25 55 25 25 55 25 25 55 25 25 55 25 25 55 25 25 55 25 25 55 25 25 55 25 25 55 25 25 55 24 24 54 24 24 54 24 24 54 24 24 54 24 24 54 24 24 54 24 24 54 24 24 54 24 24 54 24 24 54 24 24 54 24 24 54 24 24 54 24 24 54 23 23 53 23 23 53 23 23 53 23 23 53 23 23 53 23 23 53 23 23 53 23 23 53 22 22 52 22 22 52 22 22 52 22 22 52 22 22 52 22 22 52 22 22 52 22 22 52 21 21 51 21 21 51 21 21 51 21 21 51 21 21 51 21 21 51 20 20 50 20 20 50 20 20 50 20 20 50 20 20 50 20 20 50 19 19 49 19 19 49 19 19 49 19 19 49 19 19 49 18 18 48 18 18 48 18 18 48 18 18 48 18 18 48 17 17 47 17 17 47 17 17 47 17 17 47 17 17 47 16 16 46 16 16 46 16 16 46 16 16 46 16 16 46 15 15 45 15 15 45 15 15 45 15 15 45 14 14 44 14 14 44 14 14 44 14 14 44 14 14 44 13 13 43 
0 0 30 0 0 30 0 0 30 0 0 30 0 0 30 0 0 30 0 0 30 0 0 30 0 0 30 0 0 30 0 0 30 0 0 30 0 0 30 0 0 30 0 0 30 0 0 30 0 0 30 0 0 30 0 0 30 0 0 30 0 0 30 0 0 30 0 0 30 0 0 30 0 0 30 0 0 30 0 0 30 0 0 30 0 0 30 0 0 30 0 0 30 0 0 30 0 0 30 0 0 30 0 0 30 0 0 30 0 0 30 0 0 30 0 0 30 0 0 30 0 0 30 0 0 30 0 0 30 0 0 30 0 0 30 0 0 30 0 0 30 1 1 31 1 1 31 1 1 31 1 1 31 1 1 31 1 1 31 1 1 31 1 1 31 1 1 31 1 1 31 1 1 31 2 2 32 2 2 32 2 2 32 2 2 32 2 2 32 2 2 32 2 2 32 2 2 32 2 2 32 3 3 33 3 3 33 3 3 33 3 3 33 3 3 33 3 3 33 3 3 33 3 3 33 4 4 34 4 4 34 4 4 34 4 4 34 4 4 34 4 4 34 5 5 35 5 5 35 5 5 35 5 5 35 5 5 35 5 5 35 6 6 36 6 6 36 6 6 36 6 6 36 6 6 36 6 6 36 7 7 37 7 7 37 7 7 37 7 7 37 7 7 37 8 8 38 8 8 38 8 8 38 8 8 38 99 0 97 110 0 108 118 0 115 123 0 121 128 0 126 132 0 129 135 0 133 138 0 135 140 0 138 142 0 140 144 0 142 145 0 143 147 0 145 148 0 146 149 0 147 150 0 148 151 0 148 151 0 149 152 0 149 152 0 150 153 0 150 153 1 151 154 2 152 156 4 154 159 6 156 162 10 160 167 15 165 172 21 170 179 28 177 185 35 183 192 42 190 198 49 196 202 54 200 205 57 202 205 59 203 203 58 201 201 55 198 196 50 194 191 44 188 184 37 182 178 31 175 171 24 169 165 18 163 160 13 158 156 9 154 153 6 151 150 4 148 149 2 146 147 1 145 146 0 144 145 0 143 144 0 142 144 0 142 143 0 141 142 0 140 141 0 139 141 0 139 140 0 138 139 0 137 138 0 136 137 0 135 136 0 134 135 0 132 133 0 131 132 0 130 131 0 128 129 0 127 128 0 126 126 0 124 124 0 122 123 0 120 121 0 119 119 0 117 117 0 115 115 0 113 113 0 110 110 0 108 108 0 106 105 0 103 103 0 101 100 0 98 97 0 95 94 0 92 91 0 89 87 0 85 84 0 82 80 0 78 76 0 74 72 0 69 67 0 65 62 0 60 62 0 60 62 0 60 61 0 59 61 0 58 59 0 57 56 0 54 25 25 55 26 26 56 26 26 56 26 26 56 26 26 56 26 26 56 26 26 56 26 26 56 26 26 56 26 26 56 26 26 56 26 26 56 26 26 56 26 26 56 26 26 56 26 26 56 26 26 56 26 26 56 26 26 56 26 26 56 26 26 56 26 26 56 26 26 56 26 26 56 26 26 56 26 26 56 26 26 56 26 26 56 26 26 56 26 26 56 26 26 56 26 26 56 26 26 56 26 26 56 25 25 55 25 25 55 25 25 55 25 25 55 25 25 55 25 25 55 25 25 55 25 25 55 25 25 55 25 25 55 25 25 55 25 25 55 24 24 54 24 24 54 24 24 54 24 24 54 24 24 54 24 24 54 24 24 54 24 24 54 23 23 53 23 23 53 23 23 53 23 23 53 23 23 53 23 23 53 23 23 53 22 22 52 22 22 52 22 22 52 22 22 52 22 22 52 22 22 52 21 21 51 21 21 51 21 21 51 21 21 51 21 21 51 20 20 50 20 20 50 20 20 50 20 20 50 20 20 50 19 19 49 19 19 49 19 19 49 19 19 49 19 19 49 18 18 48 18 18 48 18 18 48 18 18 48 18 18 48 17 17 47 17 17 47 17 17 47 17 17 47 16 16 46 16 16 46 16 16 46 16 16 46 16 16 46 15 15 45 15 15 45 15 15 45 15 15 45 14 14 44 
0 0 30 0 0 30 0 0 30 0 0 30 0 0 30 0 0 30 0 0 30 0 0 30 0 0 30 0 0 30 0 0 30 0 0 30 0 0 30 0 0 30 0 0 30 0 0 30 0 0 30 0 0 30 0 0 30 0 0 30 0 0 30 0 0 30 0 0 30 0 0 30 0 0 30 0 0 30 0 0 30 0 0 30 0 0 30 0 0 30 0 0 30 0 0 30 0 0 30 0 0 30 0 0 30 0 0 30 0 0 30 0 0 30 0 0 30 0 0 30 0 0 30 0 0 30 0 0 30 0 0 30 1 1 31 1 1 31 1 1 31 1 1 31 1 1 31 1 1 31 1 1 31 1 1 31 1 1 31 1 1 31 1 1 31 2 2 32 2 2 32 2 2 32 2 2 32 2 2 32 2 2 32 2 2 32 2 2 32 2 2 32 3 3 33 3 3 33 3 3 33 3 3 33 3 3 33 3 3 33 3 3 33 4 4 34 4 4 34 4 4 34 4 4 34 4 4 34 4 4 34 4 4 34 5 5 35 5 5 35 5 5 35 5 5 35 5 5 35 5 5 35 6 6 36 6 6 36 6 6 36 6 6 36 6 6 36 6 6 36 7 7 37 7 7 37 7 7 37 7 7 37 7 7 37 8 8 38 8 8 38 8 8 38 8 8 38 8 8 38 9 9 39 9 9 39 99 0 97 111 0 109 118 0 116 124 0 122 129 0 127 133 0 130 136 0 134 139 0 136 141 0 139 143 0 141 145 0 143 147 0 144 148 0 146 149 0 147 150 0 148 151 0 149 152 0 149 152 0 150 153 0 151 153 0 151 154 0 152 155 1 153 156 2 154 158 5 156 161 8 159 165 12 163 171 18 169 178 26 176 186 34 184 194 43 192 202 52 200 210 60 208 215 66 213 219 70 217 219 72 217 217 71 215 213 67 211 207 62 205 200 55 198 192 47 190 184 38 182 176 30 174 169 23 167 163 17 161 158 12 155 154 8 151 150 5 148 148 3 146 146 2 144 145 1 143 144 0 142 143 0 141 142 0 140 142 0 140 141 0 139 140 0 138 139 0 137 138 0 136 137 0 135 136 0 134 135 0 133 134 0 132 133 0 131 132 0 130 130 0 128 129 0 127 128 0 125 126 0 124 124 0 122 123 0 121 121 0 119 119 0 117 117 0 115 115 0 113 113 0 111 111 0 109 109 0 107 106 0 104 104 0 102 101 0 99 98 0 96 95 0 93 92 0 90 89 0 87 86 0 83 82 0 80 78 0 76 74 0 72 70 0 67 65 0 63 60 0 58 60 0 57 59 0 57 59 0 57 58 0 56 56 0 54 53 0 51 27 27 57 27 27 57 27 27 57 27 27 57 27 27 57 27 27 57 27 27 57 27 27 57 27 27 57 27 27 57 27 27 57 27 27 57 27 27 57 27 27 57 27 27 57 27 27 57 27 27 57 27 27 57 27 27 57 27 27 57 27 27 57 27 27 57 27 27 57 27 27 57 27 27 57 27 27 57 27 27 57 27 27 57 27 27 57 27 27 57 27 27 57 27 27 57 27 27 57 27 27 57 27 27 57 27 27 57 27 27 57 27 27 57 27 27 57 26 26 56 26 26 56 26 26 56 26 26 56 26 26 56 26 26 56 26 26 56 26 26 56 26 26 56 26 26 56 25 25 55 25 25 55 25 25 55 25 25 55 25 25 55 25 25 55 25 25 55 24 24 54 24 24 54 24 24 54 24 24 54 24 24 54 24 24 54 23 23 53 23 23 53 23 23 53 23 23 53 23 23 53 23 23 53 22 22 52 22 22 52 22 22 52 22 22 52 22 22 52 21 21 51 21 21 51 21 21 51 21 21 51 21 21 51 20 20 50 20 20 50 20 20 50 20 20 50 20 20 50 19 19 49 19 19 49 19 19 49 19 19 49 19 19 49 18 18 48 18 18 48 18 18 48 18 18 48 17 17 47 17 17 47 17 17 47 17 17 47 17 17 47 16 16 46 16 16 46 16 16 46 16 16 46 
0 0 30 0 0 30 0 0 30 0 0 30 0 0 30 0 0 30 0 0 30 0 0 30 0 0 30 0 0 30 0 0 30 0 0 30 0 0 30 0 0 30 0 0 30 0 0 30 0 0 30 0 0 30 0 0 30 0 0 30 0 0 30 0 0 30 0 0 30 0 0 30 0 0 30 0 0 30 0 0 30 0 0 30 0 0 30 0 0 30 0 0 30 0 0 30 0 0 30 0 0 30 0 0 30 0 0 30 0 0 30 0 0 30 0 0 30 0 0 30 0 0 30 1 1 31 1 1 31 1 1 31 1 1 31 1 1 31 1 1 31 1 1 31 1 1 31 1 1 31 1 1 31 1 1 31 1 1 31 2 2 32 2 2 32 2 2 32 2 2 32 2 2 32 2 2 32 2 2 32 2 2 32 3 3 33 3 3 33 3 3 33 3 3 33 3 3 33 3 3 33 3 3 33 3 3 33 4 4 34 4 4 34 4 4 34 4 4 34 4 4 34 4 4 34 5 5 35 5 5 35 5 5 35 5 5 35 5 5 35 5 5 35 6 6 36 6 6 36 6 6 36 6 6 36 6 6 36 6 6 36 7 7 37 7 7 37 7 7 37 7 7 37 7 7 37 8 8 38 8 8 38 8 8 38 8 8 38 8 8 38 9 9 39 9 9 39 9 9 39 9 9 39 9 9 39 99 0 97 111 0 109 119 0 117 125 0 123 130 0 127 133 0 131 137 0 135 140 0 137 142 0 140 144 0 142 146 0 144 147 0 145 149 0 147 150 0 148 151 0 149 152 0 150 153 0 150 153 0 151 154 0 152 154 0 152 155 0 153 156 1 154 157 3 155 160 5 158 164 9 161 169 15 167 175 22 173 184 30 182 193 40 191 203 51 201 213 61 211 222 71 219 228 78 226 233 83 231 234 86 232 232 85 230 227 81 225 219 74 217 210 66 208 200 56 198 191 46 188 181 37 179 173 28 171 165 21 163 159 15 157 154 10 152 150 6 148 148 4 145 145 2 143 144 1 142 143 0 141 142 0 140 141 0 139 140 0 138 139 0 137 139 0 137 138 0 136 137 0 135 136 0 134 135 0 133 134 0 132 133 0 131 132 0 129 130 0 128 129 0 127 127 0 125 126 0 124 124 0 122 123 0 121 121 0 119 119 0 117 118 0 115 116 0 113 114 0 111 111 0 109 109 0 107 107 0 105 104 0 102 102 0 100 99 0 97 96 0 94 94 0 91 90 0 88 87 0 85 84 0 82 80 0 78 76 0 74 72 0 70 68 0 65 63 0 61 58 0 55 57 0 55 56 0 54 56 0 54 55 0 53 53 0 51 50 0 48 28 28 58 28 28 58 28 28 58 28 28 58 28 28 58 28 28 58 28 28 58 28 28 58 28 28 58 29 29 59 29 29 59 29 29 59 29 29 59 29 29 59 29 29 59 29 29 59 29 29 59 29 29 59 29 29 59 29 29 59 29 29 59 29 29 59 29 29 59 29 29 59 29 29 59 29 29 59 29 29 59 29 29 59 28 28 58 28 28 58 28 28 58 28 28 58 28 28 58 28 28 58 28 28 58 28 28 58 28 28 58 28 28 58 28 28 58 28 28 58 28 28 58 28 28 58 28 28 58 27 27 57 27 27 57 27 27 57 27 27 57 27 27 57 27 27 57 27 27 57 27 27 57 26 26 56 26 26 56 26 26 56 26 26 56 26 26 56 26 26 56 26 26 56 25 25 55 25 25 55 25 25 55 25 25 55 25 25 55 25 25 55 24 24 54 24 24 54 24 24 54 24 24 54 24 24 54 24 24 54 23 23 53 23 23 53 23 23 53 23 23 53 23 23 53 22 22 52 22 22 52 22 22 52 22 22 52 22 22 52 21 21 51 21 21 51 21 21 51 21 21 51 20 20 50 20 20 50 20 20 50 20 20 50 20 20 50 19 19 49 19 19 49 19 19 49 19 19 49 18 18 48 18 18 48 18 18 48 18 18 48 17 17 47 17 17 47 17 17 47 17 17 47 
0 0 30 0 0 30 0 0 30 0 0 30 0 0 30 0 0 30 0 0 30 0 0 30 0 0 30 0 0 30 0 0 30 0 0 30 0 0 30 0 0 30 0 0 30 0 0 30 0 0 30 0 0 30 0 0 30 0 0 30 0 0 30 0 0 30 0 0 30 0 0 30 0 0 30 0 0 30 0 0 30 0 0 30 0 0 30 0 0 30 0 0 30 0 0 30 0 0 30 0 0 30 0 0 30 0 0 30 0 0 30 0 0 30 0 0 30 1 1 31 1 1 31 1 1 31 1 1 31 1 1 31 1 1 31 1 1 31 1 1 31 1 1 31 1 1 31 1 1 31 2 2 32 2 2 32 2 2 32 2 2 32 2 2 32 2 2 32 2 2 32 2 2 32 3 3 33 3 3 33 3 3 33 3 3 33 3 3 33 3 3 33 3 3 33 3 3 33 4 4 34 4 4 34 4 4 34 4 4 34 4 4 34 4 4 34 5 5 35 5 5 35 5 5 35 5 5 35 5 5 35 5 5 35 6 6 36 6 6 36 6 6 36 6 6 36 6 6 36 6 6 36 7 7 37 7 7 37 7 7 37 7 7 37 7 7 37 8 8 38 8 8 38 8 8 38 8 8 38 8 8 38 9 9 39 9 9 39 9 9 39 9 9 39 10 10 40 10 10 40 10 10 40 10 10 40 10 10 40 112 0 110 120 0 117 125 0 123 130 0 128 134 0 132 137 0 135 140 0 138 143 0 141 145 0 143 147 0 145 148 0 146 150 0 148 151 0 149 152 0 150 153 0 151 153 0 151 154 0 152 155 0 152 155 0 153 156 0 154 157 1 155 159 3 157 162 6 160 166 11 164 172 17 170 179 25 177 189 35 187 200 46 197 211 58 209 222 70 220 233 81 231 241 90 239 246 96 244 248 99 246 246 98 244 240 93 238 232 86 230 221 76 219 209 65 207 197 54 195 186 43 184 176 33 174 168 25 166 160 17 158 155 12 153 150 8 148 147 5 145 145 3 142 143 1 141 141 1 139 140 0 138 140 0 137 139 0 137 138 0 136 137 0 135 136 0 134 135 0 133 134 0 132 133 0 131 132 0 130 131 0 129 130 0 128 129 0 127 127 0 125 126 0 124 124 0 122 123 0 121 121 0 119 119 0 117 118 0 116 116 0 114 114 0 112 112 0 110 110 0 108 107 0 105 105 0 103 103 0 101 100 0 98 97 0 95 95 0 92 92 0 89 88 0 86 85 0 83 82 0 80 78 0 76 74 0 72 70 0 68 65 0 63 61 0 58 55 0 53 54 0 52 54 0 51 53 0 51 52 0 50 50 0 48 29 29 59 29 29 59 29 29 59 29 29 59 29 29 59 30 30 60 30 30 60 30 30 60 30 30 60 30 30 60 30 30 60 30 30 60 30 30 60 30 30 60 30 30 60 30 30 60 30 30 60 30 30 60 30 30 60 30 30 60 30 30 60 30 30 60 30 30 60 30 30 60 30 30 60 30 30 60 30 30 60 30 30 60 30 30 60 30 30 60 30 30 60 30 30 60 30 30 60 30 30 60 30 30 60 29 29 59 29 29 59 29 29 59 29 29 59 29 29 59 29 29 59 29 29 59 29 29 59 29 29 59 29 29 59 29 29 59 29 29 59 28 28 58 28 28 58 28 28 58 28 28 58 28 28 58 28 28 58 28 28 58 28 28 58 27 27 57 27 27 57 27 27 57 27 27 57 27 27 57 27 27 57 26 26 56 26 26 56 26 26 56 26 26 56 26 26 56 26 26 56 25 25 55 25 25 55 25 25 55 25 25 55 25 25 55 24 24 54 24 24 54 24 24 54 24 24 54 24 24 54 23 23 53 23 23 53 23 23 53 23 23 53 23 23 53 22 22 52 22 22 52 22 22 52 22 22 52 21 21 51 21 21 51 21 21 51 21 21 51 21 21 51 20 20 50 20 20 50 20 20 50 20 20 50 19 19 49 19 19 49 19 19 49 19 19 49 18 18 48 18 18 48 18 18 48 
0 0 30 0 0 30 0 0 30 0 0 30 0 0 30 0 0 30 0 0 30 0 0 30 0 0 30 0 0 30 0 0 30 0 0 30 0 0 30 0 0 30 0 0 30 0 0 30 0 0 30 0 0 30 0 0 30 0 0 30 0 0 30 0 0 30 0 0 30 0 0 30 0 0 30 0 0 30 0 0 30 0 0 30 0 0 30 0 0 30 0 0 30 0 0 30 0 0 30 0 0 30 0 0 30 0 0 30 1 1 31 1 1 31 1 1 31 1 1 31 1 1 31 1 1 31 1 1 31 1 1 31 1 1 31 1 1 31 1 1 31 2 2 32 2 2 32 2 2 32 2 2 32 2 2 32 2 2 32 2 2 32 2 2 32 2 2 32 3 3 33 3 3 33 3 3 33 3 3 33 3 3 33 3 3 33 3 3 33 4 4 34 4 4 34 4 4 34 4 4 34 4 4 34 4 4 34 5 5 35 5 5 35 5 5 35 5 5 35 5 5 35 5 5 35 6 6 36 6 6 36 6 6 36 6 6 36 6 6 36 6 6 36 7 7 37 7 7 37 7 7 37 7 7 37 7 7 37 8 8 38 8 8 38 8 8 38 8 8 38 8 8 38 9 9 39 9 9 39 9 9 39 9 9 39 10 10 40 10 10 40 10 10 40 10 10 40 10 10 40 11 11 41 11 11 41 11 11 41 112 0 110 120 0 118 126 0 124 131 0 129 135 0 133 138 0 136 141 0 139 143 0 141 146 0 144 148 0 145 149 0 147 151 0 148 152 0 150 153 0 151 154 0 151 154 0 152 155 0 153 155 0 153 156 0 154 157 1 155 158 2 156 160 4 158 163 7 161 168 12 166 174 18 172 183 27 181 193 38 191 205 50 203 218 64 216 231 77 229 242 90 240 252 100 250 255 107 255 255 110 255 255 109 255 253 104 250 243 96 241 232 86 230 219 74 216 205 61 203 191 49 189 180 38 177 170 28 168 162 20 159 155 14 153 150 9 148 146 6 144 144 3 141 142 2 140 140 1 138 139 0 137 138 0 136 137 0 135 136 0 134 136 0 134 135 0 133 134 0 132 133 0 131 132 0 130 131 0 129 130 0 127 128 0 126 127 0 125 126 0 123 124 0 122 123 0 121 121 0 119 119 0 117 118 0 116 116 0 114 114 0 112 112 0 110 110 0 108 108 0 106 106 0 103 103 0 101 101 0 99 98 0 96 95 0 93 93 0 91 90 0 88 86 0 84 83 0 81 80 0 78 76 0 74 72 0 70 68 0 66 63 0 61 58 0 56 53 0 51 51 0 49 51 0 49 50 0 48 49 0 47 47 0 45 30 30 60 31 31 61 31 31 61 31 31 61 31 31 61 31 31 61 31 31 61 31 31 61 31 31 61 31 31 61 31 31 61 31 31 61 31 31 61 31 31 61 31 31 61 31 31 61 31 31 61 31 31 61 31 31 61 31 31 61 31 31 61 31 31 61 31 31 61 31 31 61 31 31 61 31 31 61 31 31 61 31 31 61 31 31 61 31 31 61 31 31 61 31 31 61 31 31 61 31 31 61 31 31 61 31 31 61 31 31 61 31 31 61 31 31 61 31 31 61 30 30 60 30 30 60 30 30 60 30 30 60 30 30 60 30 30 60 30 30 60 30 30 60 30 30 60 30 30 60 29 29 59 29 29 59 29 29 59 29 29 59 29 29 59 29 29 59 29 29 59 28 28 58 28 28 58 28 28 58 28 28 58 28 28 58 28 28 58 27 27 57 27 27 57 27 27 57 27 27 57 27 27 57 27 27 57 26 26 56 26 26 56 26 26 56 26 26 56 26 26 56 25 25 55 25 25 55 25 25 55 25 25 55 25 25 55 24 24 54 24 24 54 24 24 54 24 24 54 23 23 53 23 23 53 23 23 53 23 23 53 22 22 52 22 22 52 22 22 52 22 22 52 22 22 52 21 21 51 21 21 51 21 21 51 21 21 51 20 20 50 20 20 50 20 20 50 20 20 50 19 19 49 19 19 49 
0 0 30 0 0 30 0 0 30 0 0 30 0 0 30 0 0 30 0 0 30 0 0 30 0 0 30 0 0 30 0 0 30 0 0 30 0 0 30 0 0 30 0 0 30 0 0 30 0 0 30 0 0 30 0 0 30 0 0 30 0 0 30 0 0 30 0 0 30 0 0 30 0 0 30 0 0 30 0 0 30 0 0 30 0 0 30 0 0 30 0 0 30 0 0 30 0 0 30 1 1 31 1 1 31 1 1 31 1 1 31 1 1 31 1 1 31 1 1 31 1 1 31 1 1 31 1 1 31 1 1 31 2 2 32 2 2 32 2 2 32 2 2 32 2 2 32 2 2 32 2 2 32 2 2 32 2 2 32 3 3 33 3 3 33 3 3 33 3 3 33 3 3 33 3 3 33 3 3 33 4 4 34 4 4 34 4 4 34 4 4 34 4 4 34 4 4 34 4 4 34 5 5 35 5 5 35 5 5 35 5 5 35 5 5 35 6 6 36 6 6 36 6 6 36 6 6 36 6 6 36 6 6 36 7 7 37 7 7 37 7 7 37 7 7 37 7 7 37 8 8 38 8 8 38 8 8 38 8 8 38 8 8 38 9 9 39 9 9 39 9 9 39 9 9 39 10 10 40 10 10 40 10 10 40 10 10 40 10 10 40 11 11 41 11 11 41 11 11 41 11 11 41 12 12 42 12 12 42 12 12 42 120 0 118 126 0 124 131 0 129 135 0 133 139 0 137 142 0 139 144 0 142 146 0 144 148 0 146 150 0 148 151 0 149 152 0 150 153 0 151 154 0 152 155 0 153 156 0 154 156 0 154 157 0 155 158 1 156 159 2 157 161 4 159 164 7 162 169 12 167 176 19 174 185 29 183 196 40 194 209 54 207 223 68 221 237 83 235 250 96 248 255 107 255 255 115 255 255 119 255 255 118 255 255 113 255 253 105 251 241 94 238 226 81 224 212 67 210 197 54 195 184 42 181 172 31 169 162 22 160 155 15 153 150 10 148 146 6 143 143 4 140 140 2 138 139 1 137 138 0 135 137 0 134 136 0 134 135 0 133 134 0 132 133 0 131 132 0 130 131 0 129 130 0 128 129 0 127 128 0 126 127 0 124 125 0 123 124 0 122 122 0 120 121 0 119 119 0 117 118 0 116 116 0 114 114 0 112 112 0 110 110 0 108 108 0 106 106 0 104 104 0 102 101 0 99 99 0 97 96 0 94 93 0 91 91 0 88 88 0 85 84 0 82 81 0 79 78 0 75 74 0 72 70 0 68 66 0 63 61 0 59 56 0 54 51 0 48 48 0 46 48 0 46 47 0 45 46 0 44 32 32 62 32 32 62 32 32 62 32 32 62 32 32 62 32 32 62 32 32 62 32 32 62 32 32 62 32 32 62 32 32 62 32 32 62 32 32 62 32 32 62 33 33 63 33 33 63 33 33 63 33 33 63 33 33 63 33 33 63 33 33 63 33 33 63 33 33 63 33 33 63 33 33 63 33 33 63 33 33 63 33 33 63 33 33 63 33 33 63 32 32 62 32 32 62 32 32 62 32 32 62 32 32 62 32 32 62 32 32 62 32 32 62 32 32 62 32 32 62 32 32 62 32 32 62 32 32 62 32 32 62 32 32 62 31 31 61 31 31 61 31 31 61 31 31 61 31 31 61 31 31 61 31 31 61 31 31 61 30 30 60 30 30 60 30 30 60 30 30 60 30 30 60 30 30 60 30 30 60 29 29 59 29 29 59 29 29 59 29 29 59 29 29 59 29 29 59 28 28 58 28 28 58 28 28 58 28 28 58 28 28 58 27 27 57 27 27 57 27 27 57 27 27 57 27 27 57 26 26 56 26 26 56 26 26 56 26 26 56 26 26 56 25 25 55 25 25 55 25 25 55 25 25 55 24 24 54 24 24 54 24 24 54 24 24 54 24 24 54 23 23 53 23 23 53 23 23 53 23 23 53 22 22 52 22 22 52 22 22 52 22 22 52 21 21 51 21 21 51 21 21 51 21 21 51 20 20 50 
0 0 30 0 0 30 0 0 30 0 0 30 0 0 30 0 0 30 0 0 30 0 0 30 0 0 30 0 0 30 0 0 30 0 0 30 0 0 30 0 0 30 0 0 30 0 0 30 0 0 30 0 0 30 0 0 30 0 0 30 0 0 30 0 0 30 0 0 30 0 0 30 0 0 30 0 0 30 0 0 30 0 0 30 0 0 30 0 0 30 0 0 30 1 1 31 1 1 31 1 1 31 1 1 31 1 1 31 1 1 31 1 1 31 1 1 31 1 1 31 1 1 31 1 1 31 2 2 32 2 2 32 2 2 32 2 2 32 2 2 32 2 2 32 2 2 32 2 2 32 3 3 33 3 3 33 3 3 33 3 3 33 3 3 33 3 3 33 3 3 33 4 4 34 4 4 34 4 4 34 4 4 34 4 4 34 4 4 34 4 4 34 5 5 35 5 5 35 5 5 35 5 5 35 5 5 35 5 5 35 6 6 36 6 6 36 6 6 36 6 6 36 6 6 36 7 7 37 7 7 37 7 7 37 7 7 37 7 7 37 8 8 38 8 8 38 8 8 38 8 8 38 8 8 38 9 9 39 9 9 39 9 9 39 9 9 39 10 10 40 10 10 40 10 10 40 10 10 40 10 10 40 11 11 41 11 11 41 11 11 41 11 11 41 12 12 42 12 12 42 12 12 42 12 12 42 13 13 43 13 13 43 13 13 43 126 0 124 131 0 129 136 0 133 139 0 137 142 0 140 145 0 143 147 0 145 149 0 147 150 0 148 152 0 150 153 0 151 154 0 152 155 0 153 156 0 154 156 0 154 157 0 155 158 0 155 158 1 156 160 2 158 162 4 160 165 7 163 170 12 168 177 20 175 186 29 184 198 41 196 211 55 209 226 70 224 241 86 239 254 100 252 255 112 255 255 120 255 255 124 255 255 124 255 255 119 255 255 111 255 247 99 245 232 86 230 217 72 215 202 58 199 187 45 185 175 33 172 164 24 162 155 17 153 149 11 147 145 7 142 141 4 139 139 2 137 137 1 135 136 0 134 135 0 133 134 0 132 133 0 131 132 0 130 131 0 129 131 0 128 130 0 127 128 0 126 127 0 125 126 0 124 125 0 123 124 0 121 122 0 120 121 0 119 119 0 117 118 0 115 116 0 114 114 0 112 112 0 110 110 0 108 108 0 106 106 0 104 104 0 102 102 0 100 99 0 97 97 0 95 94 0 92 91 0 89 89 0 86 85 0 83 82 0 80 79 0 77 75 0 73 72 0 69 68 0 65 63 0 61 59 0 56 54 0 51 48 0 46 45 0 43 45 0 43 44 0 42 33 33 63 33 33 63 33 33 63 33 33 63 33 33 63 33 33 63 33 33 63 33 33 63 33 33 63 34 34 64 34 34 64 34 34 64 34 34 64 34 34 64 34 34 64 34 34 64 34 34 64 34 34 64 34 34 64 34 34 64 34 34 64 34 34 64 34 34 64 34 34 64 34 34 64 34 34 64 34 34 64 34 34 64 34 34 64 34 34 64 34 34 64 34 34 64 34 34 64 34 34 64 34 34 64 34 34 64 34 34 64 34 34 64 33 33 63 33 33 63 33 33 63 33 33 63 33 33 63 33 33 63 33 33 63 33 33 63 33 33 63 33 33 63 33 33 63 32 32 62 32 32 62 32 32 62 32 32 62 32 32 62 32 32 62 32 32 62 32 32 62 31 31 61 31 31 61 31 31 61 31 31 61 31 31 61 31 31 61 30 30 60 30 30 60 30 30 60 30 30 60 30 30 60 30 30 60 29 29 59 29 29 59 29 29 59 29 29 59 29 29 59 28 28 58 28 28 58 28 28 58 28 28 58 28 28 58 27 27 57 27 27 57 27 27 57 27 27 57 26 26 56 26 26 56 26 26 56 26 26 56 25 25 55 25 25 55 25 25 55 25 25 55 25 25 55 24 24 54 24 24 54 24 24 54 24 24 54 23 23 53 23 23 53 23 23 53 23 23 53 22 22 52 22 22 52 22 22 52 21 21 51 
0 0 30 0 0 30 0 0 30 0 0 30 0 0 30 0 0 30 0 0 30 0 0 30 0 0 30 0 0 30 0 0 30 0 0 30 0 0 30 0 0 30 0 0 30 0 0 30 0 0 30 0 0 30 0 0 30 0 0 30 0 0 30 0 0 30 0 0 30 0 0 30 0 0 30 0 0 30 0 0 30 0 0 30 1 1 31 1 1 31 1 1 31 1 1 31 1 1 31 1 1 31 1 1 31 1 1 31 1 1 31 1 1 31 1 1 31 2 2 32 2 2 32 2 2 32 2 2 32 2 2 32 2 2 32 2 2 32 2 2 32 2 2 32 3 3 33 3 3 33 3 3 33 3 3 33 3 3 33 3 3 33 3 3 33 4 4 34 4 4 34 4 4 34 4 4 34 4 4 34 4 4 34 5 5 35 5 5 35 5 5 35 5 5 35 5 5 35 5 5 35 6 6 36 6 6 36 6 6 36 6 6 36 6 6 36 7 7 37 7 7 37 7 7 37 7 7 37 7 7 37 8 8 38 8 8 38 8 8 38 8 8 38 8 8 38 9 9 39 9 9 39 9 9 39 9 9 39 9 9 39 10 10 40 10 10 40 10 10 40 10 10 40 11 11 41 11 11 41 11 11 41 11 11 41 12 12 42 12 12 42 12 12 42 12 12 42 13 13 43 13 13 43 13 13 43 13 13 43 14 14 44 14 14 44 14 14 44 132 0 129 136 0 134 139 0 137 142 0 140 145 0 143 147 0 145 149 0 147 151 0 149 152 0 150 154 0 152 155 0 153 156 0 154 156 0 154 157 0 155 158 0 155 158 0 156 159 0 157 160 2 158 162 4 160 165 7 163 170 12 168 177 19 175 187 29 184 198 41 196 212 55 210 227 70 224 242 86 239 255 100 253 255 113 255 255 122 255 255 126 255 255 126 255 255 122 255 255 113 255 250 102 248 235 88 233 220 74 218 204 60 202 190 46 188 177 35 175 166 25 163 156 17 154 149 12 147 143 7 141 140 4 138 138 2 135 136 1 134 134 0 132 133 0 131 132 0 130 132 0 129 131 0 129 130 0 128 129 0 127 128 0 126 127 0 125 126 0 123 124 0 122 123 0 121 122 0 120 120 0 118 119 0 117 117 0 115 116 0 114 114 0 112 112 0 110 110 0 108 108 0 106 106 0 104 104 0 102 102 0 100 100 0 98 97 0 95 95 0 93 92 0 90 89 0 87 86 0 84 83 0 81 80 0 78 77 0 75 73 0 71 69 0 67 65 0 63 61 0 59 56 0 54 51 0 49 45 0 43 42 0 40 42 0 40 34 34 64 34 34 64 34 34 64 34 34 64 34 34 64 34 34 64 35 35 65 35 35 65 35 35 65 35 35 65 35 35 65 35 35 65 35 35 65 35 35 65 35 35 65 35 35 65 35 35 65 35 35 65 35 35 65 35 35 65 35 35 65 35 35 65 35 35 65 35 35 65 35 35 65 35 35 65 35 35 65 35 35 65 35 35 65 35 35 65 35 35 65 35 35 65 35 35 65 35 35 65 35 35 65 35 35 65 35 35 65 35 35 65 35 35 65 35 35 65 35 35 65 35 35 65 35 35 65 34 34 64 34 34 64 34 34 64 34 34 64 34 34 64 34 34 64 34 34 64 34 34 64 34 34 64 34 34 64 33 33 63 33 33 63 33 33 63 33 33 63 33 33 63 33 33 63 33 33 63 32 32 62 32 32 62 32 32 62 32 32 62 32 32 62 32 32 62 31 31 61 31 31 61 31 31 61 31 31 61 31 31 61 31 31 61 30 30 60 30 30 60 30 30 60 30 30 60 29 29 59 29 29 59 29 29 59 29 29 59 29 29 59 28 28 58 28 28 58 28 28 58 28 28 58 27 27 57 27 27 57 27 27 57 27 27 57 27 27 57 26 26 56 26 26 56 26 26 56 26 26 56 25 25 55 25 25 55 25 25 55 25 25 55 24 24 54 24 24 54 24 24 54 23 23 53 23 23 53 23 23 53 23 23 53 
0 0 30 0 0 30 0 0 30 0 0 30 0 0 30 0 0 30 0 0 30 0 0 30 0 0 30 0 0 30 0 0 30 0 0 30 0 0 30 0 0 30 0 0 30 0 0 30 0 0 30 0 0 30 0 0 30 0 0 30 0 0 30 0 0 30 0 0 30 0 0 30 0 0 30 0 0 30 1 1 31 1 1 31 1 1 31 1 1 31 1 1 31 1 1 31 1 1 31 1 1 31 1 1 31 1 1 31 1 1 31 2 2 32 2 2 32 2 2 32 2 2 32 2 2 32 2 2 32 2 2 32 2 2 32 3 3 33 3 3 33 3 3 33 3 3 33 3 3 33 3 3 33 3 3 33 4 4 34 4 4 34 4 4 34 4 4 34 4 4 34 4 4 34 4 4 34 5 5 35 5 5 35 5 5 35 5 5 35 5 5 35 6 6 36 6 6 36 6 6 36 6 6 36 6 6 36 6 6 36 7 7 37 7 7 37 7 7 37 7 7 37 7 7 37 8 8 38 8 8 38 8 8 38 8 8 38 9 9 39 9 9 39 9 9 39 9 9 39 9 9 39 10 10 40 10 10 40 10 10 40 10 10 40 11 11 41 11 11 41 11 11 41 11 11 41 12 12 42 12 12 42 12 12 42 12 12 42 13 13 43 13 13 43 13 13 43 13 13 43 14 14 44 14 14 44 14 14 44 14 14 44 15 15 45 15 15 45 15 15 45 136 0 134 140 0 137 143 0 141 145 0 143 148 0 146 150 0 148 151 0 149 153 0 151 154 0 152 155 0 153 156 0 154 157 0 155 158 0 155 158 0 156 159 0 157 159 0 157 161 1 158 162 3 160 166 6 163 170 11 168 177 18 175 186 27 184 197 39 195 210 53 208 225 68 223 240 83 237 253 98 251 255 110 255 255 119 255 255 124 255 255 125 255 255 121 255 255 113 255 250 101 248 236 88 234 221 74 218 205 60 203 191 47 188 178 35 175 166 25 164 157 18 155 150 12 148 144 7 142 139 4 137 136 2 134 134 1 132 133 0 131 132 0 130 131 0 129 130 0 128 129 0 127 128 0 126 127 0 125 126 0 124 125 0 123 124 0 122 123 0 120 121 0 119 120 0 118 118 0 116 117 0 115 115 0 113 114 0 112 112 0 110 110 0 108 108 0 106 106 0 104 104 0 102 102 0 100 100 0 98 98 0 96 95 0 93 93 0 90 90 0 88 87 0 85 84 0 82 81 0 79 78 0 76 74 0 72 71 0 69 67 0 65 63 0 61 58 0 56 53 0 51 48 0 46 43 0 41 39 0 37 35 35 65 35 35 65 35 35 65 35 35 65 35 35 65 36 36 66 36 36 66 36 36 66 36 36 66 36 36 66 36 36 66 36 36 66 36 36 66 36 36 66 36 36 66 36 36 66 36 36 66 36 36 66 36 36 66 36 36 66 37 37 67 37 37 67 37 37 67 37 37 67 37 37 67 37 37 67 37 37 67 37 37 67 37 37 67 37 37 67 37 37 67 37 37 67 37 37 67 36 36 66 36 36 66 36 36 66 36 36 66 36 36 66 36 36 66 36 36 66 36 36 66 36 36 66 36 36 66 36 36 66 36 36 66 36 36 66 36 36 66 36 36 66 35 35 65 35 35 65 35 35 65 35 35 65 35 35 65 35 35 65 35 35 65 35 35 65 34 34 64 34 34 64 34 34 64 34 34 64 34 34 64 34 34 64 34 34 64 33 33 63 33 33 63 33 33 63 33 33 63 33 33 63 33 33 63 32 32 62 32 32 62 32 32 62 32 32 62 32 32 62 31 31 61 31 31 61 31 31 61 31 31 61 31 31 61 30 30 60 30 30 60 30 30 60 30 30 60 29 29 59 29 29 59 29 29 59 29 29 59 29 29 59 28 28 58 28 28 58 28 28 58 28 28 58 27 27 57 27 27 57 27 27 57 27 27 57 26 26 56 26 26 56 26 26 56 26 26 56 25 25 55 25 25 55 25 25 55 24 24 54 24 24 54 24 24 54 
0 0 30 0 0 30 0 0 30 0 0 30 0 0 30 0 0 30 0 0 30 0 0 30 0 0 30 0 0 30 0 0 30 0 0 30 0 0 30 0 0 30 0 0 30 0 0 30 0 0 30 0 0 30 0 0 30 0 0 30 0 0 30 0 0 30 0 0 30 1 1 31 1 1 31 1 1 31 1 1 31 1 1 31 1 1 31 1 1 31 1 1 31 1 1 31 1 1 31 1 1 31 2 2 32 2 2 32 2 2 32 2 2 32 2 2 32 2 2 32 2 2 32 2 2 32 2 2 32 3 3 33 3 3 33 3 3 33 3 3 33 3 3 33 3 3 33 3 3 33 4 4 34 4 4 34 4 4 34 4 4 34 4 4 34 4 4 34 5 5 35 5 5 35 5 5 35 5 5 35 5 5 35 5 5 35 6 6 36 6 6 36 6 6 36 6 6 36 6 6 36 7 7 37 7 7 37 7 7 37 7 7 37 7 7 37 8 8 38 8 8 38 8 8 38 8 8 38 8 8 38 9 9 39 9 9 39 9 9 39 9 9 39 10 10 40 10 10 40 10 10 40 10 10 40 11 11 41 11 11 41 11 11 41 11 11 41 11 11 41 12 12 42 12 12 42 12 12 42 12 12 42 13 13 43 13 13 43 13 13 43 13 13 43 14 14 44 14 14 44 14 14 44 15 15 45 15 15 45 15 15 45 15 15 45 16 16 46 16 16 46 16 16 46 140 0 138 143 0 141 146 0 143 148 0 146 150 0 148 152 0 150 153 0 151 155 0 152 156 0 154 157 0 154 157 0 155 158 0 156 159 0 157 159 0 157 160 0 158 161 1 159 163 3 160 165 6 163 170 10 167 176 16 174 184 25 182 194 36 192 207 49 205 221 63 219 235 78 233 248 92 246 255 104 255 255 113 255 255 118 255 255 119 255 255 116 255 255 108 255 247 98 245 234 85 232 219 72 217 204 58 202 190 45 188 177 34 175 166 25 164 157 17 155 150 11 148 144 7 142 140 4 138 136 2 134 133 1 131 131 0 129 130 0 128 129 0 127 128 0 126 127 0 125 126 0 124 125 0 123 124 0 122 123 0 121 122 0 120 121 0 119 119 0 117 118 0 116 117 0 114 115 0 113 113 0 111 112 0 110 110 0 108 108 0 106 106 0 104 104 0 102 102 0 100 100 0 98 98 0 96 95 0 93 93 0 91 90 0 88 88 0 86 85 0 83 82 0 80 79 0 77 75 0 73 72 0 70 68 0 66 64 0 62 60 0 58 56 0 53 51 0 49 45 0 43 40 0 38 36 36 66 36 36 66 36 36 66 37 37 67 37 37 67 37 37 67 37 37 67 37 37 67 37 37 67 37 37 67 37 37 67 37 37 67 37 37 67 37 37 67 37 37 67 38 38 68 38 38 68 38 38 68 38 38 68 38 38 68 38 38 68 38 38 68 38 38 68 38 38 68 38 38 68 38 38 68 38 38 68 38 38 68 38 38 68 38 38 68 38 38 68 38 38 68 38 38 68 38 38 68 38 38 68 38 38 68 38 38 68 38 38 68 38 38 68 38 38 68 38 38 68 37 37 67 37 37 67 37 37 67 37 37 67 37 37 67 37 37 67 37 37 67 37 37 67 37 37 67 37 37 67 37 37 67 36 36 66 36 36 66 36 36 66 36 36 66 36 36 66 36 36 66 36 36 66 36 36 66 35 35 65 35 35 65 35 35 65 35 35 65 35 35 65 35 35 65 34 34 64 34 34 64 34 34 64 34 34 64 34 34 64 34 34 64 33 33 63 33 33 63 33 33 63 33 33 63 33 33 63 32 32 62 32 32 62 32 32 62 32 32 62 31 31 61 31 31 61 31 31 61 31 31 61 31 31 61 30 30 60 30 30 60 30 30 60 30 30 60 29 29 59 29 29 59 29 29 59 29 29 59 28 28 58 28 28 58 28 28 58 28 28 58 27 27 57 27 27 57 27 27 57 27 27 57 26 26 56 26 26 56 26 26 56 25 25 55 25 25 55 
0 0 30 0 0 30 0 0 30 0 0 30 0 0 30 0 0 30 0 0 30 0 0 30 0 0 30 0 0 30 0 0 30 0 0 30 0 0 30 0 0 30 0 0 30 0 0 30 0 0 30 0 0 30 0 0 30 0 0 30 0 0 30 1 1 31 1 1 31 1 1 31 1 1 31 1 1 31 1 1 31 1 1 31 1 1 31 1 1 31 1 1 31 1 1 31 2 2 32 2 2 32 2 2 32 2 2 32 2 2 32 2 2 32 2 2 32 2 2 32 3 3 33 3 3 33 3 3 33 3 3 33 3 3 33 3 3 33 3 3 33 4 4 34 4 4 34 4 4 34 4 4 34 4 4 34 4 4 34 4 4 34 5 5 35 5 5 35 5 5 35 5 5 35 5 5 35 6 6 36 6 6 36 6 6 36 6 6 36 6 6 36 7 7 37 7 7 37 7 7 37 7 7 37 7 7 37 8 8 38 8 8 38 8 8 38 8 8 38 8 8 38 9 9 39 9 9 39 9 9 39 9 9 39 10 10 40 10 10 40 10 10 40 10 10 40 10 10 40 11 11 41 11 11 41 11 11 41 11 11 41 12 12 42 12 12 42 12 12 42 12 12 42 13 13 43 13 13 43 13 13 43 13 13 43 14 14 44 14 14 44 14 14 44 14 14 44 15 15 45 15 15 45 15 15 45 16 16 46 16 16 46 16 16 46 16 16 46 17 17 47 17 17 47 17 17 47 17 17 47 146 0 144 148 0 146 150 0 148 152 0 150 154 0 151 155 0 153 156 0 154 157 0 155 158 0 156 158 0 156 159 0 157 160 0 157 160 0 158 161 1 159 163 2 160 165 5 163 169 8 166 174 14 172 181 22 179 191 32 189 202 43 200 215 57 213 228 70 226 240 84 238 251 95 249 255 104 255 255 109 255 255 110 255 255 108 255 252 101 250 242 91 239 229 80 227 215 67 213 201 55 199 188 43 186 176 32 174 166 23 164 157 16 155 150 11 148 144 7 142 140 4 138 136 2 134 134 1 131 131 0 129 129 0 127 127 0 125 126 0 124 125 0 123 124 0 122 123 0 121 122 0 120 121 0 119 120 0 118 119 0 117 117 0 115 116 0 114 115 0 112 113 0 111 111 0 109 110 0 108 108 0 106 106 0 104 104 0 102 102 0 100 100 0 98 98 0 96 96 0 94 93 0 91 91 0 89 88 0 86 85 0 83 83 0 80 80 0 77 76 0 74 73 0 71 69 0 67 66 0 64 62 0 60 57 0 55 53 0 51 48 0 46 37 37 67 37 37 67 37 37 67 38 38 68 38 38 68 38 38 68 38 38 68 38 38 68 38 38 68 38 38 68 38 38 68 38 38 68 38 38 68 39 39 69 39 39 69 39 39 69 39 39 69 39 39 69 39 39 69 39 39 69 39 39 69 39 39 69 39 39 69 39 39 69 39 39 69 39 39 69 39 39 69 39 39 69 39 39 69 39 39 69 39 39 69 39 39 69 39 39 69 39 39 69 39 39 69 39 39 69 39 39 69 39 39 69 39 39 69 39 39 69 39 39 69 39 39 69 39 39 69 39 39 69 39 39 69 39 39 69 39 39 69 38 38 68 38 38 68 38 38 68 38 38 68 38 38 68 38 38 68 38 38 68 38 38 68 38 38 68 38 38 68 37 37 67 37 37 67 37 37 67 37 37 67 37 37 67 37 37 67 37 37 67 36 36 66 36 36 66 36 36 66 36 36 66 36 36 66 36 36 66 35 35 65 35 35 65 35 35 65 35 35 65 35 35 65 34 34 64 34 34 64 34 34 64 34 34 64 34 34 64 33 33 63 33 33 63 33 33 63 33 33 63 33 33 63 32 32 62 32 32 62 32 32 62 32 32 62 31 31 61 31 31 61 31 31 61 31 31 61 30 30 60 30 30 60 30 30 60 30 30 60 29 29 59 29 29 59 29 29 59 29 29 59 28 28 58 28 28 58 28 28 58 27 27 57 27 27 57 27 27 57 27 27 57 26 26 56 
0 0 30 0 0 30 0 0 30 0 0 30 0 0 30 0 0 30 0 0 30 0 0 30 0 0 30 0 0 30 0 0 30 0 0 30 0 0 30 0 0 30 0 0 30 0 0 30 0 0 30 0 0 30 1 1 31 1 1 31 1 1 31 1 1 31 1 1 31 1 1 31 1 1 31 1 1 31 1 1 31 1 1 31 1 1 31 2 2 32 2 2 32 2 2 32 2 2 32 2 2 32 2 2 32 2 2 32 2 2 32 2 2 32 3 3 33 3 3 33 3 3 33 3 3 33 3 3 33 3 3 33 3 3 33 4 4 34 4 4 34 4 4 34 4 4 34 4 4 34 4 4 34 5 5 35 5 5 35 5 5 35 5 5 35 5 5 35 5 5 35 6 6 36 6 6 36 6 6 36 6 6 36 6 6 36 7 7 37 7 7 37 7 7 37 7 7 37 7 7 37 8 8 38 8 8 38 8 8 38 8 8 38 8 8 38 9 9 39 9 9 39 9 9 39 9 9 39 10 10 40 10 10 40 10 10 40 10 10 40 11 11 41 11 11 41 11 11 41 11 11 41 12 12 42 12 12 42 12 12 42 12 12 42 13 13 43 13 13 43 13 13 43 13 13 43 14 14 44 14 14 44 14 14 44 14 14 44 15 15 45 15 15 45 15 15 45 15 15 45 16 16 46 16 16 46 16 16 46 17 17 47 17 17 47 17 17 47 17 17 47 18 18 48 18 18 48 18 18 48 19 19 49 148 0 146 150 0 148 152 0 150 154 0 152 155 0 153 156 0 154 157 0 155 158 0 156 159 0 157 159 0 157 160 0 158 160 0 158 161 1 159 162 2 160 164 4 162 167 7 165 172 12 170 178 18 176 187 27 184 197 37 194 208 49 206 219 61 217 231 73 229 241 84 238 248 92 246 252 97 250 253 99 251 249 97 247 243 91 241 233 83 231 222 72 220 209 61 207 197 50 195 185 39 183 174 30 172 164 21 162 156 15 154 150 10 148 144 6 142 140 4 138 137 2 135 134 1 132 132 0 129 129 0 127 127 0 125 125 0 123 123 0 121 122 0 120 121 0 119 120 0 118 119 0 117 118 0 116 117 0 115 115 0 113 114 0 112 112 0 110 111 0 109 109 0 107 108 0 106 106 0 104 104 0 102 102 0 100 100 0 98 98 0 96 96 0 94 93 0 91 91 0 89 88 0 86 86 0 84 83 0 81 80 0 78 77 0 75 74 0 72 70 0 68 67 0 65 63 0 61 59 0 57 55 0 53 50 0 48 38 38 68 38 38 68 39 39 69 39 39 69 39 39 69 39 39 69 39 39 69 39 39 69 39 39 69 39 39 69 39 39 69 40 40 70 40 40 70 40 40 70 40 40 70 40 40 70 40 40 70 40 40 70 40 40 70 40 40 70 40 40 70 40 40 70 40 40 70 40 40 70 40 40 70 40 40 70 40 40 70 40 40 70 40 40 70 40 40 70 41 41 71 41 41 71 41 41 71 40 40 70 40 40 70 40 40 70 40 40 70 40 40 70 40 40 70 40 40 70 40 40 70 40 40 70 40 40 70 40 40 70 40 40 70 40 40 70 40 40 70 40 40 70 40 40 70 40 40 70 40 40 70 40 40 70 39 39 69 39 39 69 39 39 69 39 39 69 39 39 69 39 39 69 39 39 69 39 39 69 39 39 69 38 38 68 38 38 68 38 38 68 38 38 68 38 38 68 38 38 68 37 37 67 37 37 67 37 37 67 37 37 67 37 37 67 37 37 67 36 36 66 36 36 66 36 36 66 36 36 66 36 36 66 35 35 65 35 35 65 35 35 65 35 35 65 35 35 65 34 34 64 34 34 64 34 34 64 34 34 64 33 33 63 33 33 63 33 33 63 33 33 63 32 32 62 32 32 62 32 32 62 32 32 62 31 31 61 31 31 61 31 31 61 31 31 61 30 30 60 30 30 60 30 30 60 30 30 60 29 29 59 29 29 59 29 29 59 28 28 58 28 28 58 28 28 58 28 28 58 
0 0 30 0 0 30 0 0 30 0 0 30 0 0 30 0 0 30 0 0 30 0 0 30 0 0 30 0 0 30 0 0 30 0 0 30 0 0 30 0 0 30 0 0 30 0 0 30 1 1 31 1 1 31 1 1 31 1 1 31 1 1 31 1 1 31 1 1 31 1 1 31 1 1 31 1 1 31 1 1 31 2 2 32 2 2 32 2 2 32 2 2 32 2 2 32 2 2 32 2 2 32 2 2 32 3 3 33 3 3 33 3 3 33 3 3 33 3 3 33 3 3 33 3 3 33 4 4 34 4 4 34 4 4 34 4 4 34 4 4 34 4 4 34 4 4 34 5 5 35 5 5 35 5 5 35 5 5 35 5 5 35 6 6 36 6 6 36 6 6 36 6 6 36 6 6 36 6 6 36 7 7 37 7 7 37 7 7 37 7 7 37 8 8 38 8 8 38 8 8 38 8 8 38 8 8 38 9 9 39 9 9 39 9 9 39 9 9 39 10 10 40 10 10 40 10 10 40 10 10 40 10 10 40 11 11 41 11 11 41 11 11 41 11 11 41 12 12 42 12 12 42 12 12 42 12 12 42 13 13 43 13 13 43 13 13 43 14 14 44 14 14 44 14 14 44 14 14 44 15 15 45 15 15 45 15 15 45 15 15 45 16 16 46 16 16 46 16 16 46 17 17 47 17 17 47 17 17 47 17 17 47 18 18 48 18 18 48 18 18 48 19 19 49 19 19 49 19 19 49 19 19 49 20 20 50 20 20 50 152 0 150 154 0 152 155 0 153 156 0 154 157 0 155 158 0 156 159 0 157 160 0 158 160 0 158 161 0 159 161 0 159 162 1 160 164 3 162 166 5 164 170 9 168 175 15 173 182 22 180 190 31 188 200 41 198 210 52 208 220 62 218 229 72 226 235 79 233 239 84 237 240 85 238 237 84 235 232 79 229 223 72 221 213 64 211 202 54 200 191 44 189 181 35 178 171 26 169 162 19 160 155 13 153 149 9 147 144 5 142 140 3 138 137 2 135 134 1 132 132 0 130 130 0 128 128 0 126 126 0 123 124 0 121 122 0 119 119 0 117 118 0 116 117 0 115 116 0 114 115 0 113 113 0 111 112 0 110 110 0 108 109 0 107 107 0 105 105 0 103 104 0 102 102 0 100 100 0 98 98 0 96 96 0 94 93 0 91 91 0 89 89 0 87 86 0 84 83 0 81 81 0 78 78 0 76 75 0 72 71 0 69 68 0 66 64 0 62 60 0 58 56 0 54 39 39 69 39 39 69 39 39 69 40 40 70 40 40 70 40 40 70 40 40 70 40 40 70 40 40 70 40 40 70 40 40 70 41 41 71 41 41 71 41 41 71 41 41 71 41 41 71 41 41 71 41 41 71 41 41 71 41 41 71 41 41 71 41 41 71 41 41 71 42 42 72 42 42 72 42 42 72 42 42 72 42 42 72 42 42 72 42 42 72 42 42 72 42 42 72 42 42 72 42 42 72 42 42 72 42 42 72 42 42 72 42 42 72 42 42 72 42 42 72 42 42 72 42 42 72 42 42 72 42 42 72 42 42 72 41 41 71 41 41 71 41 41 71 41 41 71 41 41 71 41 41 71 41 41 71 41 41 71 41 41 71 41 41 71 41 41 71 41 41 71 40 40 70 40 40 70 40 40 70 40 40 70 40 40 70 40 40 70 40 40 70 40 40 70 39 39 69 39 39 69 39 39 69 39 39 69 39 39 69 39 39 69 38 38 68 38 38 68 38 38 68 38 38 68 38 38 68 38 38 68 37 37 67 37 37 67 37 37 67 37 37 67 37 37 67 36 36 66 36 36 66 36 36 66 36 36 66 35 35 65 35 35 65 35 35 65 35 35 65 34 34 64 34 34 64 34 34 64 34 34 64 33 33 63 33 33 63 33 33 63 33 33 63 32 32 62 32 32 62 32 32 62 32 32 62 31 31 61 31 31 61 31 31 61 31 31 61 30 30 60 30 30 60 30 30 60 29 29 59 29 29 59 29 29 59 
0 0 30 0 0 30 0 0 30 0 0 30 0 0 30 0 0 30 0 0 30 0 0 30 0 0 30 0 0 30 0 0 30 0 0 30 0 0 30 0 0 30 1 1 31 1 1 31 1 1 31 1 1 31 1 1 31 1 1 31 1 1 31 1 1 31 1 1 31 1 1 31 1 1 31 2 2 32 2 2 32 2 2 32 2 2 32 2 2 32 2 2 32 2 2 32 2 2 32 3 3 33 3 3 33 3 3 33 3 3 33 3 3 33 3 3 33 3 3 33 4 4 34 4 4 34 4 4 34 4 4 34 4 4 34 4 4 34 5 5 35 5 5 35 5 5 35 5 5 35 5 5 35 5 5 35 6 6 36 6 6 36 6 6 36 6 6 36 6 6 36 7 7 37 7 7 37 7 7 37 7 7 37 7 7 37 8 8 38 8 8 38 8 8 38 8 8 38 8 8 38 9 9 39 9 9 39 9 9 39 9 9 39 10 10 40 10 10 40 10 10 40 10 10 40 11 11 41 11 11 41 11 11 41 11 11 41 12 12 42 12 12 42 12 12 42 12 12 42 13 13 43 13 13 43 13 13 43 13 13 43 14 14 44 14 14 44 14 14 44 14 14 44 15 15 45 15 15 45 15 15 45 16 16 46 16 16 46 16 16 46 16 16 46 17 17 47 17 17 47 17 17 47 18 18 48 18 18 48 18 18 48 18 18 48 19 19 49 19 19 49 19 19 49 20 20 50 20 20 50 20 20 50 21 21 51 21 21 51 21 21 51 21 21 51 155 0 153 157 0 154 158 0 155 158 0 156 159 0 157 160 0 158 160 0 158 161 0 159 161 0 159 162 1 160 163 2 161 165 4 163 168 7 166 172 11 170 178 17 175 184 24 182 192 33 190 201 42 198 209 51 207 216 59 214 222 65 220 225 70 223 226 71 224 224 70 222 219 67 217 213 61 210 204 54 202 195 46 193 185 37 183 176 29 174 167 22 165 160 16 158 153 11 151 148 7 146 144 5 141 140 3 138 137 1 135 134 1 132 132 0 130 130 0 128 128 0 126 126 0 124 124 0 122 122 0 120 120 0 118 118 0 116 116 0 113 114 0 112 113 0 110 111 0 109 110 0 108 108 0 106 107 0 105 105 0 103 103 0 101 101 0 99 100 0 97 98 0 95 95 0 93 93 0 91 91 0 89 89 0 87 86 0 84 84 0 81 81 0 79 78 0 76 75 0 73 72 0 70 69 0 66 65 0 63 61 0 59 40 40 70 40 40 70 40 40 70 41 41 71 41 41 71 41 41 71 41 41 71 41 41 71 41 41 71 41 41 71 41 41 71 42 42 72 42 42 72 42 42 72 42 42 72 42 42 72 42 42 72 42 42 72 42 42 72 42 42 72 42 42 72 43 43 73 43 43 73 43 43 73 43 43 73 43 43 73 43 43 73 43 43 73 43 43 73 43 43 73 43 43 73 43 43 73 43 43 73 43 43 73 43 43 73 43 43 73 43 43 73 43 43 73 43 43 73 43 43 73 43 43 73 43 43 73 43 43 73 43 43 73 43 43 73 43 43 73 43 43 73 43 43 73 43 43 73 43 43 73 43 43 73 43 43 73 42 42 72 42 42 72 42 42 72 42 42 72 42 42 72 42 42 72 42 42 72 42 42 72 42 42 72 42 42 72 41 41 71 41 41 71 41 41 71 41 41 71 41 41 71 41 41 71 41 41 71 40 40 70 40 40 70 40 40 70 40 40 70 40 40 70 40 40 70 39 39 69 39 39 69 39 39 69 39 39 69 39 39 69 38 38 68 38 38 68 38 38 68 38 38 68 38 38 68 37 37 67 37 37 67 37 37 67 37 37 67 36 36 66 36 36 66 36 36 66 36 36 66 36 36 66 35 35 65 35 35 65 35 35 65 35 35 65 34 34 64 34 34 64 34 34 64 33 33 63 33 33 63 33 33 63 33 33 63 32 32 62 32 32 62 32 32 62 32 32 62 31 31 61 31 31 61 31 31 61 30 30 60 30 30 60 
0 0 30 0 0 30 0 0 30 0 0 30 0 0 30 0 0 30 0 0 30 0 0 30 0 0 30 0 0 30 0 0 30 1 1 31 1 1 31 1 1 31 1 1 31 1 1 31 1 1 31 1 1 31 1 1 31 1 1 31 1 1 31 1 1 31 2 2 32 2 2 32 2 2 32 2 2 32 2 2 32 2 2 32 2 2 32 2 2 32 2 2 32 3 3 33 3 3 33 3 3 33 3 3 33 3 3 33 3 3 33 3 3 33 4 4 34 4 4 34 4 4 34 4 4 34 4 4 34 4 4 34 5 5 35 5 5 35 5 5 35 5 5 35 5 5 35 5 5 35 6 6 36 6 6 36 6 6 36 6 6 36 6 6 36 7 7 37 7 7 37 7 7 37 7 7 37 7 7 37 8 8 38 8 8 38 8 8 38 8 8 38 9 9 39 9 9 39 9 9 39 9 9 39 9 9 39 10 10 40 10 10 40 10 10 40 10 10 40 11 11 41 11 11 41 11 11 41 11 11 41 12 12 42 12 12 42 12 12 42 12 12 42 13 13 43 13 13 43 13 13 43 14 14 44 14 14 44 14 14 44 14 14 44 15 15 45 15 15 45 15 15 45 15 15 45 16 16 46 16 16 46 16 16 46 17 17 47 17 17 47 17 17 47 17 17 47 18 18 48 18 18 48 18 18 48 19 19 49 19 19 49 19 19 49 20 20 50 20 20 50 20 20 50 20 20 50 21 21 51 21 21 51 21 21 51 22 22 52 22 22 52 22 22 52 23 23 53 23 23 53 23 23 53 159 0 156 159 0 157 160 0 158 160 0 158 161 0 159 161 0 159 162 0 160 163 1 161 164 3 162 166 5 164 169 8 167 174 13 171 179 19 177 185 25 183 191 32 189 198 40 196 204 46 202 209 52 207 212 56 210 212 57 210 211 57 209 207 54 205 202 50 199 195 44 192 187 37 185 179 31 177 171 24 169 164 18 162 157 13 155 152 9 149 147 6 145 143 4 141 140 2 138 137 1 135 135 0 132 132 0 130 130 0 128 128 0 126 126 0 124 124 0 122 122 0 120 120 0 118 118 0 116 116 0 114 114 0 111 111 0 109 109 0 107 108 0 105 106 0 104 104 0 102 103 0 101 101 0 99 99 0 97 97 0 95 95 0 93 93 0 91 91 0 89 89 0 86 86 0 84 84 0 82 81 0 79 78 0 76 75 0 73 72 0 70 69 0 67 41 41 71 41 41 71 41 41 71 41 41 71 41 41 71 42 42 72 42 42 72 42 42 72 42 42 72 42 42 72 42 42 72 42 42 72 43 43 73 43 43 73 43 43 73 43 43 73 43 43 73 43 43 73 43 43 73 43 43 73 43 43 73 44 44 74 44 44 74 44 44 74 44 44 74 44 44 74 44 44 74 44 44 74 44 44 74 44 44 74 44 44 74 44 44 74 44 44 74 44 44 74 44 44 74 44 44 74 44 44 74 44 44 74 44 44 74 44 44 74 44 44 74 44 44 74 44 44 74 44 44 74 44 44 74 44 44 74 44 44 74 44 44 74 44 44 74 44 44 74 44 44 74 44 44 74 44 44 74 44 44 74 44 44 74 44 44 74 44 44 74 44 44 74 43 43 73 43 43 73 43 43 73 43 43 73 43 43 73 43 43 73 43 43 73 43 43 73 43 43 73 42 42 72 42 42 72 42 42 72 42 42 72 42 42 72 42 42 72 42 42 72 41 41 71 41 41 71 41 41 71 41 41 71 41 41 71 41 41 71 40 40 70 40 40 70 40 40 70 40 40 70 40 40 70 39 39 69 39 39 69 39 39 69 39 39 69 38 38 68 38 38 68 38 38 68 38 38 68 38 38 68 37 37 67 37 37 67 37 37 67 37 37 67 36 36 66 36 36 66 36 36 66 36 36 66 35 35 65 35 35 65 35 35 65 34 34 64 34 34 64 34 34 64 34 34 64 33 33 63 33 33 63 33 33 63 33 33 63 32 32 62 32 32 62 32 32 62 31 31 61 
0 0 30 0 0 30 0 0 30 0 0 30 0 0 30 0 0 30 0 0 30 0 0 30 0 0 30 1 1 31 1 1 31 1 1 31 1 1 31 1 1 31 1 1 31 1 1 31 1 1 31 1 1 31 1 1 31 1 1 31 2 2 32 2 2 32 2 2 32 2 2 32 2 2 32 2 2 32 2 2 32 2 2 32 3 3 33 3 3 33 3 3 33 3 3 33 3 3 33 3 3 33 3 3 33 4 4 34 4 4 34 4 4 34 4 4 34 4 4 34 4 4 34 4 4 34 5 5 35 5 5 35 5 5 35 5 5 35 5 5 35 6 6 36 6 6 36 6 6 36 6 6 36 6 6 36 7 7 37 7 7 37 7 7 37 7 7 37 7 7 37 8 8 38 8 8 38 8 8 38 8 8 38 8 8 38 9 9 39 9 9 39 9 9 39 9 9 39 10 10 40 10 10 40 10 10 40 10 10 40 11 11 41 11 11 41 11 11 41 11 11 41 12 12 42 12 12 42 12 12 42 12 12 42 13 13 43 13 13 43 13 13 43 13 13 43 14 14 44 14 14 44 14 14 44 14 14 44 15 15 45 15 15 45 15 15 45 16 16 46 16 16 46 16 16 46 16 16 46 17 17 47 17 17 47 17 17 47 18 18 48 18 18 48 18 18 48 19 19 49 19 19 49 19 19 49 19 19 49 20 20 50 20 20 50 20 20 50 21 21 51 21 21 51 21 21 51 22 22 52 22 22 52 22 22 52 22 22 52 23 23 53 23 23 53 23 23 53 24 24 54 24 24 54 24 24 54 25 25 55 25 25 55 160 0 158 161 0 159 161 0 159 162 0 160 162 1 160 163 2 161 165 3 163 167 6 165 170 9 168 174 13 172 178 18 176 183 24 181 188 30 186 193 35 191 197 40 195 199 43 197 200 44 198 199 44 196 196 42 193 191 39 189 185 35 183 179 29 177 173 24 170 166 19 164 160 14 158 155 10 153 150 7 148 146 5 144 142 3 140 140 2 137 137 1 135 135 0 133 133 0 130 131 0 128 129 0 126 127 0 124 125 0 122 122 0 120 120 0 118 118 0 116 116 0 114 114 0 112 112 0 109 109 0 107 107 0 105 104 0 102 102 0 100 100 0 98 99 0 96 97 0 95 95 0 93 93 0 91 91 0 89 88 0 86 86 0 84 84 0 82 81 0 79 78 0 76 76 0 74 41 41 71 42 42 72 42 42 72 42 42 72 42 42 72 42 42 72 42 42 72 43 43 73 43 43 73 43 43 73 43 43 73 43 43 73 43 43 73 44 44 74 44 44 74 44 44 74 44 44 74 44 44 74 44 44 74 44 44 74 44 44 74 44 44 74 45 45 75 45 45 75 45 45 75 45 45 75 45 45 75 45 45 75 45 45 75 45 45 75 45 45 75 45 45 75 45 45 75 45 45 75 45 45 75 46 46 76 46 46 76 46 46 76 46 46 76 46 46 76 46 46 76 46 46 76 46 46 76 46 46 76 46 46 76 46 46 76 46 46 76 46 46 76 46 46 76 46 46 76 45 45 75 45 45 75 45 45 75 45 45 75 45 45 75 45 45 75 45 45 75 45 45 75 45 45 75 45 45 75 45 45 75 45 45 75 45 45 75 45 45 75 44 44 74 44 44 74 44 44 74 44 44 74 44 44 74 44 44 74 44 44 74 44 44 74 43 43 73 43 43 73 43 43 73 43 43 73 43 43 73 43 43 73 43 43 73 42 42 72 42 42 72 42 42 72 42 42 72 42 42 72 41 41 71 41 41 71 41 41 71 41 41 71 41 41 71 40 40 70 40 40 70 40 40 70 40 40 70 40 40 70 39 39 69 39 39 69 39 39 69 39 39 69 38 38 68 38 38 68 38 38 68 38 38 68 37 37 67 37 37 67 37 37 67 37 37 67 36 36 66 36 36 66 36 36 66 35 35 65 35 35 65 35 35 65 35 35 65 34 34 64 34 34 64 34 34 64 33 33 63 33 33 63 33 33 63 33 33 63 
0 0 30 0 0 30 0 0 30 0 0 30 0 0 30 0 0 30 0 0 30 1 1 31 1 1 31 1 1 31 1 1 31 1 1 31 1 1 31 1 1 31 1 1 31 1 1 31 1 1 31 1 1 31 2 2 32 2 2 32 2 2 32 2 2 32 2 2 32 2 2 32 2 2 32 2 2 32 3 3 33 3 3 33 3 3 33 3 3 33 3 3 33 3 3 33 3 3 33 4 4 34 4 4 34 4 4 34 4 4 34 4 4 34 4 4 34 5 5 35 5 5 35 5 5 35 5 5 35 5 5 35 5 5 35 6 6 36 6 6 36 6 6 36 6 6 36 6 6 36 7 7 37 7 7 37 7 7 37 7 7 37 7 7 37 8 8 38 8 8 38 8 8 38 8 8 38 8 8 38 9 9 39 9 9 39 9 9 39 9 9 39 10 10 40 10 10 40 10 10 40 10 10 40 11 11 41 11 11 41 11 11 41 11 11 41 12 12 42 12 12 42 12 12 42 12 12 42 13 13 43 13 13 43 13 13 43 14 14 44 14 14 44 14 14 44 14 14 44 15 15 45 15 15 45 15 15 45 15 15 45 16 16 46 16 16 46 16 16 46 17 17 47 17 17 47 17 17 47 18 18 48 18 18 48 18 18 48 18 18 48 19 19 49 19 19 49 19 19 49 20 20 50 20 20 50 20 20 50 21 21 51 21 21 51 21 21 51 21 21 51 22 22 52 22 22 52 22 22 52 23 23 53 23 23 53 23 23 53 24 24 54 24 24 54 24 24 54 25 25 55 25 25 55 25 25 55 26 26 56 26 26 56 26 26 56 27 27 57 27 27 57 162 0 159 162 0 160 163 1 160 164 2 161 165 4 163 167 6 165 170 9 168 173 13 171 177 17 174 180 21 178 184 26 181 186 29 184 188 32 186 188 33 186 188 33 185 185 32 183 182 29 180 177 26 175 172 22 170 167 18 165 162 14 160 157 11 155 152 8 150 148 5 146 145 3 143 142 2 140 139 1 137 137 0 135 135 0 133 133 0 131 131 0 129 129 0 127 127 0 125 125 0 123 123 0 121 121 0 118 118 0 116 116 0 114 114 0 112 112 0 110 109 0 107 107 0 105 104 0 102 102 0 100 99 0 97 97 0 95 94 0 92 92 0 90 90 0 88 88 0 86 86 0 84 84 0 81 81 0 79 42 42 72 42 42 72 42 42 72 42 42 72 43 43 73 43 43 73 43 43 73 43 43 73 43 43 73 44 44 74 44 44 74 44 44 74 44 44 74 44 44 74 44 44 74 45 45 75 45 45 75 45 45 75 45 45 75 45 45 75 45 45 75 45 45 75 45 45 75 46 46 76 46 46 76 46 46 76 46 46 76 46 46 76 46 46 76 46 46 76 46 46 76 46 46 76 46 46 76 46 46 76 47 47 77 47 47 77 47 47 77 47 47 77 47 47 77 47 47 77 47 47 77 47 47 77 47 47 77 47 47 77 47 47 77 47 47 77 47 47 77 47 47 77 47 47 77 47 47 77 47 47 77 47 47 77 47 47 77 47 47 77 47 47 77 47 47 77 47 47 77 47 47 77 47 47 77 46 46 76 46 46 76 46 46 76 46 46 76 46 46 76 46 46 76 46 46 76 46 46 76 46 46 76 46 46 76 46 46 76 45 45 75 45 45 75 45 45 75 45 45 75 45 45 75 45 45 75 45 45 75 44 44 74 44 44 74 44 44 74 44 44 74 44 44 74 44 44 74 43 43 73 43 43 73 43 43 73 43 43 73 43 43 73 43 43 73 42 42 72 42 42 72 42 42 72 42 42 72 42 42 72 41 41 71 41 41 71 41 41 71 41 41 71 40 40 70 40 40 70 40 40 70 40 40 70 39 39 69 39 39 69 39 39 69 39 39 69 38 38 68 38 38 68 38 38 68 38 38 68 37 37 67 37 37 67 37 37 67 36 36 66 36 36 66 36 36 66 36 36 66 35 35 65 35 35 65 35 35 65 34 34 64 34 34 64 34 34 64 
0 0 30 0 0 30 0 0 30 0 0 30 0 0 30 1 1 31 1 1 31 1 1 31 1 1 31 1 1 31 1 1 31 1 1 31 1 1 31 1 1 31 1 1 31 1 1 31 2 2 32 2 2 32 2 2 32 2 2 32 2 2 32 2 2 32 2 2 32 2 2 32 3 3 33 3 3 33 3 3 33 3 3 33 3 3 33 3 3 33 3 3 33 4 4 34 4 4 34 4 4 34 4 4 34 4 4 34 4 4 34 5 5 35 5 5 35 5 5 35 5 5 35 5 5 35 5 5 35 6 6 36 6 6 36 6 6 36 6 6 36 6 6 36 7 7 37 7 7 37 7 7 37 7 7 37 7 7 37 8 8 38 8 8 38 8 8 38 8 8 38 9 9 39 9 9 39 9 9 39 9 9 39 9 9 39 10 10 40 10 10 40 10 10 40 10 10 40 11 11 41 11 11 41 11 11 41 11 11 41 12 12 42 12 12 42 12 12 42 13 13 43 13 13 43 13 13 43 13 13 43 14 14 44 14 14 44 14 14 44 14 14 44 15 15 45 15 15 45 15 15 45 16 16 46 16 16 46 16 16 46 16 16 46 17 17 47 17 17 47 17 17 47 18 18 48 18 18 48 18 18 48 19 19 49 19 19 49 19 19 49 19 19 49 20 20 50 20 20 50 20 20 50 21 21 51 21 21 51 21 21 51 22 22 52 22 22 52 22 22 52 23 23 53 23 23 53 23 23 53 24 24 54 24 24 54 24 24 54 25 25 55 25 25 55 25 25 55 25 25 55 26 26 56 26 26 56 26 26 56 27 27 57 27 27 57 27 27 57 28 28 58 28 28 58 28 28 58 29 29 59 29 29 59 29 29 59 165 4 163 167 6 164 169 9 167 171 11 169 174 15 171 176 18 174 178 20 176 179 22 177 179 23 177 178 24 176 176 23 174 174 21 172 170 19 168 166 16 164 162 13 160 158 10 156 154 8 152 150 6 148 147 4 145 144 2 142 141 1 139 139 1 137 137 0 135 135 0 133 133 0 131 131 0 129 129 0 127 127 0 125 125 0 123 123 0 121 121 0 119 119 0 116 116 0 114 114 0 112 112 0 110 109 0 107 107 0 105 105 0 102 102 0 100 99 0 97 97 0 95 94 0 92 91 0 89 42 42 72 42 42 72 42 42 72 43 43 73 43 43 73 43 43 73 43 43 73 43 43 73 44 44 74 44 44 74 44 44 74 44 44 74 44 44 74 45 45 75 45 45 75 45 45 75 45 45 75 45 45 75 45 45 75 46 46 76 46 46 76 46 46 76 46 46 76 46 46 76 46 46 76 46 46 76 47 47 77 47 47 77 47 47 77 47 47 77 47 47 77 47 47 77 47 47 77 47 47 77 47 47 77 47 47 77 48 48 78 48 48 78 48 48 78 48 48 78 48 48 78 48 48 78 48 48 78 48 48 78 48 48 78 48 48 78 48 48 78 48 48 78 48 48 78 48 48 78 48 48 78 48 48 78 48 48 78 48 48 78 48 48 78 48 48 78 48 48 78 48 48 78 48 48 78 48 48 78 48 48 78 48 48 78 48 48 78 48 48 78 48 48 78 48 48 78 48 48 78 48 48 78 47 47 77 47 47 77 47 47 77 47 47 77 47 47 77 47 47 77 47 47 77 47 47 77 47 47 77 46 46 76 46 46 76 46 46 76 46 46 76 46 46 76 46 46 76 46 46 76 45 45 75 45 45 75 45 45 75 45 45 75 45 45 75 45 45 75 44 44 74 44 44 74 44 44 74 44 44 74 44 44 74 43 43 73 43 43 73 43 43 73 43 43 73 43 43 73 42 42 72 42 42 72 42 42 72 42 42 72 41 41 71 41 41 71 41 41 71 41 41 71 40 40 70 40 40 70 40 40 70 40 40 70 39 39 69 39 39 69 39 39 69 39 39 69 38 38 68 38 38 68 38 38 68 37 37 67 37 37 67 37 37 67 37 37 67 36 36 66 36 36 66 36 36 66 35 35 65 35 35 65 
0 0 30 0 0 30 1 1 31 1 1 31 1 1 31 1 1 31 1 1 31 1 1 31 1 1 31 1 1 31 1 1 31 1 1 31 1 1 31 2 2 32 2 2 32 2 2 32 2 2 32 2 2 32 2 2 32 2 2 32 2 2 32 2 2 32 3 3 33 3 3 33 3 3 33 3 3 33 3 3 33 3 3 33 3 3 33 4 4 34 4 4 34 4 4 34 4 4 34 4 4 34 4 4 34 5 5 35 5 5 35 5 5 35 5 5 35 5 5 35 5 5 35 6 6 36 6 6 36 6 6 36 6 6 36 6 6 36 7 7 37 7 7 37 7 7 37 7 7 37 8 8 38 8 8 38 8 8 38 8 8 38 8 8 38 9 9 39 9 9 39 9 9 39 9 9 39 10 10 40 10 10 40 10 10 40 10 10 40 11 11 41 11 11 41 11 11 41 11 11 41 12 12 42 12 12 42 12 12 42 12 12 42 13 13 43 13 13 43 13 13 43 13 13 43 14 14 44 14 14 44 14 14 44 15 15 45 15 15 45 15 15 45 15 15 45 16 16 46 16 16 46 16 16 46 17 17 47 17 17 47 17 17 47 17 17 47 18 18 48 18 18 48 18 18 48 19 19 49 19 19 49 19 19 49 20 20 50 20 20 50 20 20 50 21 21 51 21 21 51 21 21 51 21 21 51 22 22 52 22 22 52 22 22 52 23 23 53 23 23 53 23 23 53 24 24 54 24 24 54 24 24 54 25 25 55 25 25 55 25 25 55 26 26 56 26 26 56 26 26 56 27 27 57 27 27 57 27 27 57 28 28 58 28 28 58 28 28 58 29 29 59 29 29 59 29 29 59 30 30 60 30 30 60 30 30 60 31 31 61 31 31 61 31 31 61 32 32 62 32 32 62 32 32 62 171 13 169 172 15 169 172 16 169 171 16 169 169 16 167 167 15 165 164 13 162 161 11 159 158 9 156 155 7 153 152 5 149 149 4 146 146 3 144 143 2 141 141 1 139 139 0 137 137 0 135 135 0 133 133 0 131 131 0 129 129 0 127 127 0 125 125 0 123 123 0 121 121 0 119 119 0 116 116 0 114 114 0 112 112 0 110 109 0 107 107 0 105 42 42 72 42 42 72 42 42 72 42 42 72 43 43 73 43 43 73 43 43 73 43 43 73 43 43 73 44 44 74 44 44 74 44 44 74 44 44 74 45 45 75 45 45 75 45 45 75 45 45 75 45 45 75 46 46 76 46 46 76 46 46 76 46 46 76 46 46 76 46 46 76 47 47 77 47 47 77 47 47 77 47 47 77 47 47 77 47 47 77 47 47 77 48 48 78 48 48 78 48 48 78 48 48 78 48 48 78 48 48 78 48 48 78 48 48 78 49 49 79 49 49 79 49 49 79 49 49 79 49 49 79 49 49 79 49 49 79 49 49 79 49 49 79 49 49 79 49 49 79 49 49 79 49 49 79 49 49 79 49 49 79 49 49 79 49 49 79 49 49 79 49 49 79 49 49 79 49 49 79 49 49 79 49 49 79 49 49 79 49 49 79 49 49 79 49 49 79 49 49 79 49 49 79 49 49 79 49 49 79 49 49 79 49 49 79 49 49 79 49 49 79 49 49 79 49 49 79 49 49 79 48 48 78 48 48 78 48 48 78 48 48 78 48 48 78 48 48 78 48 48 78 48 48 78 47 47 77 47 47 77 47 47 77 47 47 77 47 47 77 47 47 77 47 47 77 46 46 76 46 46 76 46 46 76 46 46 76 46 46 76 46 46 76 45 45 75 45 45 75 45 45 75 45 45 75 44 44 74 44 44 74 44 44 74 44 44 74 44 44 74 43 43 73 43 43 73 43 43 73 43 43 73 42 42 72 42 42 72 42 42 72 42 42 72 41 41 71 41 41 71 41 41 71 41 41 71 40 40 70 40 40 70 40 40 70 40 40 70 39 39 69 39 39 69 39 39 69 38 38 68 38 38 68 38 38 68 38 38 68 37 37 67 37 37 67 37 37 67 36 36 66 
1 1 31 1 1 31 1 1 31 1 1 31 1 1 31 1 1 31 1 1 31 1 1 31 1 1 31 1 1 31 1 1 31 2 2 32 2 2 32 2 2 32 2 2 32 2 2 32 2 2 32 2 2 32 2 2 32 2 2 32 3 3 33 3 3 33 3 3 33 3 3 33 3 3 33 3 3 33 3 3 33 4 4 34 4 4 34 4 4 34 4 4 34 4 4 34 4 4 34 5 5 35 5 5 35 5 5 35 5 5 35 5 5 35 6 6 36 6 6 36 6 6 36 6 6 36 6 6 36 6 6 36 7 7 37 7 7 37 7 7 37 7 7 37 8 8 38 8 8 38 8 8 38 8 8 38 8 8 38 9 9 39 9 9 39 9 9 39 9 9 39 10 10 40 10 10 40 10 10 40 10 10 40 11 11 41 11 11 41 11 11 41 11 11 41 12 12 42 12 12 42 12 12 42 12 12 42 13 13 43 13 13 43 13 13 43 13 13 43 14 14 44 14 14 44 14 14 44 15 15 45 15 15 45 15 15 45 15 15 45 16 16 46 16 16 46 16 16 46 17 17 47 17 17 47 17 17 47 18 18 48 18 18 48 18 18 48 18 18 48 19 19 49 19 19 49 19 19 49 20 20 50 20 20 50 20 20 50 21 21 51 21 21 51 21 21 51 22 22 52 22 22 52 22 22 52 23 23 53 23 23 53 23 23 53 24 24 54 24 24 54 24 24 54 25 25 55 25 25 55 25 25 55 26 26 56 26 26 56 26 26 56 27 27 57 27 27 57 27 27 57 28 28 58 28 28 58 28 28 58 29 29 59 29 29 59 29 29 59 30 30 60 30 30 60 30 30 60 31 31 61 31 31 61 31 31 61 32 32 62 32 32 62 32 32 62 32 32 62 33 33 63 33 33 63 33 33 63 34 34 64 34 34 64 34 34 64 35 35 65 35 35 65 35 35 65 36 36 66 36 36 66 36 36 66 37 37 67 147 2 145 145 2 143 143 1 140 140 0 138 138 0 136 137 0 134 135 0 133 133 0 131 131 0 129 40 40 70 40 40 70 40 40 70 40 40 70 41 41 71 41 41 71 41 41 71 42 42 72 42 42 72 42 42 72 42 42 72 43 43 73 43 43 73 43 43 73 43 43 73 44 44 74 44 44 74 44 44 74 44 44 74 45 45 75 45 45 75 45 45 75 45 45 75 45 45 75 46 46 76 46 46 76 46 46 76 46 46 76 46 46 76 47 47 77 47 47 77 47 47 77 47 47 77 47 47 77 48 48 78 48 48 78 48 48 78 48 48 78 48 48 78 48 48 78 49 49 79 49 49 79 49 49 79 49 49 79 49 49 79 49 49 79 49 49 79 49 49 79 50 50 80 50 50 80 50 50 80 50 50 80 50 50 80 50 50 80 50 50 80 50 50 80 50 50 80 50 50 80 50 50 80 50 50 80 50 50 80 50 50 80 51 51 81 51 51 81 51 51 81 51 51 81 51 51 81 51 51 81 51 51 81 51 51 81 51 51 81 51 51 81 51 51 81 51 51 81 51 51 81 51 51 81 51 51 81 50 50 80 50 50 80 50 50 80 50 50 80 50 50 80 50 50 80 50 50 80 50 50 80 50 50 80 50 50 80 50 50 80 50 50 80 50 50 80 49 49 79 49 49 79 49 49 79 49 49 79 49 49 79 49 49 79 49 49 79 49 49 79 48 48 78 48 48 78 48 48 78 48 48 78 48 48 78 48 48 78 48 48 78 47 47 77 47 47 77 47 47 77 47 47 77 47 47 77 46 46 76 46 46 76 46 46 76 46 46 76 46 46 76 45 45 75 45 45 75 45 45 75 45 45 75 44 44 74 44 44 74 44 44 74 44 44 74 43 43 73 43 43 73 43 43 73 43 43 73 42 42 72 42 42 72 42 42 72 42 42 72 41 41 71 41 41 71 41 41 71 41 41 71 40 40 70 40 40 70 40 40 70 39 39 69 39 39 69 39 39 69 38 38 68 38 38 68 38 38 68 38 38 68 
1 1 31 1 1 31 1 1 31 1 1 31 1 1 31 1 1 31 1 1 31 1 1 31 1 1 31 2 2 32 2 2 32 2 2 32 2 2 32 2 2 32 2 2 32 2 2 32 2 2 32 3 3 33 3 3 33 3 3 33 3 3 33 3 3 33 3 3 33 3 3 33 4 4 34 4 4 34 4 4 34 4 4 34 4 4 34 4 4 34 4 4 34 5 5 35 5 5 35 5 5 35 5 5 35 5 5 35 6 6 36 6 6 36 6 6 36 6 6 36 6 6 36 7 7 37 7 7 37 7 7 37 7 7 37 7 7 37 8 8 38 8 8 38 8 8 38 8 8 38 8 8 38 9 9 39 9 9 39 9 9 39 9 9 39 10 10 40 10 10 40 10 10 40 10 10 40 11 11 41 11 11 41 11 11 41 11 11 41 12 12 42 12 12 42 12 12 42 12 12 42 13 13 43 13 13 43 13 13 43 14 14 44 14 14 44 14 14 44 14 14 44 15 15 45 15 15 45 15 15 45 16 16 46 16 16 46 16 16 46 16 16 46 17 17 47 17 17 47 17 17 47 18 18 48 18 18 48 18 18 48 19 19 49 19 19 49 19 19 49 20 20 50 20 20 50 20 20 50 20 20 50 21 21 51 21 21 51 21 21 51 22 22 52 22 22 52 22 22 52 23 23 53 23 23 53 23 23 53 24 24 54 24 24 54 24 24 54 25 25 55 25 25 55 25 25 55 26 26 56 26 26 56 26 26 56 27 27 57 27 27 57 27 27 57 28 28 58 28 28 58 28 28 58 29 29 59 29 29 59 29 29 59 30 30 60 30 30 60 30 30 60 31 31 61 31 31 61 31 31 61 32 32 62 32 32 62 32 32 62 33 33 63 33 33 63 33 33 63 34 34 64 34 34 64 34 34 64 35 35 65 35 35 65 35 35 65 36 36 66 36 36 66 36 36 66 37 37 67 37 37 67 37 37 67 38 38 68 38 38 68 38 38 68 39 39 69 39 39 69 39 39 69 39 39 69 40 40 70 40 40 70 40 40 70 41 41 71 41 41 71 41 41 71 42 42 72 42 42 72 42 42 72 42 42 72 43 43 73 43 43 73 43 43 73 43 43 73 44 44 74 44 44 74 44 44 74 44 44 74 45 45 75 45 45 75 45 45 75 45 45 75 46 46 76 46 46 76 46 46 76 46 46 76 47 47 77 47 47 77 47 47 77 47 47 77 47 47 77 48 48 78 48 48 78 48 48 78 48 48 78 48 48 78 49 49 79 49 49 79 49 49 79 49 49 79 49 49 79 49 49 79 50 50 80 50 50 80 50 50 80 50 50 80 50 50 80 50 50 80 50 50 80 50 50 80 51 51 81 51 51 81 51 51 81 51 51 81 51 51 81 51 51 81 51 51 81 51 51 81 51 51 81 51 51 81 51 51 81 52 52 82 52 52 82 52 52 82 52 52 82 52 52 82 52 52 82 52 52 82 52 52 82 52 52 82 52 52 82 52 52 82 52 52 82 52 52 82 52 52 82 52 52 82 52 52 82 52 52 82 52 52 82 52 52 82 52 52 82 52 52 82 52 52 82 52 52 82 51 51 81 51 51 81 51 51 81 51 51 81 51 51 81 51 51 81 51 51 81 51 51 81 51 51 81 51 51 81 51 51 81 51 51 81 50 50 80 50 50 80 50 50 80 50 50 80 50 50 80 50 50 80 50 50 80 49 49 79 49 49 79 49 49 79 49 49 79 49 49 79 49 49 79 48 48 78 48 48 78 48 48 78 48 48 78 48 48 78 47 47 77 47 47 77 47 47 77 47 47 77 47 47 77 46 46 76 46 46 76 46 46 76 46 46 76 45 45 75 45 45 75 45 45 75 45 45 75 44 44 74 44 44 74 44 44 74 44 44 74 43 43 73 43 43 73 43 43 73 43 43 73 42 42 72 42 42 72 42 42 72 41 41 71 41 41 71 41 41 71 41 41 71 40 40 70 40 40 70 40 40 70 39 39 69 39 39 69 39 39 69 
1 1 31 1 1 31 1 1 31 1 1 31 1 1 31 1 1 31 1 1 31 2 2 32 2 2 32 2 2 32 2 2 32 2 2 32 2 2 32 2 2 32 2 2 32 3 3 33 3 3 33 3 3 33 3 3 33 3 3 33 3 3 33 3 3 33 4 4 34 4 4 34 4 4 34 4 4 34 4 4 34 4 4 34 4 4 34 5 5 35 5 5 35 5 5 35 5 5 35 5 5 35 6 6 36 6 6 36 6 6 36 6 6 36 6 6 36 7 7 37 7 7 37 7 7 37 7 7 37 7 7 37 8 8 38 8 8 38 8 8 38 8 8 38 8 8 38 9 9 39 9 9 39 9 9 39 9 9 39 10 10 40 10 10 40 10 10 40 10 10 40 11 11 41 11 11 41 11 11 41 11 11 41 12 12 42 12 12 42 12 12 42 12 12 42 13 13 43 13 13 43 13 13 43 14 14 44 14 14 44 14 14 44 14 14 44 15 15 45 15 15 45 15 15 45 16 16 46 16 16 46 16 16 46 17 17 47 17 17 47 17 17 47 17 17 47 18 18 48 18 18 48 18 18 48 19 19 49 19 19 49 19 19 49 20 20 50 20 20 50 20 20 50 21 21 51 21 21 51 21 21 51 22 22 52 22 22 52 22 22 52 23 23 53 23 23 53 23 23 53 24 24 54 24 24 54 24 24 54 25 25 55 25 25 55 25 25 55 26 26 56 26 26 56 26 26 56 27 27 57 27 27 57 27 27 57 28 28 58 28 28 58 28 28 58 29 29 59 29 29 59 29 29 59 30 30 60 30 30 60 30 30 60 31 31 61 31 31 61 31 31 61 32 32 62 32 32 62 32 32 62 33 33 63 33 33 63 33 33 63 34 34 64 34 34 64 34 34 64 35 35 65 35 35 65 35 35 65 36 36 66 36 36 66 36 36 66 37 37 67 37 37 67 37 37 67 38 38 68 38 38 68 38 38 68 39 39 69 39 39 69 39 39 69 40 40 70 40 40 70 40 40 70 40 40 70 41 41 71 41 41 71 41 41 71 42 42 72 42 42 72 42 42 72 43 43 73 43 43 73 43 43 73 43 43 73 44 44 74 44 44 74 44 44 74 44 44 74 45 45 75 45 45 75 45 45 75 46 46 76 46 46 76 46 46 76 46 46 76 47 47 77 47 47 77 47 47 77 47 47 77 47 47 77 48 48 78 48 48 78 48 48 78 48 48 78 49 49 79 49 49 79 49 49 79 49 49 79 49 49 79 50 50 80 50 50 80 50 50 80 50 50 80 50 50 80 50 50 80 51 51 81 51 51 81 51 51 81 51 51 81 51 51 81 51 51 81 51 51 81 52 52 82 52 52 82 52 52 82 52 52 82 52 52 82 52 52 82 52 52 82 52 52 82 52 52 82 52 52 82 53 53 83 53 53 83 53 53 83 53 53 83 53 53 83 53 53 83 53 53 83 53 53 83 53 53 83 53 53 83 53 53 83 53 53 83 53 53 83 53 53 83 53 53 83 53 53 83 53 53 83 53 53 83 53 53 83 53 53 83 53 53 83 53 53 83 53 53 83 53 53 83 53 53 83 53 53 83 53 53 83 53 53 83 53 53 83 53 53 83 52 52 82 52 52 82 52 52 82 52 52 82 52 52 82 52 52 82 52 52 82 52 52 82 52 52 82 52 52 82 51 51 81 51 51 81 51 51 81 51 51 81 51 51 81 51 51 81 51 51 81 50 50 80 50 50 80 50 50 80 50 50 80 50 50 80 49 49 79 49 49 79 49 49 79 49 49 79 49 49 79 48 48 78 48 48 78 48 48 78 48 48 78 48 48 78 47 47 77 47 47 77 47 47 77 47 47 77 46 46 76 46 46 76 46 46 76 46 46 76 45 45 75 45 45 75 45 45 75 45 45 75 44 44 74 44 44 74 44 44 74 44 44 74 43 43 73 43 43 73 43 43 73 42 42 72 42 42 72 42 42 72 42 42 72 41 41 71 41 41 71 41 41 71 40 40 70 40 40 70 
1 1 31 1 1 31 1 1 31 1 1 31 1 1 31 2 2 32 2 2 32 2 2 32 2 2 32 2 2 32 2 2 32 2 2 32 2 2 32 3 3 33 3 3 33 3 3 33 3 3 33 3 3 33 3 3 33 3 3 33 4 4 34 4 4 34 4 4 34 4 4 34 4 4 34 4 4 34 5 5 35 5 5 35 5 5 35 5 5 35 5 5 35 5 5 35 6 6 36 6 6 36 6 6 36 6 6 36 6 6 36 7 7 37 7 7 37 7 7 37 7 7 37 7 7 37 8 8 38 8 8 38 8 8 38 8 8 38 9 9 39 9 9 39 9 9 39 9 9 39 9 9 39 10 10 40 10 10 40 10 10 40 10 10 40 11 11 41 11 11 41 11 11 41 11 11 41 12 12 42 12 12 42 12 12 42 13 13 43 13 13 43 13 13 43 13 13 43 14 14 44 14 14 44 14 14 44 14 14 44 15 15 45 15 15 45 15 15 45 16 16 46 16 16 46 16 16 46 17 17 47 17 17 47 17 17 47 17 17 47 18 18 48 18 18 48 18 18 48 19 19 49 19 19 49 19 19 49 20 20 50 20 20 50 20 20 50 21 21 51 21 21 51 21 21 51 22 22 52 22 22 52 22 22 52 23 23 53 23 23 53 23 23 53 24 24 54 24 24 54 24 24 54 25 25 55 25 25 55 25 25 55 26 26 56 26 26 56 26 26 56 27 27 57 27 27 57 27 27 57 28 28 58 28 28 58 28 28 58 29 29 59 29 29 59 29 29 59 30 30 60 30 30 60 31 31 61 31 31 61 31 31 61 32 32 62 32 32 62 32 32 62 33 33 63 33 33 63 33 33 63 34 34 64 34 34 64 34 34 64 35 35 65 35 35 65 35 35 65 36 36 66 36 36 66 36 36 66 37 37 67 37 37 67 37 37 67 38 38 68 38 38 68 38 38 68 39 39 69 39 39 69 39 39 69 40 40 70 40 40 70 40 40 70 41 41 71 41 41 71 41 41 71 41 41 71 42 42 72 42 42 72 42 42 72 43 43 73 43 43 73 43 43 73 44 44 74 44 44 74 44 44 74 44 44 74 45 45 75 45 45 75 45 45 75 46 46 76 46 46 76 46 46 76 46 46 76 47 47 77 47 47 77 47 47 77 47 47 77 48 48 78 48 48 78 48 48 78 48 48 78 49 49 79 49 49 79 49 49 79 49 49 79 49 49 79 50 50 80 50 50 80 50 50 80 50 50 80 50 50 80 51 51 81 51 51 81 51 51 81 51 51 81 51 51 81 51 51 81 52 52 82 52 52 82 52 52 82 52 52 82 52 52 82 52 52 82 53 53 83 53 53 83 53 53 83 53 53 83 53 53 83 53 53 83 53 53 83 53 53 83 53 53 83 54 54 84 54 54 84 54 54 84 54 54 84 54 54 84 54 54 84 54 54 84 54 54 84 54 54 84 54 54 84 54 54 84 54 54 84 54 54 84 54 54 84 54 54 84 54 54 84 54 54 84 54 54 84 54 54 84 54 54 84 54 54 84 54 54 84 54 54 84 54 54 84 54 54 84 54 54 84 54 54 84 54 54 84 54 54 84 54 54 84 54 54 84 54 54 84 54 54 84 54 54 84 53 53 83 53 53 83 53 53 83 53 53 83 53 53 83 53 53 83 53 53 83 53 53 83 53 53 83 52 52 82 52 52 82 52 52 82 52 52 82 52 52 82 52 52 82 52 52 82 51 51 81 51 51 81 51 51 81 51 51 81 51 51 81 51 51 81 50 50 80 50 50 80 50 50 80 50 50 80 50 50 80 49 49 79 49 49 79 49 49 79 49 49 79 48 48 78 48 48 78 48 48 78 48 48 78 47 47 77 47 47 77 47 47 77 47 47 77 46 46 76 46 46 76 46 46 76 46 46 76 45 45 75 45 45 75 45 45 75 45 45 75 44 44 74 44 44 74 44 44 74 43 43 73 43 43 73 43 43 73 42 42 72 42 42 72 42 42 72 42 42 72 41 41 71 
1 1 31 1 1 31 1 1 31 2 2 32 2 2 32 2 2 32 2 2 32 2 2 32 2 2 32 2 2 32 2 2 32 3 3 33 3 3 33 3 3 33 3 3 33 3 3 33 3 3 33 3 3 33 4 4 34 4 4 34 4 4 34 4 4 34 4 4 34 4 4 34 5 5 35 5 5 35 5 5 35 5 5 35 5 5 35 5 5 35 6 6 36 6 6 36 6 6 36 6 6 36 6 6 36 7 7 37 7 7 37 7 7 37 7 7 37 7 7 37 8 8 38 8 8 38 8 8 38 8 8 38 9 9 39 9 9 39 9 9 39 9 9 39 9 9 39 10 10 40 10 10 40 10 10 40 10 10 40 11 11 41 11 11 41 11 11 41 11 11 41 12 12 42 12 12 42 12 12 42 13 13 43 13 13 43 13 13 43 13 13 43 14 14 44 14 14 44 14 14 44 15 15 45 15 15 45 15 15 45 15 15 45 16 16 46 16 16 46 16 16 46 17 17 47 17 17 47 17 17 47 18 18 48 18 18 48 18 18 48 18 18 48 19 19 49 19 19 49 19 19 49 20 20 50 20 20 50 20 20 50 21 21 51 21 21 51 21 21 51 22 22 52 22 22 52 22 22 52 23 23 53 23 23 53 23 23 53 24 24 54 24 24 54 24 24 54 25 25 55 25 25 55 25 25 55 26 26 56 26 26 56 26 26 56 27 27 57 27 27 57 28 28 58 28 28 58 28 28 58 29 29 59 29 29 59 29 29 59 30 30 60 30 30 60 30 30 60 31 31 61 31 31 61 31 31 61 32 32 62 32 32 62 32 32 62 33 33 63 33 33 63 33 33 63 34 34 64 34 34 64 35 35 65 35 35 65 35 35 65 36 36 66 36 36 66 36 36 66 37 37 67 37 37 67 37 37 67 38 38 68 38 38 68 38 38 68 39 39 69 39 39 69 39 39 69 40 40 70 40 40 70 40 40 70 41 41 71 41 41 71 41 41 71 42 42 72 42 42 72 42 42 72 42 42 72 43 43 73 43 43 73 43 43 73 44 44 74 44 44 74 44 44 74 45 45 75 45 45 75 45 45 75 45 45 75 46 46 76 46 46 76 46 46 76 47 47 77 47 47 77 47 47 77 47 47 77 48 48 78 48 48 78 48 48 78 48 48 78 49 49 79 49 49 79 49 49 79 49 49 79 50 50 80 50 50 80 50 50 80 50 50 80 51 51 81 51 51 81 51 51 81 51 51 81 51 51 81 52 52 82 52 52 82 52 52 82 52 52 82 52 52 82 52 52 82 53 53 83 53 53 83 53 53 83 53 53 83 53 53 83 53 53 83 54 54 84 54 54 84 54 54 84 54 54 84 54 54 84 54 54 84 54 54 84 54 54 84 54 54 84 55 55 85 55 55 85 55 55 85 55 55 85 55 55 85 55 55 85 55 55 85 55 55 85 55 55 85 55 55 85 55 55 85 55 55 85 55 55 85 55 55 85 55 55 85 55 55 85 55 55 85 55 55 85 55 55 85 55 55 85 55 55 85 55 55 85 55 55 85 55 55 85 55 55 85 55 55 85 55 55 85 55 55 85 55 55 85 55 55 85 55 55 85 55 55 85 55 55 85 55 55 85 55 55 85 55 55 85 55 55 85 55 55 85 54 54 84 54 54 84 54 54 84 54 54 84 54 54 84 54 54 84 54 54 84 54 54 84 53 53 83 53 53 83 53 53 83 53 53 83 53 53 83 53 53 83 52 52 82 52 52 82 52 52 82 52 52 82 52 52 82 52 52 82 51 51 81 51 51 81 51 51 81 51 51 81 51 51 81 50 50 80 50 50 80 50 50 80 50 50 80 49 49 79 49 49 79 49 49 79 49 49 79 48 48 78 48 48 78 48 48 78 48 48 78 47 47 77 47 47 77 47 47 77 47 47 77 46 46 76 46 46 76 46 46 76 45 45 75 45 45 75 45 45 75 45 45 75 44 44 74 44 44 74 44 44 74 43 43 73 43 43 73 43 43 73 42 42 72 
1 1 31 2 2 32 2 2 32 2 2 32 2 2 32 2 2 32 2 2 32 2 2 32 2 2 32 3 3 33 3 3 33 3 3 33 3 3 33 3 3 33 3 3 33 3 3 33 4 4 34 4 4 34 4 4 34 4 4 34 4 4 34 4 4 34 5 5 35 5 5 35 5 5 35 5 5 35 5 5 35 5 5 35 6 6 36 6 6 36 6 6 36 6 6 36 6 6 36 7 7 37 7 7 37 7 7 37 7 7 37 7 7 37 8 8 38 8 8 38 8 8 38 8 8 38 9 9 39 9 9 39 9 9 39 9 9 39 9 9 39 10 10 40 10 10 40 10 10 40 10 10 40 11 11 41 11 11 41 11 11 41 11 11 41 12 12 42 12 12 42 12 12 42 13 13 43 13 13 43 13 13 43 13 13 43 14 14 44 14 14 44 14 14 44 15 15 45 15 15 45 15 15 45 15 15 45 16 16 46 16 16 46 16 16 46 17 17 47 17 17 47 17 17 47 18 18 48 18 18 48 18 18 48 18 18 48 19 19 49 19 19 49 19 19 49 20 20 50 20 20 50 20 20 50 21 21 51 21 21 51 21 21 51 22 22 52 22 22 52 22 22 52 23 23 53 23 23 53 23 23 53 24 24 54 24 24 54 24 24 54 25 25 55 25 25 55 26 26 56 26 26 56 26 26 56 27 27 57 27 27 57 27 27 57 28 28 58 28 28 58 28 28 58 29 29 59 29 29 59 29 29 59 30 30 60 30 30 60 30 30 60 31 31 61 31 31 61 32 32 62 32 32 62 32 32 62 33 33 63 33 33 63 33 33 63 34 34 64 34 34 64 34 34 64 35 35 65 35 35 65 35 35 65 36 36 66 36 36 66 36 36 66 37 37 67 37 37 67 38 38 68 38 38 68 38 38 68 39 39 69 39 39 69 39 39 69 40 40 70 40 40 70 40 40 70 41 41 71 41 41 71 41 41 71 42 42 72 42 42 72 42 42 72 43 43 73 43 43 73 43 43 73 43 43 73 44 44 74 44 44 74 44 44 74 45 45 75 45 45 75 45 45 75 46 46 76 46 46 76 46 46 76 47 47 77 47 47 77 47 47 77 47 47 77 48 48 78 48 48 78 48 48 78 48 48 78 49 49 79 49 49 79 49 49 79 49 49 79 50 50 80 50 50 80 50 50 80 50 50 80 51 51 81 51 51 81 51 51 81 51 51 81 52 52 82 52 52 82 52 52 82 52 52 82 52 52 82 53 53 83 53 53 83 53 53 83 53 53 83 53 53 83 54 54 84 54 54 84 54 54 84 54 54 84 54 54 84 54 54 84 55 55 85 55 55 85 55 55 85 55 55 85 55 55 85 55 55 85 55 55 85 55 55 85 56 56 86 56 56 86 56 56 86 56 56 86 56 56 86 56 56 86 56 56 86 56 56 86 56 56 86 56 56 86 56 56 86 56 56 86 56 56 86 56 56 86 57 57 87 57 57 87 57 57 87 57 57 87 57 57 87 57 57 87 57 57 87 57 57 87 57 57 87 57 57 87 57 57 87 57 57 87 57 57 87 57 57 87 56 56 86 56 56 86 56 56 86 56 56 86 56 56 86 56 56 86 56 56 86 56 56 86 56 56 86 56 56 86 56 56 86 56 56 86 56 56 86 56 56 86 55 55 85 55 55 85 55 55 85 55 55 85 55 55 85 55 55 85 55 55 85 55 55 85 54 54 84 54 54 84 54 54 84 54 54 84 54 54 84 54 54 84 53 53 83 53 53 83 53 53 83 53 53 83 53 53 83 52 52 82 52 52 82 52 52 82 52 52 82 52 52 82 51 51 81 51 51 81 51 51 81 51 51 81 50 50 80 50 50 80 50 50 80 50 50 80 49 49 79 49 49 79 49 49 79 49 49 79 48 48 78 48 48 78 48 48 78 48 48 78 47 47 77 47 47 77 47 47 77 46 46 76 46 46 76 46 46 76 46 46 76 45 45 75 45 45 75 45 45 75 44 44 74 44 44 74 44 44 74 
2 2 32 2 2 32 2 2 32 2 2 32 2 2 32 2 2 32 2 2 32 3 3 33 3 3 33 3 3 33 3 3 33 3 3 33 3 3 33 3 3 33 4 4 34 4 4 34 4 4 34 4 4 34 4 4 34 4 4 34 5 5 35 5 5 35 5 5 35 5 5 35 5 5 35 5 5 35 6 6 36 6 6 36 6 6 36 6 6 36 6 6 36 7 7 37 7 7 37 7 7 37 7 7 37 7 7 37 8 8 38 8 8 38 8 8 38 8 8 38 9 9 39 9 9 39 9 9 39 9 9 39 9 9 39 10 10 40 10 10 40 10 10 40 10 10 40 11 11 41 11 11 41 11 11 41 11 11 41 12 12 42 12 12 42 12 12 42 13 13 43 13 13 43 13 13 43 13 13 43 14 14 44 14 14 44 14 14 44 15 15 45 15 15 45 15 15 45 15 15 45 16 16 46 16 16 46 16 16 46 17 17 47 17 17 47 17 17 47 18 18 48 18 18 48 18 18 48 19 19 49 19 19 49 19 19 49 19 19 49 20 20 50 20 20 50 20 20 50 21 21 51 21 21 51 21 21 51 22 22 52 22 22 52 22 22 52 23 23 53 23 23 53 24 24 54 24 24 54 24 24 54 25 25 55 25 25 55 25 25 55 26 26 56 26 26 56 26 26 56 27 27 57 27 27 57 27 27 57 28 28 58 28 28 58 28 28 58 29 29 59 29 29 59 30 30 60 30 30 60 30 30 60 31 31 61 31 31 61 31 31 61 32 32 62 32 32 62 32 32 62 33 33 63 33 33 63 33 33 63 34 34 64 34 34 64 35 35 65 35 35 65 35 35 65 36 36 66 36 36 66 36 36 66 37 37 67 37 37 67 37 37 67 38 38 68 38 38 68 38 38 68 39 39 69 39 39 69 39 39 69 40 40 70 40 40 70 41 41 71 41 41 71 41 41 71 42 42 72 42 42 72 42 42 72 43 43 73 43 43 73 43 43 73 44 44 74 44 44 74 44 44 74 44 44 74 45 45 75 45 45 75 45 45 75 46 46 76 46 46 76 46 46 76 47 47 77 47 47 77 47 47 77 48 48 78 48 48 78 48 48 78 48 48 78 49 49 79 49 49 79 49 49 79 49 49 79 50 50 80 50 50 80 50 50 80 51 51 81 51 51 81 51 51 81 51 51 81 52 52 82 52 52 82 52 52 82 52 52 82 52 52 82 53 53 83 53 53 83 53 53 83 53 53 83 54 54 84 54 54 84 54 54 84 54 54 84 54 54 84 54 54 84 55 55 85 55 55 85 55 55 85 55 55 85 55 55 85 55 55 85 56 56 86 56 56 86 56 56 86 56 56 86 56 56 86 56 56 86 56 56 86 57 57 87 57 57 87 57 57 87 57 57 87 57 57 87 57 57 87 57 57 87 57 57 87 57 57 87 57 57 87 57 57 87 57 57 87 58 58 88 58 58 88 58 58 88 58 58 88 58 58 88 58 58 88 58 58 88 58 58 88 58 58 88 58 58 88 58 58 88 58 58 88 58 58 88 58 58 88 58 58 88 58 58 88 58 58 88 58 58 88 58 58 88 58 58 88 58 58 88 57 57 87 57 57 87 57 57 87 57 57 87 57 57 87 57 57 87 57 57 87 57 57 87 57 57 87 57 57 87 57 57 87 56 56 86 56 56 86 56 56 86 56 56 86 56 56 86 56 56 86 56 56 86 56 56 86 55 55 85 55 55 85 55 55 85 55 55 85 55 55 85 55 55 85 54 54 84 54 54 84 54 54 84 54 54 84 54 54 84 53 53 83 53 53 83 53 53 83 53 53 83 53 53 83 52 52 82 52 52 82 52 52 82 52 52 82 51 51 81 51 51 81 51 51 81 51 51 81 50 50 80 50 50 80 50 50 80 50 50 80 49 49 79 49 49 79 49 49 79 48 48 78 48 48 78 48 48 78 48 48 78 47 47 77 47 47 77 47 47 77 46 46 76 46 46 76 46 46 76 45 45 75 45 45 75 45 45 75 
2 2 32 2 2 32 2 2 32 2 2 32 2 2 32 3 3 33 3 3 33 3 3 33 3 3 33 3 3 33 3 3 33 3 3 33 4 4 34 4 4 34 4 4 34 4 4 34 4 4 34 4 4 34 5 5 35 5 5 35 5 5 35 5 5 35 5 5 35 5 5 35 6 6 36 6 6 36 6 6 36 6 6 36 6 6 36 7 7 37 7 7 37 7 7 37 7 7 37 7 7 37 8 8 38 8 8 38 8 8 38 8 8 38 9 9 39 9 9 39 9 9 39 9 9 39 9 9 39 10 10 40 10 10 40 10 10 40 10 10 40 11 11 41 11 11 41 11 11 41 11 11 41 12 12 42 12 12 42 12 12 42 13 13 43 13 13 43 13 13 43 13 13 43 14 14 44 14 14 44 14 14 44 15 15 45 15 15 45 15 15 45 15 15 45 16 16 46 16 16 46 16 16 46 17 17 47 17 17 47 17 17 47 18 18 48 18 18 48 18 18 48 19 19 49 19 19 49 19 19 49 20 20 50 20 20 50 20 20 50 21 21 51 21 21 51 21 21 51 22 22 52 22 22 52 22 22 52 23 23 53 23 23 53 23 23 53 24 24 54 24 24 54 24 24 54 25 25 55 25 25 55 25 25 55 26 26 56 26 26 56 26 26 56 27 27 57 27 27 57 27 27 57 28 28 58 28 28 58 29 29 59 29 29 59 29 29 59 30 30 60 30 30 60 30 30 60 31 31 61 31 31 61 31 31 61 32 32 62 32 32 62 33 33 63 33 33 63 33 33 63 34 34 64 34 34 64 34 34 64 35 35 65 35 35 65 35 35 65 36 36 66 36 36 66 36 36 66 37 37 67 37 37 67 38 38 68 38 38 68 38 38 68 39 39 69 39 39 69 39 39 69 40 40 70 40 40 70 40 40 70 41 41 71 41 41 71 41 41 71 42 42 72 42 42 72 42 42 72 43 43 73 43 43 73 43 43 73 44 44 74 44 44 74 44 44 74 45 45 75 45 45 75 45 45 75 46 46 76 46 46 76 46 46 76 47 47 77 47 47 77 47 47 77 48 48 78 48 48 78 48 48 78 49 49 79 49 49 79 49 49 79 49 49 79 50 50 80 50 50 80 50 50 80 51 51 81 51 51 81 51 51 81 51 51 81 52 52 82 52 52 82 52 52 82 52 52 82 53 53 83 53 53 83 53 53 83 53 53 83 54 54 84 54 54 84 54 54 84 54 54 84 54 54 84 55 55 85 55 55 85 55 55 85 55 55 85 55 55 85 56 56 86 56 56 86 56 56 86 56 56 86 56 56 86 56 56 86 57 57 87 57 57 87 57 57 87 57 57 87 57 57 87 57 57 87 57 57 87 58 58 88 58 58 88 58 58 88 58 58 88 58 58 88 58 58 88 58 58 88 58 58 88 58 58 88 58 58 88 58 58 88 59 59 89 59 59 89 59 59 89 59 59 89 59 59 89 59 59 89 59 59 89 59 59 89 59 59 89 59 59 89 59 59 89 59 59 89 59 59 89 59 59 89 59 59 89 59 59 89 59 59 89 59 59 89 59 59 89 59 59 89 59 59 89 59 59 89 59 59 89 59 59 89 59 59 89 59 59 89 58 58 88 58 58 88 58 58 88 58 58 88 58 58 88 58 58 88 58 58 88 58 58 88 58 58 88 58 58 88 57 57 87 57 57 87 57 57 87 57 57 87 57 57 87 57 57 87 57 57 87 56 56 86 56 56 86 56 56 86 56 56 86 56 56 86 56 56 86 55 55 85 55 55 85 55 55 85 55 55 85 55 55 85 54 54 84 54 54 84 54 54 84 54 54 84 54 54 84 53 53 83 53 53 83 53 53 83 53 53 83 52 52 82 52 52 82 52 52 82 52 52 82 51 51 81 51 51 81 51 51 81 51 51 81 50 50 80 50 50 80 50 50 80 49 49 79 49 49 79 49 49 79 49 49 79 48 48 78 48 48 78 48 48 78 47 47 77 47 47 77 47 47 77 46 46 76 46 46 76 
2 2 32 2 2 32 2 2 32 3 3 33 3 3 33 3 3 33 3 3 33 3 3 33 3 3 33 3 3 33 4 4 34 4 4 34 4 4 34 4 4 34 4 4 34 4 4 34 4 4 34 5 5 35 5 5 35 5 5 35 5 5 35 5 5 35 6 6 36 6 6 36 6 6 36 6 6 36 6 6 36 7 7 37 7 7 37 7 7 37 7 7 37 7 7 37 8 8 38 8 8 38 8 8 38 8 8 38 9 9 39 9 9 39 9 9 39 9 9 39 9 9 39 10 10 40 10 10 40 10 10 40 10 10 40 11 11 41 11 11 41 11 11 41 11 11 41 12 12 42 12 12 42 12 12 42 13 13 43 13 13 43 13 13 43 13 13 43 14 14 44 14 14 44 14 14 44 15 15 45 15 15 45 15 15 45 15 15 45 16 16 46 16 16 46 16 16 46 17 17 47 17 17 47 17 17 47 18 18 48 18 18 48 18 18 48 19 19 49 19 19 49 19 19 49 20 20 50 20 20 50 20 20 50 21 21 51 21 21 51 21 21 51 22 22 52 22 22 52 22 22 52 23 23 53 23 23 53 23 23 53 24 24 54 24 24 54 24 24 54 25 25 55 25 25 55 25 25 55 26 26 56 26 26 56 26 26 56 27 27 57 27 27 57 27 27 57 28 28 58 28 28 58 29 29 59 29 29 59 29 29 59 30 30 60 30 30 60 30 30 60 31 31 61 31 31 61 32 32 62 32 32 62 32 32 62 33 33 63 33 33 63 33 33 63 34 34 64 34 34 64 34 34 64 35 35 65 35 35 65 36 36 66 36 36 66 36 36 66 37 37 67 37 37 67 37 37 67 38 38 68 38 38 68 38 38 68 39 39 69 39 39 69 40 40 70 40 40 70 40 40 70 41 41 71 41 41 71 41 41 71 42 42 72 42 42 72 42 42 72 43 43 73 43 43 73 43 43 73 44 44 74 44 44 74 44 44 74 45 45 75 45 45 75 45 45 75 46 46 76 46 46 76 46 46 76 47 47 77 47 47 77 47 47 77 48 48 78 48 48 78 48 48 78 49 49 79 49 49 79 49 49 79 50 50 80 50 50 80 50 50 80 50 50 80 51 51 81 51 51 81 51 51 81 52 52 82 52 52 82 52 52 82 52 52 82 53 53 83 53 53 83 53 53 83 53 53 83 54 54 84 54 54 84 54 54 84 54 54 84 55 55 85 55 55 85 55 55 85 55 55 85 55 55 85 56 56 86 56 56 86 56 56 86 56 56 86 56 56 86 57 57 87 57 57 87 57 57 87 57 57 87 57 57 87 57 57 87 58 58 88 58 58 88 58 58 88 58 58 88 58 58 88 58 58 88 59 59 89 59 59 89 59 59 89 59 59 89 59 59 89 59 59 89 59 59 89 59 59 89 59 59 89 59 59 89 60 60 90 60 60 90 60 60 90 60 60 90 60 60 90 60 60 90 60 60 90 60 60 90 60 60 90 60 60 90 60 60 90 60 60 90 60 60 90 60 60 90 60 60 90 60 60 90 60 60 90 60 60 90 60 60 90 60 60 90 60 60 90 60 60 90 60 60 90 60 60 90 60 60 90 60 60 90 60 60 90 60 60 90 60 60 90 60 60 90 59 59 89 59 59 89 59 59 89 59 59 89 59 59 89 59 59 89 59 59 89 59 59 89 59 59 89 58 58 88 58 58 88 58 58 88 58 58 88 58 58 88 58 58 88 58 58 88 57 57 87 57 57 87 57 57 87 57 57 87 57 57 87 57 57 87 56 56 86 56 56 86 56 56 86 56 56 86 56 56 86 55 55 85 55 55 85 55 55 85 55 55 85 54 54 84 54 54 84 54 54 84 54 54 84 54 54 84 53 53 83 53 53 83 53 53 83 52 52 82 52 52 82 52 52 82 52 52 82 51 51 81 51 51 81 51 51 81 51 51 81 50 50 80 50 50 80 50 50 80 49 49 79 49 49 79 49 49 79 48 48 78 48 48 78 48 48 78 48 48 78 47 47 77 
2 2 32 3 3 33 3 3 33 3 3 33 3 3 33 3 3 33 3 3 33 3 3 33 4 4 34 4 4 34 4 4 34 4 4 34 4 4 34 4 4 34 4 4 34 5 5 35 5 5 35 5 5 35 5 5 35 5 5 35 6 6 36 6 6 36 6 6 36 6 6 36 6 6 36 7 7 37 7 7 37 7 7 37 7 7 37 7 7 37 8 8 38 8 8 38 8 8 38 8 8 38 8 8 38 9 9 39 9 9 39 9 9 39 9 9 39 10 10 40 10 10 40 10 10 40 10 10 40 11 11 41 11 11 41 11 11 41 11 11 41 12 12 42 12 12 42 12 12 42 13 13 43 13 13 43 13 13 43 13 13 43 14 14 44 14 14 44 14 14 44 15 15 45 15 15 45 15 15 45 15 15 45 16 16 46 16 16 46 16 16 46 17 17 47 17 17 47 17 17 47 18 18 48 18 18 48 18 18 48 19 19 49 19 19 49 19 19 49 20 20 50 20 20 50 20 20 50 21 21 51 21 21 51 21 21 51 22 22 52 22 22 52 22 22 52 23 23 53 23 23 53 23 23 53 24 24 54 24 24 54 24 24 54 25 25 55 25 25 55 25 25 55 26 26 56 26 26 56 26 26 56 27 27 57 27 27 57 28 28 58 28 28 58 28 28 58 29 29 59 29 29 59 29 29 59 30 30 60 30 30 60 30 30 60 31 31 61 31 31 61 32 32 62 32 32 62 32 32 62 33 33 63 33 33 63 33 33 63 34 34 64 34 34 64 35 35 65 35 35 65 35 35 65 36 36 66 36 36 66 36 36 66 37 37 67 37 37 67 38 38 68 38 38 68 38 38 68 39 39 69 39 39 69 39 39 69 40 40 70 40 40 70 40 40 70 41 41 71 41 41 71 42 42 72 42 42 72 42 42 72 43 43 73 43 43 73 43 43 73 44 44 74 44 44 74 44 44 74 45 45 75 45 45 75 45 45 75 46 46 76 46 46 76 46 46 76 47 47 77 47 47 77 47 47 77 48 48 78 48 48 78 48 48 78 49 49 79 49 49 79 49 49 79 50 50 80 50 50 80 50 50 80 51 51 81 51 51 81 51 51 81 51 51 81 52 52 82 52 52 82 52 52 82 53 53 83 53 53 83 53 53 83 53 53 83 54 54 84 54 54 84 54 54 84 54 54 84 55 55 85 55 55 85 55 55 85 55 55 85 56 56 86 56 56 86 56 56 86 56 56 86 56 56 86 57 57 87 57 57 87 57 57 87 57 57 87 57 57 87 58 58 88 58 58 88 58 58 88 58 58 88 58 58 88 59 59 89 59 59 89 59 59 89 59 59 89 59 59 89 59 59 89 59 59 89 60 60 90 60 60 90 60 60 90 60 60 90 60 60 90 60 60 90 60 60 90 60 60 90 60 60 90 61 61 91 61 61 91 61 61 91 61 61 91 61 61 91 61 61 91 61 61 91 61 61 91 61 61 91 61 61 91 61 61 91 61 61 91 61 61 91 61 61 91 61 61 91 61 61 91 61 61 91 61 61 91 61 61 91 61 61 91 61 61 91 61 61 91 61 61 91 61 61 91 61 61 91 61 61 91 61 61 91 61 61 91 61 61 91 61 61 91 61 61 91 61 61 91 61 61 91 60 60 90 60 60 90 60 60 90 60 60 90 60 60 90 60 60 90 60 60 90 60 60 90 60 60 90 59 59 89 59 59 89 59 59 89 59 59 89 59 59 89 59 59 89 58 58 88 58 58 88 58 58 88 58 58 88 58 58 88 58 58 88 57 57 87 57 57 87 57 57 87 57 57 87 57 57 87 56 56 86 56 56 86 56 56 86 56 56 86 55 55 85 55 55 85 55 55 85 55 55 85 54 54 84 54 54 84 54 54 84 54 54 84 53 53 83 53 53 83 53 53 83 53 53 83 52 52 82 52 52 82 52 52 82 51 51 81 51 51 81 51 51 81 51 51 81 50 50 80 50 50 80 50 50 80 49 49 79 49 49 79 49 49 79 48 48 78 
3 3 33 3 3 33 3 3 33 3 3 33 3 3 33 3 3 33 4 4 34 4 4 34 4 4 34 4 4 34 4 4 34 4 4 34 4 4 34 5 5 35 5 5 35 5 5 35 5 5 35 5 5 35 6 6 36 6 6 36 6 6 36 6 6 36 6 6 36 7 7 37 7 7 37 7 7 37 7 7 37 7 7 37 8 8 38 8 8 38 8 8 38 8 8 38 8 8 38 9 9 39 9 9 39 9 9 39 9 9 39 10 10 40 10 10 40 10 10 40 10 10 40 11 11 41 11 11 41 11 11 41 11 11 41 12 12 42 12 12 42 12 12 42 13 13 43 13 13 43 13 13 43 13 13 43 14 14 44 14 14 44 14 14 44 15 15 45 15 15 45 15 15 45 15 15 45 16 16 46 16 16 46 16 16 46 17 17 47 17 17 47 17 17 47 18 18 48 18 18 48 18 18 48 19 19 49 19 19 49 19 19 49 20 20 50 20 20 50 20 20 50 21 21 51 21 21 51 21 21 51 22 22 52 22 22 52 22 22 52 23 23 53 23 23 53 23 23 53 24 24 54 24 24 54 24 24 54 25 25 55 25 25 55 25 25 55 26 26 56 26 26 56 26 26 56 27 27 57 27 27 57 28 28 58 28 28 58 28 28 58 29 29 59 29 29 59 29 29 59 30 30 60 30 30 60 31 31 61 31 31 61 31 31 61 32 32 62 32 32 62 32 32 62 33 33 63 33 33 63 34 34 64 34 34 64 34 34 64 35 35 65 35 35 65 35 35 65 36 36 66 36 36 66 37 37 67 37 37 67 37 37 67 38 38 68 38 38 68 38 38 68 39 39 69 39 39 69 39 39 69 40 40 70 40 40 70 41 41 71 41 41 71 41 41 71 42 42 72 42 42 72 42 42 72 43 43 73 43 43 73 44 44 74 44 44 74 44 44 74 45 45 75 45 45 75 45 45 75 46 46 76 46 46 76 46 46 76 47 47 77 47 47 77 47 47 77 48 48 78 48 48 78 48 48 78 49 49 79 49 49 79 49 49 79 50 50 80 50 50 80 50 50 80 51 51 81 51 51 81 51 51 81 52 52 82 52 52 82 52 52 82 52 52 82 53 53 83 53 53 83 53 53 83 54 54 84 54 54 84 54 54 84 54 54 84 55 55 85 55 55 85 55 55 85 55 55 85 56 56 86 56 56 86 56 56 86 56 56 86 57 57 87 57 57 87 57 57 87 57 57 87 58 58 88 58 58 88 58 58 88 58 58 88 58 58 88 59 59 89 59 59 89 59 59 89 59 59 89 59 59 89 59 59 89 60 60 90 60 60 90 60 60 90 60 60 90 60 60 90 60 60 90 61 61 91 61 61 91 61 61 91 61 61 91 61 61 91 61 61 91 61 61 91 61 61 91 61 61 91 62 62 92 62 62 92 62 62 92 62 62 92 62 62 92 62 62 92 62 62 92 62 62 92 62 62 92 62 62 92 62 62 92 62 62 92 62 62 92 62 62 92 62 62 92 62 62 92 62 62 92 62 62 92 62 62 92 62 62 92 62 62 92 62 62 92 62 62 92 62 62 92 62 62 92 62 62 92 62 62 92 62 62 92 62 62 92 62 62 92 62 62 92 62 62 92 62 62 92 62 62 92 62 62 92 61 61 91 61 61 91 61 61 91 61 61 91 61 61 91 61 61 91 61 61 91 61 61 91 61 61 91 60 60 90 60 60 90 60 60 90 60 60 90 60 60 90 60 60 90 59 59 89 59 59 89 59 59 89 59 59 89 59 59 89 59 59 89 58 58 88 58 58 88 58 58 88 58 58 88 57 57 87 57 57 87 57 57 87 57 57 87 57 57 87 56 56 86 56 56 86 56 56 86 56 56 86 55 55 85 55 55 85 55 55 85 55 55 85 54 54 84 54 54 84 54 54 84 53 53 83 53 53 83 53 53 83 53 53 83 52 52 82 52 52 82 52 52 82 51 51 81 51 51 81 51 51 81 51 51 81 50 50 80 50 50 80 50 50 80 
3 3 33 3 3 33 3 3 33 3 3 33 3 3 33 4 4 34 4 4 34 4 4 34 4 4 34 4 4 34 4 4 34 5 5 35 5 5 35 5 5 35 5 5 35 5 5 35 6 6 36 6 6 36 6 6 36 6 6 36 6 6 36 6 6 36 7 7 37 7 7 37 7 7 37 7 7 37 8 8 38 8 8 38 8 8 38 8 8 38 8 8 38 9 9 39 9 9 39 9 9 39 9 9 39 10 10 40 10 10 40 10 10 40 10 10 40 11 11 41 11 11 41 11 11 41 11 11 41 12 12 42 12 12 42 12 12 42 12 12 42 13 13 43 13 13 43 13 13 43 14 14 44 14 14 44 14 14 44 14 14 44 15 15 45 15 15 45 15 15 45 16 16 46 16 16 46 16 16 46 17 17 47 17 17 47 17 17 47 18 18 48 18 18 48 18 18 48 18 18 48 19 19 49 19 19 49 19 19 49 20 20 50 20 20 50 20 20 50 21 21 51 21 21 51 21 21 51 22 22 52 22 22 52 23 23 53 23 23 53 23 23 53 24 24 54 24 24 54 24 24 54 25 25 55 25 25 55 25 25 55 26 26 56 26 26 56 26 26 56 27 27 57 27 27 57 28 28 58 28 28 58 28 28 58 29 29 59 29 29 59 29 29 59 30 30 60 30 30 60 31 31 61 31 31 61 31 31 61 32 32 62 32 32 62 32 32 62 33 33 63 33 33 63 34 34 64 34 34 64 34 34 64 35 35 65 35 35 65 35 35 65 36 36 66 36 36 66 37 37 67 37 37 67 37 37 67 38 38 68 38 38 68 38 38 68 39 39 69 39 39 69 40 40 70 40 40 70 40 40 70 41 41 71 41 41 71 41 41 71 42 42 72 42 42 72 43 43 73 43 43 73 43 43 73 44 44 74 44 44 74 44 44 74 45 45 75 45 45 75 45 45 75 46 46 76 46 46 76 47 47 77 47 47 77 47 47 77 48 48 78 48 48 78 48 48 78 49 49 79 49 49 79 49 49 79 50 50 80 50 50 80 50 50 80 51 51 81 51 51 81 51 51 81 52 52 82 52 52 82 52 52 82 52 52 82 53 53 83 53 53 83 53 53 83 54 54 84 54 54 84 54 54 84 55 55 85 55 55 85 55 55 85 55 55 85 56 56 86 56 56 86 56 56 86 56 56 86 57 57 87 57 57 87 57 57 87 57 57 87 58 58 88 58 58 88 58 58 88 58 58 88 59 59 89 59 59 89 59 59 89 59 59 89 59 59 89 60 60 90 60 60 90 60 60 90 60 60 90 60 60 90 61 61 91 61 61 91 61 61 91 61 61 91 61 61 91 61 61 91 61 61 91 62 62 92 62 62 92 62 62 92 62 62 92 62 62 92 62 62 92 62 62 92 62 62 92 63 63 93 63 63 93 63 63 93 63 63 93 63 63 93 63 63 93 63 63 93 63 63 93 63 63 93 63 63 93 63 63 93 63 63 93 63 63 93 63 63 93 63 63 93 63 63 93 63 63 93 63 63 93 63 63 93 63 63 93 63 63 93 63 63 93 63 63 93 63 63 93 63 63 93 63 63 93 63 63 93 63 63 93 63 63 93 63 63 93 63 63 93 63 63 93 63 63 93 63 63 93 63 63 93 63 63 93 63 63 93 62 62 92 62 62 92 62 62 92 62 62 92 62 62 92 62 62 92 62 62 92 62 62 92 62 62 92 61 61 91 61 61 91 61 61 91 61 61 91 61 61 91 61 61 91 60 60 90 60 60 90 60 60 90 60 60 90 60 60 90 59 59 89 59 59 89 59 59 89 59 59 89 59 59 89 58 58 88 58 58 88 58 58 88 58 58 88 58 58 88 57 57 87 57 57 87 57 57 87 57 57 87 56 56 86 56 56 86 56 56 86 55 55 85 55 55 85 55 55 85 55 55 85 54 54 84 54 54 84 54 54 84 53 53 83 53 53 83 53 53 83 53 53 83 52 52 82 52 52 82 52 52 82 51 51 81 51 51 81 51 51 81 
3 3 33 3 3 33 3 3 33 4 4 34 4 4 34 4 4 34 4 4 34 4 4 34 4 4 34 5 5 35 5 5 35 5 5 35 5 5 35 5 5 35 5 5 35 6 6 36 6 6 36 6 6 36 6 6 36 6 6 36 7 7 37 7 7 37 7 7 37 7 7 37 8 8 38 8 8 38 8 8 38 8 8 38 8 8 38 9 9 39 9 9 39 9 9 39 9 9 39 10 10 40 10 10 40 10 10 40 10 10 40 11 11 41 11 11 41 11 11 41 11 11 41 12 12 42 12 12 42 12 12 42 12 12 42 13 13 43 13 13 43 13 13 43 14 14 44 14 14 44 14 14 44 14 14 44 15 15 45 15 15 45 15 15 45 16 16 46 16 16 46 16 16 46 17 17 47 17 17 47 17 17 47 17 17 47 18 18 48 18 18 48 18 18 48 19 19 49 19 19 49 19 19 49 20 20 50 20 20 50 20 20 50 21 21 51 21 21 51 21 21 51 22 22 52 22 22 52 23 23 53 23 23 53 23 23 53 24 24 54 24 24 54 24 24 54 25 25 55 25 25 55 25 25 55 26 26 56 26 26 56 26 26 56 27 27 57 27 27 57 28 28 58 28 28 58 28 28 58 29 29 59 29 29 59 29 29 59 30 30 60 30 30 60 31 31 61 31 31 61 31 31 61 32 32 62 32 32 62 32 32 62 33 33 63 33 33 63 34 34 64 34 34 64 34 34 64 35 35 65 35 35 65 36 36 66 36 36 66 36 36 66 37 37 67 37 37 67 37 37 67 38 38 68 38 38 68 39 39 69 39 39 69 39 39 69 40 40 70 40 40 70 40 40 70 41 41 71 41 41 71 42 42 72 42 42 72 42 42 72 43 43 73 43 43 73 43 43 73 44 44 74 44 44 74 45 45 75 45 45 75 45 45 75 46 46 76 46 46 76 46 46 76 47 47 77 47 47 77 47 47 77 48 48 78 48 48 78 49 49 79 49 49 79 49 49 79 50 50 80 50 50 80 50 50 80 51 51 81 51 51 81 51 51 81 52 52 82 52 52 82 52 52 82 53 53 83 53 53 83 53 53 83 53 53 83 54 54 84 54 54 84 54 54 84 55 55 85 55 55 85 55 55 85 56 56 86 56 56 86 56 56 86 56 56 86 57 57 87 57 57 87 57 57 87 57 57 87 58 58 88 58 58 88 58 58 88 58 58 88 59 59 89 59 59 89 59 59 89 59 59 89 60 60 90 60 60 90 60 60 90 60 60 90 60 60 90 61 61 91 61 61 91 61 61 91 61 61 91 61 61 91 62 62 92 62 62 92 62 62 92 62 62 92 62 62 92 62 62 92 62 62 92 63 63 93 63 63 93 63 63 93 63 63 93 63 63 93 63 63 93 63 63 93 63 63 93 64 64 94 64 64 94 64 64 94 64 64 94 64 64 94 64 64 94 64 64 94 64 64 94 64 64 94 64 64 94 64 64 94 64 64 94 64 64 94 64 64 94 64 64 94 64 64 94 65 65 95 65 65 95 65 65 95 65 65 95 65 65 95 65 65 95 64 64 94 64 64 94 64 64 94 64 64 94 64 64 94 64 64 94 64 64 94 64 64 94 64 64 94 64 64 94 64 64 94 64 64 94 64 64 94 64 64 94 64 64 94 64 64 94 63 63 93 63 63 93 63 63 93 63 63 93 63 63 93 63 63 93 63 63 93 63 63 93 62 62 92 62 62 92 62 62 92 62 62 92 62 62 92 62 62 92 62 62 92 61 61 91 61 61 91 61 61 91 61 61 91 61 61 91 60 60 90 60 60 90 60 60 90 60 60 90 60 60 90 59 59 89 59 59 89 59 59 89 59 59 89 58 58 88 58 58 88 58 58 88 58 58 88 57 57 87 57 57 87 57 57 87 57 57 87 56 56 86 56 56 86 56 56 86 56 56 86 55 55 85 55 55 85 55 55 85 54 54 84 54 54 84 54 54 84 53 53 83 53 53 83 53 53 83 53 53 83 52 52 82 52 52 82 
3 3 33 4 4 34 4 4 34 4 4 34 4 4 34 4 4 34 4 4 34 5 5 35 5 5 35 5 5 35 5 5 35 5 5 35 5 5 35 6 6 36 6 6 36 6 6 36 6 6 36 6 6 36 7 7 37 7 7 37 7 7 37 7 7 37 7 7 37 8 8 38 8 8 38 8 8 38 8 8 38 9 9 39 9 9 39 9 9 39 9 9 39 10 10 40 10 10 40 10 10 40 10 10 40 11 11 41 11 11 41 11 11 41 11 11 41 12 12 42 12 12 42 12 12 42 12 12 42 13 13 43 13 13 43 13 13 43 14 14 44 14 14 44 14 14 44 14 14 44 15 15 45 15 15 45 15 15 45 16 16 46 16 16 46 16 16 46 16 16 46 17 17 47 17 17 47 17 17 47 18 18 48 18 18 48 18 18 48 19 19 49 19 19 49 19 19 49 20 20 50 20 20 50 20 20 50 21 21 51 21 21 51 21 21 51 22 22 52 22 22 52 22 22 52 23 23 53 23 23 53 24 24 54 24 24 54 24 24 54 25 25 55 25 25 55 25 25 55 26 26 56 26 26 56 26 26 56 27 27 57 27 27 57 28 28 58 28 28 58 28 28 58 29 29 59 29 29 59 29 29 59 30 30 60 30 30 60 31 31 61 31 31 61 31 31 61 32 32 62 32 32 62 32 32 62 33 33 63 33 33 63 34 34 64 34 34 64 34 34 64 35 35 65 35 35 65 36 36 66 36 36 66 36 36 66 37 37 67 37 37 67 37 37 67 38 38 68 38 38 68 39 39 69 39 39 69 39 39 69 40 40 70 40 40 70 41 41 71 41 41 71 41 41 71 42 42 72 42 42 72 42 42 72 43 43 73 43 43 73 44 44 74 44 44 74 44 44 74 45 45 75 45 45 75 45 45 75 46 46 76 46 46 76 47 47 77 47 47 77 47 47 77 48 48 78 48 48 78 48 48 78 49 49 79 49 49 79 49 49 79 50 50 80 50 50 80 50 50 80 51 51 81 51 51 81 51 51 81 52 52 82 52 52 82 52 52 82 53 53 83 53 53 83 53 53 83 54 54 84 54 54 84 54 54 84 55 55 85 55 55 85 55 55 85 56 56 86 56 56 86 56 56 86 56 56 86 57 57 87 57 57 87 57 57 87 58 58 88 58 58 88 58 58 88 58 58 88 59 59 89 59 59 89 59 59 89 59 59 89 60 60 90 60 60 90 60 60 90 60 60 90 61 61 91 61 61 91 61 61 91 61 61 91 61 61 91 62 62 92 62 62 92 62 62 92 62 62 92 62 62 92 63 63 93 63 63 93 63 63 93 63 63 93 63 63 93 63 63 93 64 64 94 64 64 94 64 64 94 64 64 94 64 64 94 64 64 94 64 64 94 64 64 94 65 65 95 65 65 95 65 65 95 65 65 95 65 65 95 65 65 95 65 65 95 65 65 95 65 65 95 65 65 95 65 65 95 65 65 95 65 65 95 65 65 95 66 66 96 66 66 96 66 66 96 66 66 96 66 66 96 66 66 96 66 66 96 66 66 96 66 66 96 66 66 96 66 66 96 66 66 96 65 65 95 65 65 95 65 65 95 65 65 95 65 65 95 65 65 95 65 65 95 65 65 95 65 65 95 65 65 95 65 65 95 65 65 95 65 65 95 65 65 95 64 64 94 64 64 94 64 64 94 64 64 94 64 64 94 64 64 94 64 64 94 64 64 94 63 63 93 63 63 93 63 63 93 63 63 93 63 63 93 63 63 93 62 62 92 62 62 92 62 62 92 62 62 92 62 62 92 62 62 92 61 61 91 61 61 91 61 61 91 61 61 91 60 60 90 60 60 90 60 60 90 60 60 90 60 60 90 59 59 89 59 59 89 59 59 89 59 59 89 58 58 88 58 58 88 58 58 88 57 57 87 57 57 87 57 57 87 57 57 87 56 56 86 56 56 86 56 56 86 55 55 85 55 55 85 55 55 85 55 55 85 54 54 84 54 54 84 54 54 84 53 53 83 53 53 83 
4 4 34 4 4 34 4 4 34 4 4 34 4 4 34 5 5 35 5 5 35 5 5 35 5 5 35 5 5 35 5 5 35 6 6 36 6 6 36 6 6 36 6 6 36 6 6 36 7 7 37 7 7 37 7 7 37 7 7 37 7 7 37 8 8 38 8 8 38 8 8 38 8 8 38 9 9 39 9 9 39 9 9 39 9 9 39 10 10 40 10 10 40 10 10 40 10 10 40 10 10 40 11 11 41 11 11 41 11 11 41 12 12 42 12 12 42 12 12 42 12 12 42 13 13 43 13 13 43 13 13 43 13 13 43 14 14 44 14 14 44 14 14 44 15 15 45 15 15 45 15 15 45 16 16 46 16 16 46 16 16 46 16 16 46 17 17 47 17 17 47 17 17 47 18 18 48 18 18 48 18 18 48 19 19 49 19 19 49 19 19 49 20 20 50 20 20 50 20 20 50 21 21 51 21 21 51 21 21 51 22 22 52 22 22 52 22 22 52 23 23 53 23 23 53 23 23 53 24 24 54 24 24 54 25 25 55 25 25 55 25 25 55 26 26 56 26 26 56 26 26 56 27 27 57 27 27 57 27 27 57 28 28 58 28 28 58 29 29 59 29 29 59 29 29 59 30 30 60 30 30 60 31 31 61 31 31 61 31 31 61 32 32 62 32 32 62 32 32 62 33 33 63 33 33 63 34 34 64 34 34 64 34 34 64 35 35 65 35 35 65 36 36 66 36 36 66 36 36 66 37 37 67 37 37 67 38 38 68 38 38 68 38 38 68 39 39 69 39 39 69 39 39 69 40 40 70 40 40 70 41 41 71 41 41 71 41 41 71 42 42 72 42 42 72 43 43 73 43 43 73 43 43 73 44 44 74 44 44 74 44 44 74 45 45 75 45 45 75 46 46 76 46 46 76 46 46 76 47 47 77 47 47 77 47 47 77 48 48 78 48 48 78 49 49 79 49 49 79 49 49 79 50 50 80 50 50 80 50 50 80 51 51 81 51 51 81 51 51 81 52 52 82 52 52 82 52 52 82 53 53 83 53 53 83 53 53 83 54 54 84 54 54 84 54 54 84 55 55 85 55 55 85 55 55 85 56 56 86 56 56 86 56 56 86 57 57 87 57 57 87 57 57 87 57 57 87 58 58 88 58 58 88 58 58 88 59 59 89 59 59 89 59 59 89 59 59 89 60 60 90 60 60 90 60 60 90 60 60 90 61 61 91 61 61 91 61 61 91 61 61 91 62 62 92 62 62 92 62 62 92 62 62 92 62 62 92 63 63 93 63 63 93 63 63 93 63 63 93 63 63 93 64 64 94 64 64 94 64 64 94 64 64 94 64 64 94 64 64 94 65 65 95 65 65 95 65 65 95 65 65 95 65 65 95 65 65 95 65 65 95 65 65 95 66 66 96 66 66 96 66 66 96 66 66 96 66 66 96 66 66 96 66 66 96 66 66 96 66 66 96 66 66 96 66 66 96 66 66 96 66 66 96 67 67 97 67 67 97 67 67 97 67 67 97 67 67 97 67 67 97 67 67 97 67 67 97 67 67 97 67 67 97 67 67 97 67 67 97 67 67 97 67 67 97 67 67 97 66 66 96 66 66 96 66 66 96 66 66 96 66 66 96 66 66 96 66 66 96 66 66 96 66 66 96 66 66 96 66 66 96 66 66 96 66 66 96 65 65 95 65 65 95 65 65 95 65 65 95 65 65 95 65 65 95 65 65 95 65 65 95 64 64 94 64 64 94 64 64 94 64 64 94 64 64 94 64 64 94 63 63 93 63 63 93 63 63 93 63 63 93 63 63 93 62 62 92 62 62 92 62 62 92 62 62 92 62 62 92 61 61 91 61 61 91 61 61 91 61 61 91 60 60 90 60 60 90 60 60 90 60 60 90 59 59 89 59 59 89 59 59 89 59 59 89 58 58 88 58 58 88 58 58 88 57 57 87 57 57 87 57 57 87 57 57 87 56 56 86 56 56 86 56 56 86 55 55 85 55 55 85 55 55 85 54 54 84 54 54 84 
4 4 34 4 4 34 4 4 34 5 5 35 5 5 35 5 5 35 5 5 35 5 5 35 5 5 35 6 6 36 6 6 36 6 6 36 6 6 36 6 6 36 7 7 37 7 7 37 7 7 37 7 7 37 7 7 37 8 8 38 8 8 38 8 8 38 8 8 38 9 9 39 9 9 39 9 9 39 9 9 39 9 9 39 10 10 40 10 10 40 10 10 40 10 10 40 11 11 41 11 11 41 11 11 41 11 11 41 12 12 42 12 12 42 12 12 42 13 13 43 13 13 43 13 13 43 13 13 43 14 14 44 14 14 44 14 14 44 15 15 45 15 15 45 15 15 45 15 15 45 16 16 46 16 16 46 16 16 46 17 17 47 17 17 47 17 17 47 18 18 48 18 18 48 18 18 48 19 19 49 19 19 49 19 19 49 20 20 50 20 20 50 20 20 50 21 21 51 21 21 51 21 21 51 22 22 52 22 22 52 22 22 52 23 23 53 23 23 53 23 23 53 24 24 54 24 24 54 24 24 54 25 25 55 25 25 55 26 26 56 26 26 56 26 26 56 27 27 57 27 27 57 27 27 57 28 28 58 28 28 58 29 29 59 29 29 59 29 29 59 30 30 60 30 30 60 30 30 60 31 31 61 31 31 61 32 32 62 32 32 62 32 32 62 33 33 63 33 33 63 34 34 64 34 34 64 34 34 64 35 35 65 35 35 65 36 36 66 36 36 66 36 36 66 37 37 67 37 37 67 38 38 68 38 38 68 38 38 68 39 39 69 39 39 69 39 39 69 40 40 70 40 40 70 41 41 71 41 41 71 41 41 71 42 42 72 42 42 72 43 43 73 43 43 73 43 43 73 44 44 74 44 44 74 45 45 75 45 45 75 45 45 75 46 46 76 46 46 76 46 46 76 47 47 77 47 47 77 48 48 78 48 48 78 48 48 78 49 49 79 49 49 79 49 49 79 50 50 80 50 50 80 51 51 81 51 51 81 51 51 81 52 52 82 52 52 82 52 52 82 53 53 83 53 53 83 53 53 83 54 54 84 54 54 84 54 54 84 55 55 85 55 55 85 55 55 85 56 56 86 56 56 86 56 56 86 57 57 87 57 57 87 57 57 87 57 57 87 58 58 88 58 58 88 58 58 88 59 59 89 59 59 89 59 59 89 60 60 90 60 60 90 60 60 90 60 60 90 61 61 91 61 61 91 61 61 91 61 61 91 62 62 92 62 62 92 62 62 92 62 62 92 63 63 93 63 63 93 63 63 93 63 63 93 63 63 93 64 64 94 64 64 94 64 64 94 64 64 94 64 64 94 65 65 95 65 65 95 65 65 95 65 65 95 65 65 95 65 65 95 66 66 96 66 66 96 66 66 96 66 66 96 66 66 96 66 66 96 66 66 96 66 66 96 67 67 97 67 67 97 67 67 97 67 67 97 67 67 97 67 67 97 67 67 97 67 67 97 67 67 97 67 67 97 67 67 97 67 67 97 68 68 98 68 68 98 68 68 98 68 68 98 68 68 98 68 68 98 68 68 98 68 68 98 68 68 98 68 68 98 68 68 98 68 68 98 68 68 98 68 68 98 68 68 98 68 68 98 68 68 98 68 68 98 67 67 97 67 67 97 67 67 97 67 67 97 67 67 97 67 67 97 67 67 97 67 67 97 67 67 97 67 67 97 67 67 97 67 67 97 66 66 96 66 66 96 66 66 96 66 66 96 66 66 96 66 66 96 66 66 96 66 66 96 65 65 95 65 65 95 65 65 95 65 65 95 65 65 95 65 65 95 64 64 94 64 64 94 64 64 94 64 64 94 64 64 94 63 63 93 63 63 93 63 63 93 63 63 93 62 62 92 62 62 92 62 62 92 62 62 92 62 62 92 61 61 91 61 61 91 61 61 91 61 61 91 60 60 90 60 60 90 60 60 90 59 59 89 59 59 89 59 59 89 59 59 89 58 58 88 58 58 88 58 58 88 57 57 87 57 57 87 57 57 87 57 57 87 56 56 86 56 56 86 56 56 86 55 55 85 
4 4 34 4 4 34 5 5 35 5 5 35 5 5 35 5 5 35 5 5 35 6 6 36 6 6 36 6 6 36 6 6 36 6 6 36 7 7 37 7 7 37 7 7 37 7 7 37 7 7 37 8 8 38 8 8 38 8 8 38 8 8 38 8 8 38 9 9 39 9 9 39 9 9 39 9 9 39 10 10 40 10 10 40 10 10 40 10 10 40 11 11 41 11 11 41 11 11 41 11 11 41 12 12 42 12 12 42 12 12 42 12 12 42 13 13 43 13 13 43 13 13 43 14 14 44 14 14 44 14 14 44 14 14 44 15 15 45 15 15 45 15 15 45 16 16 46 16 16 46 16 16 46 17 17 47 17 17 47 17 17 47 18 18 48 18 18 48 18 18 48 19 19 49 19 19 49 19 19 49 20 20 50 20 20 50 20 20 50 21 21 51 21 21 51 21 21 51 22 22 52 22 22 52 22 22 52 23 23 53 23 23 53 23 23 53 24 24 54 24 24 54 24 24 54 25 25 55 25 25 55 26 26 56 26 26 56 26 26 56 27 27 57 27 27 57 27 27 57 28 28 58 28 28 58 29 29 59 29 29 59 29 29 59 30 30 60 30 30 60 30 30 60 31 31 61 31 31 61 32 32 62 32 32 62 32 32 62 33 33 63 33 33 63 34 34 64 34 34 64 34 34 64 35 35 65 35 35 65 36 36 66 36 36 66 36 36 66 37 37 67 37 37 67 38 38 68 38 38 68 38 38 68 39 39 69 39 39 69 39 39 69 40 40 70 40 40 70 41 41 71 41 41 71 41 41 71 42 42 72 42 42 72 43 43 73 43 43 73 43 43 73 44 44 74 44 44 74 45 45 75 45 45 75 45 45 75 46 46 76 46 46 76 47 47 77 47 47 77 47 47 77 48 48 78 48 48 78 48 48 78 49 49 79 49 49 79 50 50 80 50 50 80 50 50 80 51 51 81 51 51 81 51 51 81 52 52 82 52 52 82 52 52 82 53 53 83 53 53 83 54 54 84 54 54 84 54 54 84 55 55 85 55 55 85 55 55 85 56 56 86 56 56 86 56 56 86 57 57 87 57 57 87 57 57 87 57 57 87 58 58 88 58 58 88 58 58 88 59 59 89 59 59 89 59 59 89 60 60 90 60 60 90 60 60 90 60 60 90 61 61 91 61 61 91 61 61 91 62 62 92 62 62 92 62 62 92 62 62 92 63 63 93 63 63 93 63 63 93 63 63 93 63 63 93 64 64 94 64 64 94 64 64 94 64 64 94 65 65 95 65 65 95 65 65 95 65 65 95 65 65 95 66 66 96 66 66 96 66 66 96 66 66 96 66 66 96 66 66 96 67 67 97 67 67 97 67 67 97 67 67 97 67 67 97 67 67 97 67 67 97 67 67 97 68 68 98 68 68 98 68 68 98 68 68 98 68 68 98 68 68 98 68 68 98 68 68 98 68 68 98 68 68 98 68 68 98 68 68 98 69 69 99 69 69 99 69 69 99 69 69 99 69 69 99 69 69 99 69 69 99 69 69 99 69 69 99 69 69 99 69 69 99 69 69 99 69 69 99 69 69 99 69 69 99 69 69 99 69 69 99 69 69 99 69 69 99 68 68 98 68 68 98 68 68 98 68 68 98 68 68 98 68 68 98 68 68 98 68 68 98 68 68 98 68 68 98 68 68 98 68 68 98 67 67 97 67 67 97 67 67 97 67 67 97 67 67 97 67 67 97 67 67 97 66 66 96 66 66 96 66 66 96 66 66 96 66 66 96 66 66 96 65 65 95 65 65 95 65 65 95 65 65 95 65 65 95 64 64 94 64 64 94 64 64 94 64 64 94 64 64 94 63 63 93 63 63 93 63 63 93 63 63 93 62 62 92 62 62 92 62 62 92 62 62 92 61 61 91 61 61 91 61 61 91 61 61 91 60 60 90 60 60 90 60 60 90 59 59 89 59 59 89 59 59 89 59 59 89 58 58 88 58 58 88 58 58 88 57 57 87 57 57 87 57 57 87 56 56 86 
5 5 35 5 5 35 5 5 35 5 5 35 5 5 35 5 5 35 6 6 36 6 6 36 6 6 36 6 6 36 6 6 36 7 7 37 7 7 37 7 7 37 7 7 37 8 8 38 8 8 38 8 8 38 8 8 38 8 8 38 9 9 39 9 9 39 9 9 39 9 9 39 10 10 40 10 10 40 10 10 40 10 10 40 11 11 41 11 11 41 11 11 41 11 11 41 12 12 42 12 12 42 12 12 42 12 12 42 13 13 43 13 13 43 13 13 43 14 14 44 14 14 44 14 14 44 14 14 44 15 15 45 15 15 45 15 15 45 16 16 46 16 16 46 16 16 46 17 17 47 17 17 47 17 17 47 17 17 47 18 18 48 18 18 48 18 18 48 19 19 49 19 19 49 19 19 49 20 20 50 20 20 50 20 20 50 21 21 51 21 21 51 21 21 51 22 22 52 22 22 52 23 23 53 23 23 53 23 23 53 24 24 54 24 24 54 24 24 54 25 25 55 25 25 55 25 25 55 26 26 56 26 26 56 27 27 57 27 27 57 27 27 57 28 28 58 28 28 58 28 28 58 29 29 59 29 29 59 30 30 60 30 30 60 30 30 60 31 31 61 31 31 61 32 32 62 32 32 62 32 32 62 33 33 63 33 33 63 34 34 64 34 34 64 34 34 64 35 35 65 35 35 65 35 35 65 36 36 66 36 36 66 37 37 67 37 37 67 37 37 67 38 38 68 38 38 68 39 39 69 39 39 69 39 39 69 40 40 70 40 40 70 41 41 71 41 41 71 41 41 71 42 42 72 42 42 72 43 43 73 43 43 73 43 43 73 44 44 74 44 44 74 45 45 75 45 45 75 45 45 75 46 46 76 46 46 76 47 47 77 47 47 77 47 47 77 48 48 78 48 48 78 49 49 79 49 49 79 49 49 79 50 50 80 50 50 80 50 50 80 51 51 81 51 51 81 52 52 82 52 52 82 52 52 82 53 53 83 53 53 83 53 53 83 54 54 84 54 54 84 54 54 84 55 55 85 55 55 85 55 55 85 56 56 86 56 56 86 56 56 86 57 57 87 57 57 87 57 57 87 58 58 88 58 58 88 58 58 88 59 59 89 59 59 89 59 59 89 60 60 90 60 60 90 60 60 90 61 61 91 61 61 91 61 61 91 61 61 91 62 62 92 62 62 92 62 62 92 62 62 92 63 63 93 63 63 93 63 63 93 63 63 93 64 64 94 64 64 94 64 64 94 64 64 94 65 65 95 65 65 95 65 65 95 65 65 95 66 66 96 66 66 96 66 66 96 66 66 96 66 66 96 67 67 97 67 67 97 67 67 97 67 67 97 67 67 97 67 67 97 68 68 98 68 68 98 68 68 98 68 68 98 68 68 98 68 68 98 68 68 98 68 68 98 69 69 99 69 69 99 69 69 99 69 69 99 69 69 99 69 69 99 69 69 99 69 69 99 69 69 99 69 69 99 69 69 99 69 69 99 70 70 100 70 70 100 70 70 100 70 70 100 70 70 100 70 70 100 70 70 100 70 70 100 70 70 100 70 70 100 70 70 100 70 70 100 70 70 100 70 70 100 70 70 100 70 70 100 70 70 100 70 70 100 70 70 100 69 69 99 69 69 99 69 69 99 69 69 99 69 69 99 69 69 99 69 69 99 69 69 99 69 69 99 69 69 99 69 69 99 69 69 99 68 68 98 68 68 98 68 68 98 68 68 98 68 68 98 68 68 98 68 68 98 67 67 97 67 67 97 67 67 97 67 67 97 67 67 97 67 67 97 66 66 96 66 66 96 66 66 96 66 66 96 66 66 96 65 65 95 65 65 95 65 65 95 65 65 95 65 65 95 64 64 94 64 64 94 64 64 94 64 64 94 63 63 93 63 63 93 63 63 93 63 63 93 62 62 92 62 62 92 62 62 92 62 62 92 61 61 91 61 61 91 61 61 91 60 60 90 60 60 90 60 60 90 60 60 90 59 59 89 59 59 89 59 59 89 58 58 88 58 58 88 58 58 88 57 57 87 
5 5 35 5 5 35 5 5 35 5 5 35 6 6 36 6 6 36 6 6 36 6 6 36 6 6 36 7 7 37 7 7 37 7 7 37 7 7 37 7 7 37 8 8 38 8 8 38 8 8 38 8 8 38 9 9 39 9 9 39 9 9 39 9 9 39 10 10 40 10 10 40 10 10 40 10 10 40 10 10 40 11 11 41 11 11 41 11 11 41 12 12 42 12 12 42 12 12 42 12 12 42 13 13 43 13 13 43 13 13 43 13 13 43 14 14 44 14 14 44 14 14 44 15 15 45 15 15 45 15 15 45 16 16 46 16 16 46 16 16 46 16 16 46 17 17 47 17 17 47 17 17 47 18 18 48 18 18 48 18 18 48 19 19 49 19 19 49 19 19 49 20 20 50 20 20 50 20 20 50 21 21 51 21 21 51 21 21 51 22 22 52 22 22 52 22 22 52 23 23 53 23 23 53 24 24 54 24 24 54 24 24 54 25 25 55 25 25 55 25 25 55 26 26 56 26 26 56 26 26 56 27 27 57 27 27 57 28 28 58 28 28 58 28 28 58 29 29 59 29 29 59 30 30 60 30 30 60 30 30 60 31 31 61 31 31 61 31 31 61 32 32 62 32 32 62 33 33 63 33 33 63 33 33 63 34 34 64 34 34 64 35 35 65 35 35 65 35 35 65 36 36 66 36 36 66 37 37 67 37 37 67 37 37 67 38 38 68 38 38 68 39 39 69 39 39 69 39 39 69 40 40 70 40 40 70 41 41 71 41 41 71 41 41 71 42 42 72 42 42 72 43 43 73 43 43 73 43 43 73 44 44 74 44 44 74 45 45 75 45 45 75 45 45 75 46 46 76 46 46 76 47 47 77 47 47 77 47 47 77 48 48 78 48 48 78 49 49 79 49 49 79 49 49 79 50 50 80 50 50 80 51 51 81 51 51 81 51 51 81 52 52 82 52 52 82 52 52 82 53 53 83 53 53 83 54 54 84 54 54 84 54 54 84 55 55 85 55 55 85 55 55 85 56 56 86 56 56 86 56 56 86 57 57 87 57 57 87 57 57 87 58 58 88 58 58 88 58 58 88 59 59 89 59 59 89 59 59 89 60 60 90 60 60 90 60 60 90 61 61 91 61 61 91 61 61 91 61 61 91 62 62 92 62 62 92 62 62 92 63 63 93 63 63 93 63 63 93 63 63 93 64 64 94 64 64 94 64 64 94 64 64 94 65 65 95 65 65 95 65 65 95 65 65 95 66 66 96 66 66 96 66 66 96 66 66 96 66 66 96 67 67 97 67 67 97 67 67 97 67 67 97 67 67 97 68 68 98 68 68 98 68 68 98 68 68 98 68 68 98 68 68 98 69 69 99 69 69 99 69 69 99 69 69 99 69 69 99 69 69 99 69 69 99 70 70 100 70 70 100 70 70 100 70 70 100 70 70 100 70 70 100 70 70 100 70 70 100 70 70 100 70 70 100 70 70 100 70 70 100 71 71 101 71 71 101 71 71 101 71 71 101 71 71 101 71 71 101 71 71 101 71 71 101 71 71 101 71 71 101 71 71 101 71 71 101 71 71 101 71 71 101 71 71 101 71 71 101 71 71 101 71 71 101 71 71 101 71 71 101 70 70 100 70 70 100 70 70 100 70 70 100 70 70 100 70 70 100 70 70 100 70 70 100 70 70 100 70 70 100 70 70 100 69 69 99 69 69 99 69 69 99 69 69 99 69 69 99 69 69 99 69 69 99 69 69 99 68 68 98 68 68 98 68 68 98 68 68 98 68 68 98 68 68 98 67 67 97 67 67 97 67 67 97 67 67 97 67 67 97 66 66 96 66 66 96 66 66 96 66 66 96 65 65 95 65 65 95 65 65 95 65 65 95 65 65 95 64 64 94 64 64 94 64 64 94 64 64 94 63 63 93 63 63 93 63 63 93 62 62 92 62 62 92 62 62 92 62 62 92 61 61 91 61 61 91 61 61 91 60 60 90 60 60 90 60 60 90 59 59 89 59 59 89 59 59 89 59 59 89 
5 5 35 5 5 35 6 6 36 6 6 36 6 6 36 6 6 36 6 6 36 7 7 37 7 7 37 7 7 37 7 7 37 7 7 37 8 8 38 8 8 38 8 8 38 8 8 38 8 8 38 9 9 39 9 9 39 9 9 39 9 9 39 10 10 40 10 10 40 10 10 40 10 10 40 11 11 41 11 11 41 11 11 41 11 11 41 12 12 42 12 12 42 12 12 42 13 13 43 13 13 43 13 13 43 13 13 43 14 14 44 14 14 44 14 14 44 15 15 45 15 15 45 15 15 45 15 15 45 16 16 46 16 16 46 16 16 46 17 17 47 17 17 47 17 17 47 18 18 48 18 18 48 18 18 48 19 19 49 19 19 49 19 19 49 20 20 50 20 20 50 20 20 50 21 21 51 21 21 51 21 21 51 22 22 52 22 22 52 22 22 52 23 23 53 23 23 53 23 23 53 24 24 54 24 24 54 25 25 55 25 25 55 25 25 55 26 26 56 26 26 56 26 26 56 27 27 57 27 27 57 28 28 58 28 28 58 28 28 58 29 29 59 29 29 59 29 29 59 30 30 60 30 30 60 31 31 61 31 31 61 31 31 61 32 32 62 32 32 62 33 33 63 33 33 63 33 33 63 34 34 64 34 34 64 35 35 65 35 35 65 35 35 65 36 36 66 36 36 66 37 37 67 37 37 67 37 37 67 38 38 68 38 38 68 39 39 69 39 39 69 39 39 69 40 40 70 40 40 70 41 41 71 41 41 71 41 41 71 42 42 72 42 42 72 43 43 73 43 43 73 43 43 73 44 44 74 44 44 74 45 45 75 45 45 75 45 45 75 46 46 76 46 46 76 47 47 77 47 47 77 47 47 77 48 48 78 48 48 78 49 49 79 49 49 79 49 49 79 50 50 80 50 50 80 51 51 81 51 51 81 51 51 81 52 52 82 52 52 82 53 53 83 53 53 83 53 53 83 54 54 84 54 54 84 54 54 84 55 55 85 55 55 85 55 55 85 56 56 86 56 56 86 57 57 87 57 57 87 57 57 87 58 58 88 58 58 88 58 58 88 59 59 89 59 59 89 59 59 89 60 60 90 60 60 90 60 60 90 61 61 91 61 61 91 61 61 91 61 61 91 62 62 92 62 62 92 62 62 92 63 63 93 63 63 93 63 63 93 63 63 93 64 64 94 64 64 94 64 64 94 65 65 95 65 65 95 65 65 95 65 65 95 66 66 96 66 66 96 66 66 96 66 66 96 67 67 97 67 67 97 67 67 97 67 67 97 67 67 97 68 68 98 68 68 98 68 68 98 68 68 98 68 68 98 69 69 99 69 69 99 69 69 99 69 69 99 69 69 99 69 69 99 70 70 100 70 70 100 70 70 100 70 70 100 70 70 100 70 70 100 70 70 100 71 71 101 71 71 101 71 71 101 71 71 101 71 71 101 71 71 101 71 71 101 71 71 101 71 71 101 71 71 101 71 71 101 71 71 101 72 72 102 72 72 102 72 72 102 72 72 102 72 72 102 72 72 102 72 72 102 72 72 102 72 72 102 72 72 102 72 72 102 72 72 102 72 72 102 72 72 102 72 72 102 72 72 102 72 72 102 72 72 102 72 72 102 72 72 102 71 71 101 71 71 101 71 71 101 71 71 101 71 71 101 71 71 101 71 71 101 71 71 101 71 71 101 71 71 101 71 71 101 71 71 101 70 70 100 70 70 100 70 70 100 70 70 100 70 70 100 70 70 100 70 70 100 69 69 99 69 69 99 69 69 99 69 69 99 69 69 99 69 69 99 68 68 98 68 68 98 68 68 98 68 68 98 68 68 98 67 67 97 67 67 97 67 67 97 67 67 97 67 67 97 66 66 96 66 66 96 66 66 96 66 66 96 65 65 95 65 65 95 65 65 95 65 65 95 64 64 94 64 64 94 64 64 94 63 63 93 63 63 93 63 63 93 63 63 93 62 62 92 62 62 92 62 62 92 61 61 91 61 61 91 61 61 91 61 61 91 60 60 90 60 60 90 60 60 90 
6 6 36 6 6 36 6 6 36 6 6 36 6 6 36 6 6 36 7 7 37 7 7 37 7 7 37 7 7 37 8 8 38 8 8 38 8 8 38 8 8 38 8 8 38 9 9 39 9 9 39 9 9 39 9 9 39 10 10 40 10 10 40 10 10 40 10 10 40 11 11 41 11 11 41 11 11 41 11 11 41 12 12 42 12 12 42 12 12 42 12 12 42 13 13 43 13 13 43 13 13 43 14 14 44 14 14 44 14 14 44 14 14 44 15 15 45 15 15 45 15 15 45 16 16 46 16 16 46 16 16 46 17 17 47 17 17 47 17 17 47 18 18 48 18 18 48 18 18 48 18 18 48 19 19 49 19 19 49 19 19 49 20 20 50 20 20 50 21 21 51 21 21 51 21 21 51 22 22 52 22 22 52 22 22 52 23 23 53 23 23 53 23 23 53 24 24 54 24 24 54 24 24 54 25 25 55 25 25 55 26 26 56 26 26 56 26 26 56 27 27 57 27 27 57 27 27 57 28 28 58 28 28 58 29 29 59 29 29 59 29 29 59 30 30 60 30 30 60 30 30 60 31 31 61 31 31 61 32 32 62 32 32 62 32 32 62 33 33 63 33 33 63 34 34 64 34 34 64 34 34 64 35 35 65 35 35 65 36 36 66 36 36 66 37 37 67 37 37 67 37 37 67 38 38 68 38 38 68 39 39 69 39 39 69 39 39 69 40 40 70 40 40 70 41 41 71 41 41 71 41 41 71 42 42 72 42 42 72 43 43 73 43 43 73 43 43 73 44 44 74 44 44 74 45 45 75 45 45 75 45 45 75 46 46 76 46 46 76 47 47 77 47 47 77 47 47 77 48 48 78 48 48 78 49 49 79 49 49 79 49 49 79 50 50 80 50 50 80 51 51 81 51 51 81 51 51 81 52 52 82 52 52 82 53 53 83 53 53 83 53 53 83 54 54 84 54 54 84 54 54 84 55 55 85 55 55 85 56 56 86 56 56 86 56 56 86 57 57 87 57 57 87 57 57 87 58 58 88 58 58 88 58 58 88 59 59 89 59 59 89 59 59 89 60 60 90 60 60 90 60 60 90 61 61 91 61 61 91 61 61 91 62 62 92 62 62 92 62 62 92 63 63 93 63 63 93 63 63 93 64 64 94 64 64 94 64 64 94 64 64 94 65 65 95 65 65 95 65 65 95 65 65 95 66 66 96 66 66 96 66 66 96 67 67 97 67 67 97 67 67 97 67 67 97 67 67 97 68 68 98 68 68 98 68 68 98 68 68 98 69 69 99 69 69 99 69 69 99 69 69 99 69 69 99 70 70 100 70 70 100 70 70 100 70 70 100 70 70 100 70 70 100 71 71 101 71 71 101 71 71 101 71 71 101 71 71 101 71 71 101 71 71 101 71 71 101 72 72 102 72 72 102 72 72 102 72 72 102 72 72 102 72 72 102 72 72 102 72 72 102 72 72 102 72 72 102 72 72 102 72 72 102 73 73 103 73 73 103 73 73 103 73 73 103 73 73 103 73 73 103 73 73 103 73 73 103 73 73 103 73 73 103 73 73 103 73 73 103 73 73 103 73 73 103 73 73 103 73 73 103 73 73 103 73 73 103 73 73 103 72 72 102 72 72 102 72 72 102 72 72 102 72 72 102 72 72 102 72 72 102 72 72 102 72 72 102 72 72 102 72 72 102 72 72 102 71 71 101 71 71 101 71 71 101 71 71 101 71 71 101 71 71 101 71 71 101 70 70 100 70 70 100 70 70 100 70 70 100 70 70 100 70 70 100 69 69 99 69 69 99 69 69 99 69 69 99 69 69 99 68 68 98 68 68 98 68 68 98 68 68 98 68 68 98 67 67 97 67 67 97 67 67 97 67 67 97 66 66 96 66 66 96 66 66 96 66 66 96 65 65 95 65 65 95 65 65 95 65 65 95 64 64 94 64 64 94 64 64 94 63 63 93 63 63 93 63 63 93 63 63 93 62 62 92 62 62 92 62 62 92 61 61 91 61 61 91 61 61 91 
6 6 36 6 6 36 6 6 36 6 6 36 7 7 37 7 7 37 7 7 37 7 7 37 7 7 37 8 8 38 8 8 38 8 8 38 8 8 38 9 9 39 9 9 39 9 9 39 9 9 39 10 10 40 10 10 40 10 10 40 10 10 40 11 11 41 11 11 41 11 11 41 11 11 41 12 12 42 12 12 42 12 12 42 12 12 42 13 13 43 13 13 43 13 13 43 13 13 43 14 14 44 14 14 44 14 14 44 15 15 45 15 15 45 15 15 45 16 16 46 16 16 46 16 16 46 16 16 46 17 17 47 17 17 47 17 17 47 18 18 48 18 18 48 18 18 48 19 19 49 19 19 49 19 19 49 20 20 50 20 20 50 20 20 50 21 21 51 21 21 51 21 21 51 22 22 52 22 22 52 22 22 52 23 23 53 23 23 53 24 24 54 24 24 54 24 24 54 25 25 55 25 25 55 25 25 55 26 26 56 26 26 56 27 27 57 27 27 57 27 27 57 28 28 58 28 28 58 28 28 58 29 29 59 29 29 59 30 30 60 30 30 60 30 30 60 31 31 61 31 31 61 32 32 62 32 32 62 32 32 62 33 33 63 33 33 63 34 34 64 34 34 64 34 34 64 35 35 65 35 35 65 36 36 66 36 36 66 36 36 66 37 37 67 37 37 67 38 38 68 38 38 68 38 38 68 39 39 69 39 39 69 40 40 70 40 40 70 41 41 71 41 41 71 41 41 71 42 42 72 42 42 72 43 43 73 43 43 73 43 43 73 44 44 74 44 44 74 45 45 75 45 45 75 45 45 75 46 46 76 46 46 76 47 47 77 47 47 77 47 47 77 48 48 78 48 48 78 49 49 79 49 49 79 50 50 80 50 50 80 50 50 80 51 51 81 51 51 81 51 51 81 52 52 82 52 52 82 53 53 83 53 53 83 53 53 83 54 54 84 54 54 84 55 55 85 55 55 85 55 55 85 56 56 86 56 56 86 56 56 86 57 57 87 57 57 87 58 58 88 58 58 88 58 58 88 59 59 89 59 59 89 59 59 89 60 60 90 60 60 90 60 60 90 61 61 91 61 61 91 61 61 91 62 62 92 62 62 92 62 62 92 63 63 93 63 63 93 63 63 93 64 64 94 64 64 94 64 64 94 64 64 94 65 65 95 65 65 95 65 65 95 66 66 96 66 66 96 66 66 96 66 66 96 67 67 97 67 67 97 67 67 97 67 67 97 68 68 98 68 68 98 68 68 98 68 68 98 69 69 99 69 69 99 69 69 99 69 69 99 69 69 99 70 70 100 70 70 100 70 70 100 70 70 100 70 70 100 71 71 101 71 71 101 71 71 101 71 71 101 71 71 101 71 71 101 72 72 102 72 72 102 72 72 102 72 72 102 72 72 102 72 72 102 72 72 102 73 73 103 73 73 103 73 73 103 73 73 103 73 73 103 73 73 103 73 73 103 73 73 103 73 73 103 73 73 103 73 73 103 73 73 103 74 74 104 74 74 104 74 74 104 74 74 104 74 74 104 74 74 104 74 74 104 74 74 104 74 74 104 74 74 104 74 74 104 74 74 104 74 74 104 74 74 104 74 74 104 74 74 104 74 74 104 74 74 104 73 73 103 73 73 103 73 73 103 73 73 103 73 73 103 73 73 103 73 73 103 73 73 103 73 73 103 73 73 103 73 73 103 73 73 103 73 73 103 72 72 102 72 72 102 72 72 102 72 72 102 72 72 102 72 72 102 72 72 102 71 71 101 71 71 101 71 71 101 71 71 101 71 71 101 71 71 101 70 70 100 70 70 100 70 70 100 70 70 100 70 70 100 69 69 99 69 69 99 69 69 99 69 69 99 69 69 99 68 68 98 68 68 98 68 68 98 68 68 98 67 67 97 67 67 97 67 67 97 67 67 97 66 66 96 66 66 96 66 66 96 66 66 96 65 65 95 65 65 95 65 65 95 64 64 94 64 64 94 64 64 94 64 64 94 63 63 93 63 63 93 63 63 93 62 62 92 62 62 92 62 62 92 
6 6 36 6 6 36 7 7 37 7 7 37 7 7 37 7 7 37 7 7 37 8 8 38 8 8 38 8 8 38 8 8 38 9 9 39 9 9 39 9 9 39 9 9 39 9 9 39 10 10 40 10 10 40 10 10 40 10 10 40 11 11 41 11 11 41 11 11 41 11 11 41 12 12 42 12 12 42 12 12 42 13 13 43 13 13 43 13 13 43 13 13 43 14 14 44 14 14 44 14 14 44 15 15 45 15 15 45 15 15 45 15 15 45 16 16 46 16 16 46 16 16 46 17 17 47 17 17 47 17 17 47 18 18 48 18 18 48 18 18 48 19 19 49 19 19 49 19 19 49 20 20 50 20 20 50 20 20 50 21 21 51 21 21 51 21 21 51 22 22 52 22 22 52 22 22 52 23 23 53 23 23 53 23 23 53 24 24 54 24 24 54 25 25 55 25 25 55 25 25 55 26 26 56 26 26 56 26 26 56 27 27 57 27 27 57 28 28 58 28 28 58 28 28 58 29 29 59 29 29 59 29 29 59 30 30 60 30 30 60 31 31 61 31 31 61 31 31 61 32 32 62 32 32 62 33 33 63 33 33 63 33 33 63 34 34 64 34 34 64 35 35 65 35 35 65 35 35 65 36 36 66 36 36 66 37 37 67 37 37 67 38 38 68 38 38 68 38 38 68 39 39 69 39 39 69 40 40 70 40 40 70 40 40 70 41 41 71 41 41 71 42 42 72 42 42 72 43 43 73 43 43 73 43 43 73 44 44 74 44 44 74 45 45 75 45 45 75 45 45 75 46 46 76 46 46 76 47 47 77 47 47 77 47 47 77 48 48 78 48 48 78 49 49 79 49 49 79 49 49 79 50 50 80 50 50 80 51 51 81 51 51 81 52 52 82 52 52 82 52 52 82 53 53 83 53 53 83 53 53 83 54 54 84 54 54 84 55 55 85 55 55 85 55 55 85 56 56 86 56 56 86 57 57 87 57 57 87 57 57 87 58 58 88 58 58 88 58 58 88 59 59 89 59 59 89 59 59 89 60 60 90 60 60 90 60 60 90 61 61 91 61 61 91 62 62 92 62 62 92 62 62 92 63 63 93 63 63 93 63 63 93 63 63 93 64 64 94 64 64 94 64 64 94 65 65 95 65 65 95 65 65 95 66 66 96 66 66 96 66 66 96 66 66 96 67 67 97 67 67 97 67 67 97 68 68 98 68 68 98 68 68 98 68 68 98 69 69 99 69 69 99 69 69 99 69 69 99 69 69 99 70 70 100 70 70 100 70 70 100 70 70 100 71 71 101 71 71 101 71 71 101 71 71 101 71 71 101 72 72 102 72 72 102 72 72 102 72 72 102 72 72 102 72 72 102 73 73 103 73 73 103 73 73 103 73 73 103 73 73 103 73 73 103 73 73 103 73 73 103 74 74 104 74 74 104 74 74 104 74 74 104 74 74 104 74 74 104 74 74 104 74 74 104 74 74 104 74 74 104 74 74 104 74 74 104 74 74 104 75 75 105 75 75 105 75 75 105 75 75 105 75 75 105 75 75 105 75 75 105 75 75 105 75 75 105 75 75 105 75 75 105 75 75 105 75 75 105 75 75 105 75 75 105 75 75 105 74 74 104 74 74 104 74 74 104 74 74 104 74 74 104 74 74 104 74 74 104 74 74 104 74 74 104 74 74 104 74 74 104 74 74 104 73 73 103 73 73 103 73 73 103 73 73 103 73 73 103 73 73 103 73 73 103 73 73 103 72 72 102 72 72 102 72 72 102 72 72 102 72 72 102 72 72 102 71 71 101 71 71 101 71 71 101 71 71 101 71 71 101 70 70 100 70 70 100 70 70 100 70 70 100 70 70 100 69 69 99 69 69 99 69 69 99 69 69 99 68 68 98 68 68 98 68 68 98 68 68 98 67 67 97 67 67 97 67 67 97 67 67 97 66 66 96 66 66 96 66 66 96 65 65 95 65 65 95 65 65 95 65 65 95 64 64 94 64 64 94 64 64 94 63 63 93 63 63 93 63 63 93 
7 7 37 7 7 37 7 7 37 7 7 37 7 7 37 8 8 38 8 8 38 8 8 38 8 8 38 8 8 38 9 9 39 9 9 39 9 9 39 9 9 39 10 10 40 10 10 40 10 10 40 10 10 40 11 11 41 11 11 41 11 11 41 11 11 41 12 12 42 12 12 42 12 12 42 12 12 42 13 13 43 13 13 43 13 13 43 14 14 44 14 14 44 14 14 44 14 14 44 15 15 45 15 15 45 15 15 45 16 16 46 16 16 46 16 16 46 17 17 47 17 17 47 17 17 47 17 17 47 18 18 48 18 18 48 18 18 48 19 19 49 19 19 49 19 19 49 20 20 50 20 20 50 20 20 50 21 21 51 21 21 51 22 22 52 22 22 52 22 22 52 23 23 53 23 23 53 23 23 53 24 24 54 24 24 54 24 24 54 25 25 55 25 25 55 26 26 56 26 26 56 26 26 56 27 27 57 27 27 57 27 27 57 28 28 58 28 28 58 29 29 59 29 29 59 29 29 59 30 30 60 30 30 60 31 31 61 31 31 61 31 31 61 32 32 62 32 32 62 33 33 63 33 33 63 33 33 63 34 34 64 34 34 64 35 35 65 35 35 65 35 35 65 36 36 66 36 36 66 37 37 67 37 37 67 37 37 67 38 38 68 38 38 68 39 39 69 39 39 69 39 39 69 40 40 70 40 40 70 41 41 71 41 41 71 42 42 72 42 42 72 42 42 72 43 43 73 43 43 73 44 44 74 44 44 74 45 45 75 45 45 75 45 45 75 46 46 76 46 46 76 47 47 77 47 47 77 47 47 77 48 48 78 48 48 78 49 49 79 49 49 79 49 49 79 50 50 80 50 50 80 51 51 81 51 51 81 51 51 81 52 52 82 52 52 82 53 53 83 53 53 83 53 53 83 54 54 84 54 54 84 55 55 85 55 55 85 55 55 85 56 56 86 56 56 86 57 57 87 57 57 87 57 57 87 58 58 88 58 58 88 58 58 88 59 59 89 59 59 89 60 60 90 60 60 90 60 60 90 61 61 91 61 61 91 61 61 91 62 62 92 62 62 92 62 62 92 63 63 93 63 63 93 63 63 93 64 64 94 64 64 94 64 64 94 65 65 95 65 65 95 65 65 95 66 66 96 66 66 96 66 66 96 66 66 96 67 67 97 67 67 97 67 67 97 68 68 98 68 68 98 68 68 98 68 68 98 69 69 99 69 69 99 69 69 99 69 69 99 70 70 100 70 70 100 70 70 100 70 70 100 71 71 101 71 71 101 71 71 101 71 71 101 71 71 101 72 72 102 72 72 102 72 72 102 72 72 102 72 72 102 73 73 103 73 73 103 73 73 103 73 73 103 73 73 103 73 73 103 74 74 104 74 74 104 74 74 104 74 74 104 74 74 104 74 74 104 74 74 104 74 74 104 75 75 105 75 75 105 75 75 105 75 75 105 75 75 105 75 75 105 75 75 105 75 75 105 75 75 105 75 75 105 75 75 105 75 75 105 75 75 105 76 76 106 76 76 106 76 76 106 76 76 106 76 76 106 76 76 106 76 76 106 76 76 106 76 76 106 76 76 106 76 76 106 76 76 106 76 76 106 76 76 106 75 75 105 75 75 105 75 75 105 75 75 105 75 75 105 75 75 105 75 75 105 75 75 105 75 75 105 75 75 105 75 75 105 75 75 105 75 75 105 74 74 104 74 74 104 74 74 104 74 74 104 74 74 104 74 74 104 74 74 104 74 74 104 73 73 103 73 73 103 73 73 103 73 73 103 73 73 103 73 73 103 72 72 102 72 72 102 72 72 102 72 72 102 72 72 102 71 71 101 71 71 101 71 71 101 71 71 101 71 71 101 70 70 100 70 70 100 70 70 100 70 70 100 69 69 99 69 69 99 69 69 99 69 69 99 68 68 98 68 68 98 68 68 98 68 68 98 67 67 97 67 67 97 67 67 97 66 66 96 66 66 96 66 66 96 66 66 96 65 65 95 65 65 95 65 65 95 64 64 94 64 64 94 64 64 94 
7 7 37 7 7 37 7 7 37 7 7 37 8 8 38 8 8 38 8 8 38 8 8 38 9 9 39 9 9 39 9 9 39 9 9 39 9 9 39 10 10 40 10 10 40 10 10 40 10 10 40 11 11 41 11 11 41 11 11 41 12 12 42 12 12 42 12 12 42 12 12 42 13 13 43 13 13 43 13 13 43 13 13 43 14 14 44 14 14 44 14 14 44 15 15 45 15 15 45 15 15 45 15 15 45 16 16 46 16 16 46 16 16 46 17 17 47 17 17 47 17 17 47 18 18 48 18 18 48 18 18 48 19 19 49 19 19 49 19 19 49 20 20 50 20 20 50 20 20 50 21 21 51 21 21 51 21 21 51 22 22 52 22 22 52 22 22 52 23 23 53 23 23 53 24 24 54 24 24 54 24 24 54 25 25 55 25 25 55 25 25 55 26 26 56 26 26 56 26 26 56 27 27 57 27 27 57 28 28 58 28 28 58 28 28 58 29 29 59 29 29 59 30 30 60 30 30 60 30 30 60 31 31 61 31 31 61 32 32 62 32 32 62 32 32 62 33 33 63 33 33 63 34 34 64 34 34 64 34 34 64 35 35 65 35 35 65 36 36 66 36 36 66 36 36 66 37 37 67 37 37 67 38 38 68 38 38 68 39 39 69 39 39 69 39 39 69 40 40 70 40 40 70 41 41 71 41 41 71 41 41 71 42 42 72 42 42 72 43 43 73 43 43 73 44 44 74 44 44 74 44 44 74 45 45 75 45 45 75 46 46 76 46 46 76 47 47 77 47 47 77 47 47 77 48 48 78 48 48 78 49 49 79 49 49 79 49 49 79 50 50 80 50 50 80 51 51 81 51 51 81 51 51 81 52 52 82 52 52 82 53 53 83 53 53 83 53 53 83 54 54 84 54 54 84 55 55 85 55 55 85 55 55 85 56 56 86 56 56 86 57 57 87 57 57 87 57 57 87 58 58 88 58 58 88 59 59 89 59 59 89 59 59 89 60 60 90 60 60 90 60 60 90 61 61 91 61 61 91 61 61 91 62 62 92 62 62 92 63 63 93 63 63 93 63 63 93 64 64 94 64 64 94 64 64 94 65 65 95 65 65 95 65 65 95 65 65 95 66 66 96 66 66 96 66 66 96 67 67 97 67 67 97 67 67 97 68 68 98 68 68 98 68 68 98 68 68 98 69 69 99 69 69 99 69 69 99 70 70 100 70 70 100 70 70 100 70 70 100 71 71 101 71 71 101 71 71 101 71 71 101 71 71 101 72 72 102 72 72 102 72 72 102 72 72 102 73 73 103 73 73 103 73 73 103 73 73 103 73 73 103 74 74 104 74 74 104 74 74 104 74 74 104 74 74 104 74 74 104 74 74 104 75 75 105 75 75 105 75 75 105 75 75 105 75 75 105 75 75 105 75 75 105 76 76 106 76 76 106 76 76 106 76 76 106 76 76 106 76 76 106 76 76 106 76 76 106 76 76 106 76 76 106 76 76 106 76 76 106 76 76 106 76 76 106 76 76 106 76 76 106 77 77 107 77 77 107 77 77 107 77 77 107 77 77 107 77 77 107 77 77 107 77 77 107 77 77 107 76 76 106 76 76 106 76 76 106 76 76 106 76 76 106 76 76 106 76 76 106 76 76 106 76 76 106 76 76 106 76 76 106 76 76 106 76 76 106 76 76 106 76 76 106 75 75 105 75 75 105 75 75 105 75 75 105 75 75 105 75 75 105 75 75 105 75 75 105 74 74 104 74 74 104 74 74 104 74 74 104 74 74 104 74 74 104 73 73 103 73 73 103 73 73 103 73 73 103 73 73 103 72 72 102 72 72 102 72 72 102 72 72 102 72 72 102 71 71 101 71 71 101 71 71 101 71 71 101 70 70 100 70 70 100 70 70 100 70 70 100 69 69 99 69 69 99 69 69 99 69 69 99 68 68 98 68 68 98 68 68 98 67 67 97 67 67 97 67 67 97 67 67 97 66 66 96 66 66 96 66 66 96 65 65 95 65 65 95 65 65 95 
7 7 37 7 7 37 8 8 38 8 8 38 8 8 38 8 8 38 8 8 38 9 9 39 9 9 39 9 9 39 9 9 39 10 10 40 10 10 40 10 10 40 10 10 40 11 11 41 11 11 41 11 11 41 11 11 41 12 12 42 12 12 42 12 12 42 12 12 42 13 13 43 13 13 43 13 13 43 14 14 44 14 14 44 14 14 44 14 14 44 15 15 45 15 15 45 15 15 45 16 16 46 16 16 46 16 16 46 17 17 47 17 17 47 17 17 47 18 18 48 18 18 48 18 18 48 19 19 49 19 19 49 19 19 49 20 20 50 20 20 50 20 20 50 21 21 51 21 21 51 21 21 51 22 22 52 22 22 52 22 22 52 23 23 53 23 23 53 23 23 53 24 24 54 24 24 54 24 24 54 25 25 55 25 25 55 26 26 56 26 26 56 26 26 56 27 27 57 27 27 57 27 27 57 28 28 58 28 28 58 29 29 59 29 29 59 29 29 59 30 30 60 30 30 60 31 31 61 31 31 61 31 31 61 32 32 62 32 32 62 33 33 63 33 33 63 33 33 63 34 34 64 34 34 64 35 35 65 35 35 65 35 35 65 36 36 66 36 36 66 37 37 67 37 37 67 38 38 68 38 38 68 38 38 68 39 39 69 39 39 69 40 40 70 40 40 70 41 41 71 41 41 71 41 41 71 42 42 72 42 42 72 43 43 73 43 43 73 43 43 73 44 44 74 44 44 74 45 45 75 45 45 75 46 46 76 46 46 76 46 46 76 47 47 77 47 47 77 48 48 78 48 48 78 49 49 79 49 49 79 49 49 79 50 50 80 50 50 80 51 51 81 51 51 81 51 51 81 52 52 82 52 52 82 53 53 83 53 53 83 53 53 83 54 54 84 54 54 84 55 55 85 55 55 85 55 55 85 56 56 86 56 56 86 57 57 87 57 57 87 57 57 87 58 58 88 58 58 88 59 59 89 59 59 89 59 59 89 60 60 90 60 60 90 60 60 90 61 61 91 61 61 91 62 62 92 62 62 92 62 62 92 63 63 93 63 63 93 63 63 93 64 64 94 64 64 94 64 64 94 65 65 95 65 65 95 65 65 95 66 66 96 66 66 96 66 66 96 67 67 97 67 67 97 67 67 97 68 68 98 68 68 98 68 68 98 68 68 98 69 69 99 69 69 99 69 69 99 70 70 100 70 70 100 70 70 100 70 70 100 71 71 101 71 71 101 71 71 101 71 71 101 72 72 102 72 72 102 72 72 102 72 72 102 73 73 103 73 73 103 73 73 103 73 73 103 73 73 103 74 74 104 74 74 104 74 74 104 74 74 104 74 74 104 75 75 105 75 75 105 75 75 105 75 75 105 75 75 105 75 75 105 76 76 106 76 76 106 76 76 106 76 76 106 76 76 106 76 76 106 76 76 106 76 76 106 77 77 107 77 77 107 77 77 107 77 77 107 77 77 107 77 77 107 77 77 107 77 77 107 77 77 107 77 77 107 77 77 107 77 77 107 77 77 107 77 77 107 77 77 107 77 77 107 77 77 107 77 77 107 77 77 107 77 77 107 77 77 107 77 77 107 77 77 107 77 77 107 77 77 107 77 77 107 77 77 107 77 77 107 77 77 107 77 77 107 77 77 107 77 77 107 77 77 107 77 77 107 77 77 107 77 77 107 77 77 107 77 77 107 76 76 106 76 76 106 76 76 106 76 76 106 76 76 106 76 76 106 76 76 106 76 76 106 75 75 105 75 75 105 75 75 105 75 75 105 75 75 105 75 75 105 75 75 105 74 74 104 74 74 104 74 74 104 74 74 104 74 74 104 73 73 103 73 73 103 73 73 103 73 73 103 73 73 103 72 72 102 72 72 102 72 72 102 72 72 102 71 71 101 71 71 101 71 71 101 71 71 101 70 70 100 70 70 100 70 70 100 70 70 100 69 69 99 69 69 99 69 69 99 68 68 98 68 68 98 68 68 98 68 68 98 67 67 97 67 67 97 67 67 97 66 66 96 66 66 96 66 66 96 
8 8 38 8 8 38 8 8 38 8 8 38 8 8 38 9 9 39 9 9 39 9 9 39 9 9 39 10 10 40 10 10 40 10 10 40 10 10 40 11 11 41 11 11 41 11 11 41 11 11 41 12 12 42 12 12 42 12 12 42 12 12 42 13 13 43 13 13 43 13 13 43 13 13 43 14 14 44 14 14 44 14 14 44 15 15 45 15 15 45 15 15 45 16 16 46 16 16 46 16 16 46 16 16 46 17 17 47 17 17 47 17 17 47 18 18 48 18 18 48 18 18 48 19 19 49 19 19 49 19 19 49 20 20 50 20 20 50 20 20 50 21 21 51 21 21 51 21 21 51 22 22 52 22 22 52 22 22 52 23 23 53 23 23 53 24 24 54 24 24 54 24 24 54 25 25 55 25 25 55 25 25 55 26 26 56 26 26 56 27 27 57 27 27 57 27 27 57 28 28 58 28 28 58 28 28 58 29 29 59 29 29 59 30 30 60 30 30 60 30 30 60 31 31 61 31 31 61 32 32 62 32 32 62 32 32 62 33 33 63 33 33 63 34 34 64 34 34 64 35 35 65 35 35 65 35 35 65 36 36 66 36 36 66 37 37 67 37 37 67 37 37 67 38 38 68 38 38 68 39 39 69 39 39 69 40 40 70 40 40 70 40 40 70 41 41 71 41 41 71 42 42 72 42 42 72 42 42 72 43 43 73 43 43 73 44 44 74 44 44 74 45 45 75 45 45 75 45 45 75 46 46 76 46 46 76 47 47 77 47 47 77 48 48 78 48 48 78 48 48 78 49 49 79 49 49 79 50 50 80 50 50 80 51 51 81 51 51 81 51 51 81 52 52 82 52 52 82 53 53 83 53 53 83 53 53 83 54 54 84 54 54 84 55 55 85 55 55 85 55 55 85 56 56 86 56 56 86 57 57 87 57 57 87 57 57 87 58 58 88 58 58 88 59 59 89 59 59 89 59 59 89 60 60 90 60 60 90 61 61 91 61 61 91 61 61 91 62 62 92 62 62 92 62 62 92 63 63 93 63 63 93 63 63 93 64 64 94 64 64 94 64 64 94 65 65 95 65 65 95 66 66 96 66 66 96 66 66 96 67 67 97 67 67 97 67 67 97 67 67 97 68 68 98 68 68 98 68 68 98 69 69 99 69 69 99 69 69 99 70 70 100 70 70 100 70 70 100 70 70 100 71 71 101 71 71 101 71 71 101 71 71 101 72 72 102 72 72 102 72 72 102 72 72 102 73 73 103 73 73 103 73 73 103 73 73 103 74 74 104 74 74 104 74 74 104 74 74 104 74 74 104 75 75 105 75 75 105 75 75 105 75 75 105 75 75 105 76 76 106 76 76 106 76 76 106 76 76 106 76 76 106 76 76 106 77 77 107 77 77 107 77 77 107 77 77 107 77 77 107 77 77 107 77 77 107 77 77 107 77 77 107 78 78 108 78 78 108 78 78 108 78 78 108 78 78 108 78 78 108 78 78 108 78 78 108 78 78 108 78 78 108 78 78 108 78 78 108 78 78 108 78 78 108 78 78 108 78 78 108 78 78 108 78 78 108 78 78 108 78 78 108 78 78 108 78 78 108 78 78 108 78 78 108 78 78 108 78 78 108 78 78 108 78 78 108 78 78 108 78 78 108 78 78 108 78 78 108 78 78 108 78 78 108 78 78 108 78 78 108 77 77 107 77 77 107 77 77 107 77 77 107 77 77 107 77 77 107 77 77 107 77 77 107 76 76 106 76 76 106 76 76 106 76 76 106 76 76 106 76 76 106 75 75 105 75 75 105 75 75 105 75 75 105 75 75 105 75 75 105 74 74 104 74 74 104 74 74 104 74 74 104 74 74 104 73 73 103 73 73 103 73 73 103 73 73 103 72 72 102 72 72 102 72 72 102 72 72 102 71 71 101 71 71 101 71 71 101 71 71 101 70 70 100 70 70 100 70 70 100 69 69 99 69 69 99 69 69 99 69 69 99 68 68 98 68 68 98 68 68 98 67 67 97 67 67 97 67 67 97 
8 8 38 8 8 38 8 8 38 9 9 39 9 9 39 9 9 39 9 9 39 9 9 39 10 10 40 10 10 40 10 10 40 10 10 40 11 11 41 11 11 41 11 11 41 11 11 41 12 12 42 12 12 42 12 12 42 13 13 43 13 13 43 13 13 43 13 13 43 14 14 44 14 14 44 14 14 44 15 15 45 15 15 45 15 15 45 15 15 45 16 16 46 16 16 46 16 16 46 17 17 47 17 17 47 17 17 47 18 18 48 18 18 48 18 18 48 19 19 49 19 19 49 19 19 49 20 20 50 20 20 50 20 20 50 21 21 51 21 21 51 21 21 51 22 22 52 22 22 52 22 22 52 23 23 53 23 23 53 23 23 53 24 24 54 24 24 54 25 25 55 25 25 55 25 25 55 26 26 56 26 26 56 26 26 56 27 27 57 27 27 57 28 28 58 28 28 58 28 28 58 29 29 59 29 29 59 29 29 59 30 30 60 30 30 60 31 31 61 31 31 61 31 31 61 32 32 62 32 32 62 33 33 63 33 33 63 34 34 64 34 34 64 34 34 64 35 35 65 35 35 65 36 36 66 36 36 66 36 36 66 37 37 67 37 37 67 38 38 68 38 38 68 39 39 69 39 39 69 39 39 69 40 40 70 40 40 70 41 41 71 41 41 71 41 41 71 42 42 72 42 42 72 43 43 73 43 43 73 44 44 74 44 44 74 44 44 74 45 45 75 45 45 75 46 46 76 46 46 76 47 47 77 47 47 77 47 47 77 48 48 78 48 48 78 49 49 79 49 49 79 50 50 80 50 50 80 50 50 80 51 51 81 51 51 81 52 52 82 52 52 82 53 53 83 53 53 83 53 53 83 54 54 84 54 54 84 55 55 85 55 55 85 55 55 85 56 56 86 56 56 86 57 57 87 57 57 87 57 57 87 58 58 88 58 58 88 59 59 89 59 59 89 59 59 89 60 60 90 60 60 90 61 61 91 61 61 91 61 61 91 62 62 92 62 62 92 62 62 92 63 63 93 63 63 93 64 64 94 64 64 94 64 64 94 65 65 95 65 65 95 65 65 95 66 66 96 66 66 96 66 66 96 67 67 97 67 67 97 67 67 97 68 68 98 68 68 98 68 68 98 69 69 99 69 69 99 69 69 99 70 70 100 70 70 100 70 70 100 70 70 100 71 71 101 71 71 101 71 71 101 72 72 102 72 72 102 72 72 102 72 72 102 73 73 103 73 73 103 73 73 103 73 73 103 74 74 104 74 74 104 74 74 104 74 74 104 74 74 104 75 75 105 75 75 105 75 75 105 75 75 105 76 76 106 76 76 106 76 76 106 76 76 106 76 76 106 76 76 106 77 77 107 77 77 107 77 77 107 77 77 107 77 77 107 77 77 107 78 78 108 78 78 108 78 78 108 78 78 108 78 78 108 78 78 108 78 78 108 78 78 108 78 78 108 79 79 109 79 79 109 79 79 109 79 79 109 79 79 109 79 79 109 79 79 109 79 79 109 79 79 109 79 79 109 79 79 109 79 79 109 79 79 109 79 79 109 79 79 109 79 79 109 79 79 109 79 79 109 79 79 109 79 79 109 79 79 109 79 79 109 79 79 109 79 79 109 79 79 109 79 79 109 79 79 109 79 79 109 79 79 109 79 79 109 79 79 109 79 79 109 79 79 109 79 79 109 78 78 108 78 78 108 78 78 108 78 78 108 78 78 108 78 78 108 78 78 108 78 78 108 77 77 107 77 77 107 77 77 107 77 77 107 77 77 107 77 77 107 77 77 107 76 76 106 76 76 106 76 76 106 76 76 106 76 76 106 76 76 106 75 75 105 75 75 105 75 75 105 75 75 105 74 74 104 74 74 104 74 74 104 74 74 104 74 74 104 73 73 103 73 73 103 73 73 103 73 73 103 72 72 102 72 72 102 72 72 102 72 72 102 71 71 101 71 71 101 71 71 101 70 70 100 70 70 100 70 70 100 70 70 100 69 69 99 69 69 99 69 69 99 68 68 98 68 68 98 68 68 98 
8 8 38 8 8 38 9 9 39 9 9 39 9 9 39 9 9 39 10 10 40 10 10 40 10 10 40 10 10 40 11 11 41 11 11 41 11 11 41 11 11 41 12 12 42 12 12 42 12 12 42 12 12 42 13 13 43 13 13 43 13 13 43 14 14 44 14 14 44 14 14 44 14 14 44 15 15 45 15 15 45 15 15 45 16 16 46 16 16 46 16 16 46 16 16 46 17 17 47 17 17 47 17 17 47 18 18 48 18 18 48 18 18 48 19 19 49 19 19 49 19 19 49 20 20 50 20 20 50 20 20 50 21 21 51 21 21 51 21 21 51 22 22 52 22 22 52 23 23 53 23 23 53 23 23 53 24 24 54 24 24 54 24 24 54 25 25 55 25 25 55 25 25 55 26 26 56 26 26 56 27 27 57 27 27 57 27 27 57 28 28 58 28 28 58 29 29 59 29 29 59 29 29 59 30 30 60 30 30 60 30 30 60 31 31 61 31 31 61 32 32 62 32 32 62 33 33 63 33 33 63 33 33 63 34 34 64 34 34 64 35 35 65 35 35 65 35 35 65 36 36 66 36 36 66 37 37 67 37 37 67 37 37 67 38 38 68 38 38 68 39 39 69 39 39 69 40 40 70 40 40 70 40 40 70 41 41 71 41 41 71 42 42 72 42 42 72 43 43 73 43 43 73 43 43 73 44 44 74 44 44 74 45 45 75 45 45 75 46 46 76 46 46 76 46 46 76 47 47 77 47 47 77 48 48 78 48 48 78 49 49 79 49 49 79 49 49 79 50 50 80 50 50 80 51 51 81 51 51 81 52 52 82 52 52 82 52 52 82 53 53 83 53 53 83 54 54 84 54 54 84 55 55 85 55 55 85 55 55 85 56 56 86 56 56 86 57 57 87 57 57 87 57 57 87 58 58 88 58 58 88 59 59 89 59 59 89 59 59 89 60 60 90 60 60 90 61 61 91 61 61 91 61 61 91 62 62 92 62 62 92 62 62 92 63 63 93 63 63 93 64 64 94 64 64 94 64 64 94 65 65 95 65 65 95 65 65 95 66 66 96 66 66 96 66 66 96 67 67 97 67 67 97 67 67 97 68 68 98 68 68 98 68 68 98 69 69 99 69 69 99 69 69 99 70 70 100 70 70 100 70 70 100 71 71 101 71 71 101 71 71 101 72 72 102 72 72 102 72 72 102 72 72 102 73 73 103 73 73 103 73 73 103 73 73 103 74 74 104 74 74 104 74 74 104 74 74 104 75 75 105 75 75 105 75 75 105 75 75 105 76 76 106 76 76 106 76 76 106 76 76 106 76 76 106 77 77 107 77 77 107 77 77 107 77 77 107 77 77 107 77 77 107 78 78 108 78 78 108 78 78 108 78 78 108 78 78 108 78 78 108 79 79 109 79 79 109 79 79 109 79 79 109 79 79 109 79 79 109 79 79 109 79 79 109 79 79 109 79 79 109 80 80 110 80 80 110 80 80 110 80 80 110 80 80 110 80 80 110 80 80 110 80 80 110 80 80 110 80 80 110 80 80 110 80 80 110 80 80 110 80 80 110 80 80 110 80 80 110 80 80 110 80 80 110 80 80 110 80 80 110 80 80 110 80 80 110 80 80 110 80 80 110 80 80 110 80 80 110 80 80 110 80 80 110 80 80 110 80 80 110 80 80 110 79 79 109 79 79 109 79 79 109 79 79 109 79 79 109 79 79 109 79 79 109 79 79 109 79 79 109 78 78 108 78 78 108 78 78 108 78 78 108 78 78 108 78 78 108 78 78 108 77 77 107 77 77 107 77 77 107 77 77 107 77 77 107 76 76 106 76 76 106 76 76 106 76 76 106 76 76 106 75 75 105 75 75 105 75 75 105 75 75 105 74 74 104 74 74 104 74 74 104 74 74 104 74 74 104 73 73 103 73 73 103 73 73 103 72 72 102 72 72 102 72 72 102 72 72 102 71 71 101 71 71 101 71 71 101 71 71 101 70 70 100 70 70 100 70 70 100 69 69 99 69 69 99 69 69 99 
9 9 39 9 9 39 9 9 39 9 9 39 9 9 39 10 10 40 10 10 40 10 10 40 10 10 40 11 11 41 11 11 41 11 11 41 11 11 41 12 12 42 12 12 42 12 12 42 13 13 43 13 13 43 13 13 43 13 13 43 14 14 44 14 14 44 14 14 44 15 15 45 15 15 45 15 15 45 15 15 45 16 16 46 16 16 46 16 16 46 17 17 47 17 17 47 17 17 47 18 18 48 18 18 48 18 18 48 19 19 49 19 19 49 19 19 49 20 20 50 20 20 50 20 20 50 21 21 51 21 21 51 21 21 51 22 22 52 22 22 52 22 22 52 23 23 53 23 23 53 23 23 53 24 24 54 24 24 54 25 25 55 25 25 55 25 25 55 26 26 56 26 26 56 26 26 56 27 27 57 27 27 57 28 28 58 28 28 58 28 28 58 29 29 59 29 29 59 30 30 60 30 30 60 30 30 60 31 31 61 31 31 61 32 32 62 32 32 62 32 32 62 33 33 63 33 33 63 34 34 64 34 34 64 34 34 64 35 35 65 35 35 65 36 36 66 36 36 66 36 36 66 37 37 67 37 37 67 38 38 68 38 38 68 39 39 69 39 39 69 39 39 69 40 40 70 40 40 70 41 41 71 41 41 71 42 42 72 42 42 72 42 42 72 43 43 73 43 43 73 44 44 74 44 44 74 45 45 75 45 45 75 45 45 75 46 46 76 46 46 76 47 47 77 47 47 77 48 48 78 48 48 78 48 48 78 49 49 79 49 49 79 50 50 80 50 50 80 51 51 81 51 51 81 51 51 81 52 52 82 52 52 82 53 53 83 53 53 83 54 54 84 54 54 84 54 54 84 55 55 85 55 55 85 56 56 86 56 56 86 57 57 87 57 57 87 57 57 87 58 58 88 58 58 88 59 59 89 59 59 89 59 59 89 60 60 90 60 60 90 61 61 91 61 61 91 61 61 91 62 62 92 62 62 92 62 62 92 63 63 93 63 63 93 64 64 94 64 64 94 64 64 94 65 65 95 65 65 95 65 65 95 66 66 96 66 66 96 67 67 97 67 67 97 67 67 97 68 68 98 68 68 98 68 68 98 69 69 99 69 69 99 69 69 99 70 70 100 70 70 100 70 70 100 71 71 101 71 71 101 71 71 101 71 71 101 72 72 102 72 72 102 72 72 102 73 73 103 73 73 103 73 73 103 73 73 103 74 74 104 74 74 104 74 74 104 74 74 104 75 75 105 75 75 105 75 75 105 75 75 105 76 76 106 76 76 106 76 76 106 76 76 106 77 77 107 77 77 107 77 77 107 77 77 107 77 77 107 78 78 108 78 78 108 78 78 108 78 78 108 78 78 108 78 78 108 79 79 109 79 79 109 79 79 109 79 79 109 79 79 109 79 79 109 79 79 109 80 80 110 80 80 110 80 80 110 80 80 110 80 80 110 80 80 110 80 80 110 80 80 110 80 80 110 80 80 110 81 81 111 81 81 111 81 81 111 81 81 111 81 81 111 81 81 111 81 81 111 81 81 111 81 81 111 81 81 111 81 81 111 81 81 111 81 81 111 81 81 111 81 81 111 81 81 111 81 81 111 81 81 111 81 81 111 81 81 111 81 81 111 81 81 111 81 81 111 81 81 111 81 81 111 81 81 111 81 81 111 80 80 110 80 80 110 80 80 110 80 80 110 80 80 110 80 80 110 80 80 110 80 80 110 80 80 110 80 80 110 79 79 109 79 79 109 79 79 109 79 79 109 79 79 109 79 79 109 79 79 109 78 78 108 78 78 108 78 78 108 78 78 108 78 78 108 78 78 108 77 77 107 77 77 107 77 77 107 77 77 107 77 77 107 76 76 106 76 76 106 76 76 106 76 76 106 75 75 105 75 75 105 75 75 105 75 75 105 74 74 104 74 74 104 74 74 104 74 74 104 73 73 103 73 73 103 73 73 103 73 73 103 72 72 102 72 72 102 72 72 102 71 71 101 71 71 101 71 71 101 71 71 101 70 70 100 70 70 100 70 70 100 
9 9 39 9 9 39 9 9 39 10 10 40 10 10 40 10 10 40 10 10 40 11 11 41 11 11 41 11 11 41 11 11 41 12 12 42 12 12 42 12 12 42 12 12 42 13 13 43 13 13 43 13 13 43 14 14 44 14 14 44 14 14 44 14 14 44 15 15 45 15 15 45 15 15 45 16 16 46 16 16 46 16 16 46 16 16 46 17 17 47 17 17 47 17 17 47 18 18 48 18 18 48 18 18 48 19 19 49 19 19 49 19 19 49 20 20 50 20 20 50 20 20 50 21 21 51 21 21 51 21 21 51 22 22 52 22 22 52 23 23 53 23 23 53 23 23 53 24 24 54 24 24 54 24 24 54 25 25 55 25 25 55 25 25 55 26 26 56 26 26 56 27 27 57 27 27 57 27 27 57 28 28 58 28 28 58 29 29 59 29 29 59 29 29 59 30 30 60 30 30 60 31 31 61 31 31 61 31 31 61 32 32 62 32 32 62 33 33 63 33 33 63 33 33 63 34 34 64 34 34 64 35 35 65 35 35 65 35 35 65 36 36 66 36 36 66 37 37 67 37 37 67 38 38 68 38 38 68 38 38 68 39 39 69 39 39 69 40 40 70 40 40 70 41 41 71 41 41 71 41 41 71 42 42 72 42 42 72 43 43 73 43 43 73 44 44 74 44 44 74 44 44 74 45 45 75 45 45 75 46 46 76 46 46 76 47 47 77 47 47 77 47 47 77 48 48 78 48 48 78 49 49 79 49 49 79 50 50 80 50 50 80 50 50 80 51 51 81 51 51 81 52 52 82 52 52 82 53 53 83 53 53 83 53 53 83 54 54 84 54 54 84 55 55 85 55 55 85 56 56 86 56 56 86 56 56 86 57 57 87 57 57 87 58 58 88 58 58 88 58 58 88 59 59 89 59 59 89 60 60 90 60 60 90 61 61 91 61 61 91 61 61 91 62 62 92 62 62 92 62 62 92 63 63 93 63 63 93 64 64 94 64 64 94 64 64 94 65 65 95 65 65 95 65 65 95 66 66 96 66 66 96 67 67 97 67 67 97 67 67 97 68 68 98 68 68 98 68 68 98 69 69 99 69 69 99 69 69 99 70 70 100 70 70 100 70 70 100 71 71 101 71 71 101 71 71 101 72 72 102 72 72 102 72 72 102 73 73 103 73 73 103 73 73 103 73 73 103 74 74 104 74 74 104 74 74 104 74 74 104 75 75 105 75 75 105 75 75 105 76 76 106 76 76 106 76 76 106 76 76 106 76 76 106 77 77 107 77 77 107 77 77 107 77 77 107 78 78 108 78 78 108 78 78 108 78 78 108 78 78 108 79 79 109 79 79 109 79 79 109 79 79 109 79 79 109 79 79 109 80 80 110 80 80 110 80 80 110 80 80 110 80 80 110 80 80 110 80 80 110 81 81 111 81 81 111 81 81 111 81 81 111 81 81 111 81 81 111 81 81 111 81 81 111 81 81 111 81 81 111 81 81 111 82 82 112 82 82 112 82 82 112 82 82 112 82 82 112 82 82 112 82 82 112 82 82 112 82 82 112 82 82 112 82 82 112 82 82 112 82 82 112 82 82 112 82 82 112 82 82 112 82 82 112 82 82 112 82 82 112 82 82 112 82 82 112 82 82 112 82 82 112 81 81 111 81 81 111 81 81 111 81 81 111 81 81 111 81 81 111 81 81 111 81 81 111 81 81 111 81 81 111 81 81 111 80 80 110 80 80 110 80 80 110 80 80 110 80 80 110 80 80 110 80 80 110 79 79 109 79 79 109 79 79 109 79 79 109 79 79 109 79 79 109 78 78 108 78 78 108 78 78 108 78 78 108 78 78 108 77 77 107 77 77 107 77 77 107 77 77 107 77 77 107 76 76 106 76 76 106 76 76 106 76 76 106 75 75 105 75 75 105 75 75 105 75 75 105 74 74 104 74 74 104 74 74 104 74 74 104 73 73 103 73 73 103 73 73 103 72 72 102 72 72 102 72 72 102 71 71 101 71 71 101 71 71 101 71 71 101 
9 9 39 9 9 39 10 10 40 10 10 40 10 10 40 10 10 40 11 11 41 11 11 41 11 11 41 11 11 41 12 12 42 12 12 42 12 12 42 13 13 43 13 13 43 13 13 43 13 13 43 14 14 44 14 14 44 14 14 44 15 15 45 15 15 45 15 15 45 15 15 45 16 16 46 16 16 46 16 16 46 17 17 47 17 17 47 17 17 47 18 18 48 18 18 48 18 18 48 19 19 49 19 19 49 19 19 49 20 20 50 20 20 50 20 20 50 21 21 51 21 21 51 21 21 51 22 22 52 22 22 52 22 22 52 23 23 53 23 23 53 23 23 53 24 24 54 24 24 54 25 25 55 25 25 55 25 25 55 26 26 56 26 26 56 26 26 56 27 27 57 27 27 57 28 28 58 28 28 58 28 28 58 29 29 59 29 29 59 29 29 59 30 30 60 30 30 60 31 31 61 31 31 61 32 32 62 32 32 62 32 32 62 33 33 63 33 33 63 34 34 64 34 34 64 34 34 64 35 35 65 35 35 65 36 36 66 36 36 66 36 36 66 37 37 67 37 37 67 38 38 68 38 38 68 39 39 69 39 39 69 39 39 69 40 40 70 40 40 70 41 41 71 41 41 71 42 42 72 42 42 72 42 42 72 43 43 73 43 43 73 44 44 74 44 44 74 45 45 75 45 45 75 46 46 76 46 46 76 46 46 76 47 47 77 47 47 77 48 48 78 48 48 78 49 49 79 49 49 79 49 49 79 50 50 80 50 50 80 51 51 81 51 51 81 52 52 82 52 52 82 52 52 82 53 53 83 53 53 83 54 54 84 54 54 84 55 55 85 55 55 85 55 55 85 56 56 86 56 56 86 57 57 87 57 57 87 58 58 88 58 58 88 58 58 88 59 59 89 59 59 89 60 60 90 60 60 90 60 60 90 61 61 91 61 61 91 62 62 92 62 62 92 62 62 92 63 63 93 63 63 93 64 64 94 64 64 94 64 64 94 65 65 95 65 65 95 66 66 96 66 66 96 66 66 96 67 67 97 67 67 97 67 67 97 68 68 98 68 68 98 68 68 98 69 69 99 69 69 99 69 69 99 70 70 100 70 70 100 70 70 100 71 71 101 71 71 101 71 71 101 72 72 102 72 72 102 72 72 102 73 73 103 73 73 103 73 73 103 74 74 104 74 74 104 74 74 104 74 74 104 75 75 105 75 75 105 75 75 105 76 76 106 76 76 106 76 76 106 76 76 106 77 77 107 77 77 107 77 77 107 77 77 107 78 78 108 78 78 108 78 78 108 78 78 108 78 78 108 79 79 109 79 79 109 79 79 109 79 79 109 79 79 109 80 80 110 80 80 110 80 80 110 80 80 110 80 80 110 80 80 110 81 81 111 81 81 111 81 81 111 81 81 111 81 81 111 81 81 111 81 81 111 81 81 111 82 82 112 82 82 112 82 82 112 82 82 112 82 82 112 82 82 112 82 82 112 82 82 112 82 82 112 82 82 112 82 82 112 82 82 112 83 83 113 83 83 113 83 83 113 83 83 113 83 83 113 83 83 113 83 83 113 83 83 113 83 83 113 83 83 113 83 83 113 83 83 113 83 83 113 83 83 113 83 83 113 83 83 113 83 83 113 83 83 113 82 82 112 82 82 112 82 82 112 82 82 112 82 82 112 82 82 112 82 82 112 82 82 112 82 82 112 82 82 112 82 82 112 82 82 112 81 81 111 81 81 111 81 81 111 81 81 111 81 81 111 81 81 111 81 81 111 81 81 111 80 80 110 80 80 110 80 80 110 80 80 110 80 80 110 80 80 110 79 79 109 79 79 109 79 79 109 79 79 109 79 79 109 78 78 108 78 78 108 78 78 108 78 78 108 77 77 107 77 77 107 77 77 107 77 77 107 77 77 107 76 76 106 76 76 106 76 76 106 76 76 106 75 75 105 75 75 105 75 75 105 74 74 104 74 74 104 74 74 104 74 74 104 73 73 103 73 73 103 73 73 103 72 72 102 72 72 102 72 72 102 71 71 101 
10 10 40 10 10 40 10 10 40 10 10 40 11 11 41 11 11 41 11 11 41 11 11 41 12 12 42 12 12 42 12 12 42 12 12 42 13 13 43 13 13 43 13 13 43 14 14 44 14 14 44 14 14 44 14 14 44 15 15 45 15 15 45 15 15 45 16 16 46 16 16 46 16 16 46 16 16 46 17 17 47 17 17 47 17 17 47 18 18 48 18 18 48 18 18 48 19 19 49 19 19 49 19 19 49 20 20 50 20 20 50 20 20 50 21 21 51 21 21 51 21 21 51 22 22 52 22 22 52 22 22 52 23 23 53 23 23 53 24 24 54 24 24 54 24 24 54 25 25 55 25 25 55 25 25 55 26 26 56 26 26 56 27 27 57 27 27 57 27 27 57 28 28 58 28 28 58 28 28 58 29 29 59 29 29 59 30 30 60 30 30 60 30 30 60 31 31 61 31 31 61 32 32 62 32 32 62 33 33 63 33 33 63 33 33 63 34 34 64 34 34 64 35 35 65 35 35 65 35 35 65 36 36 66 36 36 66 37 37 67 37 37 67 38 38 68 38 38 68 38 38 68 39 39 69 39 39 69 40 40 70 40 40 70 41 41 71 41 41 71 41 41 71 42 42 72 42 42 72 43 43 73 43 43 73 44 44 74 44 44 74 44 44 74 45 45 75 45 45 75 46 46 76 46 46 76 47 47 77 47 47 77 48 48 78 48 48 78 48 48 78 49 49 79 49 49 79 50 50 80 50 50 80 51 51 81 51 51 81 51 51 81 52 52 82 52 52 82 53 53 83 53 53 83 54 54 84 54 54 84 54 54 84 55 55 85 55 55 85 56 56 86 56 56 86 57 57 87 57 57 87 57 57 87 58 58 88 58 58 88 59 59 89 59 59 89 60 60 90 60 60 90 60 60 90 61 61 91 61 61 91 62 62 92 62 62 92 62 62 92 63 63 93 63 63 93 64 64 94 64 64 94 64 64 94 65 65 95 65 65 95 66 66 96 66 66 96 66 66 96 67 67 97 67 67 97 67 67 97 68 68 98 68 68 98 68 68 98 69 69 99 69 69 99 70 70 100 70 70 100 70 70 100 71 71 101 71 71 101 71 71 101 72 72 102 72 72 102 72 72 102 73 73 103 73 73 103 73 73 103 73 73 103 74 74 104 74 74 104 74 74 104 75 75 105 75 75 105 75 75 105 76 76 106 76 76 106 76 76 106 76 76 106 77 77 107 77 77 107 77 77 107 77 77 107 78 78 108 78 78 108 78 78 108 78 78 108 79 79 109 79 79 109 79 79 109 79 79 109 79 79 109 80 80 110 80 80 110 80 80 110 80 80 110 80 80 110 81 81 111 81 81 111 81 81 111 81 81 111 81 81 111 81 81 111 82 82 112 82 82 112 82 82 112 82 82 112 82 82 112 82 82 112 82 82 112 82 82 112 83 83 113 83 83 113 83 83 113 83 83 113 83 83 113 83 83 113 83 83 113 83 83 113 83 83 113 83 83 113 83 83 113 83 83 113 83 83 113 83 83 113 83 83 113 83 83 113 84 84 114 84 84 114 84 84 114 84 84 114 84 84 114 84 84 114 84 84 114 84 84 114 83 83 113 83 83 113 83 83 113 83 83 113 83 83 113 83 83 113 83 83 113 83 83 113 83 83 113 83 83 113 83 83 113 83 83 113 83 83 113 83 83 113 83 83 113 83 83 113 82 82 112 82 82 112 82 82 112 82 82 112 82 82 112 82 82 112 82 82 112 82 82 112 81 81 111 81 81 111 81 81 111 81 81 111 81 81 111 81 81 111 80 80 110 80 80 110 80 80 110 80 80 110 80 80 110 79 79 109 79 79 109 79 79 109 79 79 109 79 79 109 78 78 108 78 78 108 78 78 108 78 78 108 77 77 107 77 77 107 77 77 107 77 77 107 76 76 106 76 76 106 76 76 106 76 76 106 75 75 105 75 75 105 75 75 105 75 75 105 74 74 104 74 74 104 74 74 104 73 73 103 73 73 103 73 73 103 72 72 102 
10 10 40 10 10 40 10 10 40 11 11 41 11 11 41 11 11 41 11 11 41 12 12 42 12 12 42 12 12 42 13 13 43 13 13 43 13 13 43 13 13 43 14 14 44 14 14 44 14 14 44 15 15 45 15 15 45 15 15 45 15 15 45 16 16 46 16 16 46 16 16 46 17 17 47 17 17 47 17 17 47 18 18 48 18 18 48 18 18 48 19 19 49 19 19 49 19 19 49 20 20 50 20 20 50 20 20 50 21 21 51 21 21 51 21 21 51 22 22 52 22 22 52 22 22 52 23 23 53 23 23 53 23 23 53 24 24 54 24 24 54 24 24 54 25 25 55 25 25 55 26 26 56 26 26 56 26 26 56 27 27 57 27 27 57 27 27 57 28 28 58 28 28 58 29 29 59 29 29 59 29 29 59 30 30 60 30 30 60 31 31 61 31 31 61 31 31 61 32 32 62 32 32 62 33 33 63 33 33 63 34 34 64 34 34 64 34 34 64 35 35 65 35 35 65 36 36 66 36 36 66 36 36 66 37 37 67 37 37 67 38 38 68 38 38 68 39 39 69 39 39 69 39 39 69 40 40 70 40 40 70 41 41 71 41 41 71 42 42 72 42 42 72 42 42 72 43 43 73 43 43 73 44 44 74 44 44 74 45 45 75 45 45 75 46 46 76 46 46 76 46 46 76 47 47 77 47 47 77 48 48 78 48 48 78 49 49 79 49 49 79 50 50 80 50 50 80 50 50 80 51 51 81 51 51 81 52 52 82 52 52 82 53 53 83 53 53 83 53 53 83 54 54 84 54 54 84 55 55 85 55 55 85 56 56 86 56 56 86 56 56 86 57 57 87 57 57 87 58 58 88 58 58 88 59 59 89 59 59 89 59 59 89 60 60 90 60 60 90 61 61 91 61 61 91 61 61 91 62 62 92 62 62 92 63 63 93 63 63 93 64 64 94 64 64 94 64 64 94 65 65 95 65 65 95 65 65 95 66 66 96 66 66 96 67 67 97 67 67 97 67 67 97 68 68 98 68 68 98 68 68 98 69 69 99 69 69 99 70 70 100 70 70 100 70 70 100 71 71 101 71 71 101 71 71 101 72 72 102 72 72 102 72 72 102 73 73 103 73 73 103 73 73 103 74 74 104 74 74 104 74 74 104 75 75 105 75 75 105 75 75 105 75 75 105 76 76 106 76 76 106 76 76 106 77 77 107 77 77 107 77 77 107 77 77 107 78 78 108 78 78 108 78 78 108 78 78 108 79 79 109 79 79 109 79 79 109 79 79 109 80 80 110 80 80 110 80 80 110 80 80 110 80 80 110 81 81 111 81 81 111 81 81 111 81 81 111 81 81 111 82 82 112 82 82 112 82 82 112 82 82 112 82 82 112 82 82 112 82 82 112 83 83 113 83 83 113 83 83 113 83 83 113 83 83 113 83 83 113 83 83 113 83 83 113 84 84 114 84 84 114 84 84 114 84 84 114 84 84 114 84 84 114 84 84 114 84 84 114 84 84 114 84 84 114 84 84 114 84 84 114 84 84 114 84 84 114 84 84 114 84 84 114 84 84 114 84 84 114 84 84 114 84 84 114 84 84 114 84 84 114 84 84 114 84 84 114 84 84 114 84 84 114 84 84 114 84 84 114 84 84 114 84 84 114 84 84 114 84 84 114 84 84 114 84 84 114 84 84 114 84 84 114 83 83 113 83 83 113 83 83 113 83 83 113 83 83 113 83 83 113 83 83 113 83 83 113 83 83 113 82 82 112 82 82 112 82 82 112 82 82 112 82 82 112 82 82 112 81 81 111 81 81 111 81 81 111 81 81 111 81 81 111 81 81 111 80 80 110 80 80 110 80 80 110 80 80 110 79 79 109 79 79 109 79 79 109 79 79 109 79 79 109 78 78 108 78 78 108 78 78 108 78 78 108 77 77 107 77 77 107 77 77 107 77 77 107 76 76 106 76 76 106 76 76 106 75 75 105 75 75 105 75 75 105 75 75 105 74 74 104 74 74 104 74 74 104 73 73 103 
10 10 40 11 11 41 11 11 41 11 11 41 11 11 41 12 12 42 12 12 42 12 12 42 12 12 42 13 13 43 13 13 43 13 13 43 13 13 43 14 14 44 14 14 44 14 14 44 15 15 45 15 15 45 15 15 45 16 16 46 16 16 46 16 16 46 16 16 46 17 17 47 17 17 47 17 17 47 18 18 48 18 18 48 18 18 48 19 19 49 19 19 49 19 19 49 20 20 50 20 20 50 20 20 50 21 21 51 21 21 51 21 21 51 22 22 52 22 22 52 22 22 52 23 23 53 23 23 53 24 24 54 24 24 54 24 24 54 25 25 55 25 25 55 25 25 55 26 26 56 26 26 56 27 27 57 27 27 57 27 27 57 28 28 58 28 28 58 28 28 58 29 29 59 29 29 59 30 30 60 30 30 60 30 30 60 31 31 61 31 31 61 32 32 62 32 32 62 32 32 62 33 33 63 33 33 63 34 34 64 34 34 64 35 35 65 35 35 65 35 35 65 36 36 66 36 36 66 37 37 67 37 37 67 37 37 67 38 38 68 38 38 68 39 39 69 39 39 69 40 40 70 40 40 70 41 41 71 41 41 71 41 41 71 42 42 72 42 42 72 43 43 73 43 43 73 44 44 74 44 44 74 44 44 74 45 45 75 45 45 75 46 46 76 46 46 76 47 47 77 47 47 77 48 48 78 48 48 78 48 48 78 49 49 79 49 49 79 50 50 80 50 50 80 51 51 81 51 51 81 52 52 82 52 52 82 52 52 82 53 53 83 53 53 83 54 54 84 54 54 84 55 55 85 55 55 85 55 55 85 56 56 86 56 56 86 57 57 87 57 57 87 58 58 88 58 58 88 58 58 88 59 59 89 59 59 89 60 60 90 60 60 90 61 61 91 61 61 91 61 61 91 62 62 92 62 62 92 63 63 93 63 63 93 63 63 93 64 64 94 64 64 94 65 65 95 65 65 95 65 65 95 66 66 96 66 66 96 67 67 97 67 67 97 67 67 97 68 68 98 68 68 98 68 68 98 69 69 99 69 69 99 70 70 100 70 70 100 70 70 100 71 71 101 71 71 101 71 71 101 72 72 102 72 72 102 72 72 102 73 73 103 73 73 103 73 73 103 74 74 104 74 74 104 74 74 104 75 75 105 75 75 105 75 75 105 76 76 106 76 76 106 76 76 106 76 76 106 77 77 107 77 77 107 77 77 107 78 78 108 78 78 108 78 78 108 78 78 108 79 79 109 79 79 109 79 79 109 79 79 109 80 80 110 80 80 110 80 80 110 80 80 110 81 81 111 81 81 111 81 81 111 81 81 111 81 81 111 82 82 112 82 82 112 82 82 112 82 82 112 82 82 112 82 82 112 83 83 113 83 83 113 83 83 113 83 83 113 83 83 113 83 83 113 84 84 114 84 84 114 84 84 114 84 84 114 84 84 114 84 84 114 84 84 114 84 84 114 84 84 114 84 84 114 85 85 115 85 85 115 85 85 115 85 85 115 85 85 115 85 85 115 85 85 115 85 85 115 85 85 115 85 85 115 85 85 115 85 85 115 85 85 115 85 85 115 85 85 115 85 85 115 85 85 115 85 85 115 85 85 115 85 85 115 85 85 115 85 85 115 85 85 115 85 85 115 85 85 115 85 85 115 85 85 115 85 85 115 85 85 115 85 85 115 85 85 115 84 84 114 84 84 114 84 84 114 84 84 114 84 84 114 84 84 114 84 84 114 84 84 114 84 84 114 83 83 113 83 83 113 83 83 113 83 83 113 83 83 113 83 83 113 83 83 113 82 82 112 82 82 112 82 82 112 82 82 112 82 82 112 82 82 112 81 81 111 81 81 111 81 81 111 81 81 111 81 81 111 80 80 110 80 80 110 80 80 110 80 80 110 79 79 109 79 79 109 79 79 109 79 79 109 78 78 108 78 78 108 78 78 108 78 78 108 77 77 107 77 77 107 77 77 107 77 77 107 76 76 106 76 76 106 76 76 106 75 75 105 75 75 105 75 75 105 75 75 105 74 74 104 
11 11 41 11 11 41 11 11 41 11 11 41 12 12 42 12 12 42 12 12 42 13 13 43 13 13 43 13 13 43 13 13 43 14 14 44 14 14 44 14 14 44 14 14 44 15 15 45 15 15 45 15 15 45 16 16 46 16 16 46 16 16 46 17 17 47 17 17 47 17 17 47 18 18 48 18 18 48 18 18 48 18 18 48 19 19 49 19 19 49 19 19 49 20 20 50 20 20 50 20 20 50 21 21 51 21 21 51 22 22 52 22 22 52 22 22 52 23 23 53 23 23 53 23 23 53 24 24 54 24 24 54 24 24 54 25 25 55 25 25 55 26 26 56 26 26 56 26 26 56 27 27 57 27 27 57 27 27 57 28 28 58 28 28 58 29 29 59 29 29 59 29 29 59 30 30 60 30 30 60 31 31 61 31 31 61 31 31 61 32 32 62 32 32 62 33 33 63 33 33 63 33 33 63 34 34 64 34 34 64 35 35 65 35 35 65 36 36 66 36 36 66 36 36 66 37 37 67 37 37 67 38 38 68 38 38 68 39 39 69 39 39 69 39 39 69 40 40 70 40 40 70 41 41 71 41 41 71 42 42 72 42 42 72 42 42 72 43 43 73 43 43 73 44 44 74 44 44 74 45 45 75 45 45 75 46 46 76 46 46 76 46 46 76 47 47 77 47 47 77 48 48 78 48 48 78 49 49 79 49 49 79 50 50 80 50 50 80 50 50 80 51 51 81 51 51 81 52 52 82 52 52 82 53 53 83 53 53 83 54 54 84 54 54 84 54 54 84 55 55 85 55 55 85 56 56 86 56 56 86 57 57 87 57 57 87 57 57 87 58 58 88 58 58 88 59 59 89 59 59 89 60 60 90 60 60 90 60 60 90 61 61 91 61 61 91 62 62 92 62 62 92 63 63 93 63 63 93 63 63 93 64 64 94 64 64 94 65 65 95 65 65 95 65 65 95 66 66 96 66 66 96 67 67 97 67 67 97 67 67 97 68 68 98 68 68 98 68 68 98 69 69 99 69 69 99 70 70 100 70 70 100 70 70 100 71 71 101 71 71 101 71 71 101 72 72 102 72 72 102 72 72 102 73 73 103 73 73 103 73 73 103 74 74 104 74 74 104 74 74 104 75 75 105 75 75 105 75 75 105 76 76 106 76 76 106 76 76 106 77 77 107 77 77 107 77 77 107 77 77 107 78 78 108 78 78 108 78 78 108 79 79 109 79 79 109 79 79 109 79 79 109 80 80 110 80 80 110 80 80 110 80 80 110 81 81 111 81 81 111 81 81 111 81 81 111 81 81 111 82 82 112 82 82 112 82 82 112 82 82 112 82 82 112 83 83 113 83 83 113 83 83 113 83 83 113 83 83 113 84 84 114 84 84 114 84 84 114 84 84 114 84 84 114 84 84 114 84 84 114 85 85 115 85 85 115 85 85 115 85 85 115 85 85 115 85 85 115 85 85 115 85 85 115 85 85 115 85 85 115 86 86 116 86 86 116 86 86 116 86 86 116 86 86 116 86 86 116 86 86 116 86 86 116 86 86 116 86 86 116 86 86 116 86 86 116 86 86 116 86 86 116 86 86 116 86 86 116 86 86 116 86 86 116 86 86 116 86 86 116 86 86 116 86 86 116 86 86 116 86 86 116 86 86 116 86 86 116 86 86 116 85 85 115 85 85 115 85 85 115 85 85 115 85 85 115 85 85 115 85 85 115 85 85 115 85 85 115 85 85 115 84 84 114 84 84 114 84 84 114 84 84 114 84 84 114 84 84 114 84 84 114 83 83 113 83 83 113 83 83 113 83 83 113 83 83 113 83 83 113 82 82 112 82 82 112 82 82 112 82 82 112 82 82 112 81 81 111 81 81 111 81 81 111 81 81 111 81 81 111 80 80 110 80 80 110 80 80 110 80 80 110 79 79 109 79 79 109 79 79 109 79 79 109 78 78 108 78 78 108 78 78 108 77 77 107 77 77 107 77 77 107 77 77 107 76 76 106 76 76 106 76 76 106 75 75 105 75 75 105 
11 11 41 11 11 41 12 12 42 12 12 42 12 12 42 12 12 42 13 13 43 13 13 43 13 13 43 13 13 43 14 14 44 14 14 44 14 14 44 15 15 45 15 15 45 15 15 45 15 15 45 16 16 46 16 16 46 16 16 46 17 17 47 17 17 47 17 17 47 18 18 48 18 18 48 18 18 48 19 19 49 19 19 49 19 19 49 20 20 50 20 20 50 20 20 50 21 21 51 21 21 51 21 21 51 22 22 52 22 22 52 22 22 52 23 23 53 23 23 53 23 23 53 24 24 54 24 24 54 25 25 55 25 25 55 25 25 55 26 26 56 26 26 56 26 26 56 27 27 57 27 27 57 28 28 58 28 28 58 28 28 58 29 29 59 29 29 59 30 30 60 30 30 60 30 30 60 31 31 61 31 31 61 32 32 62 32 32 62 32 32 62 33 33 63 33 33 63 34 34 64 34 34 64 34 34 64 35 35 65 35 35 65 36 36 66 36 36 66 37 37 67 37 37 67 37 37 67 38 38 68 38 38 68 39 39 69 39 39 69 40 40 70 40 40 70 40 40 70 41 41 71 41 41 71 42 42 72 42 42 72 43 43 73 43 43 73 44 44 74 44 44 74 44 44 74 45 45 75 45 45 75 46 46 76 46 46 76 47 47 77 47 47 77 48 48 78 48 48 78 48 48 78 49 49 79 49 49 79 50 50 80 50 50 80 51 51 81 51 51 81 52 52 82 52 52 82 52 52 82 53 53 83 53 53 83 54 54 84 54 54 84 55 55 85 55 55 85 55 55 85 56 56 86 56 56 86 57 57 87 57 57 87 58 58 88 58 58 88 59 59 89 59 59 89 59 59 89 60 60 90 60 60 90 61 61 91 61 61 91 62 62 92 62 62 92 62 62 92 63 63 93 63 63 93 64 64 94 64 64 94 64 64 94 65 65 95 65 65 95 66 66 96 66 66 96 66 66 96 67 67 97 67 67 97 68 68 98 68 68 98 68 68 98 69 69 99 69 69 99 70 70 100 70 70 100 70 70 100 71 71 101 71 71 101 71 71 101 72 72 102 72 72 102 72 72 102 73 73 103 73 73 103 73 73 103 74 74 104 74 74 104 75 75 105 75 75 105 75 75 105 75 75 105 76 76 106 76 76 106 76 76 106 77 77 107 77 77 107 77 77 107 78 78 108 78 78 108 78 78 108 79 79 109 79 79 109 79 79 109 79 79 109 80 80 110 80 80 110 80 80 110 80 80 110 81 81 111 81 81 111 81 81 111 81 81 111 82 82 112 82 82 112 82 82 112 82 82 112 82 82 112 83 83 113 83 83 113 83 83 113 83 83 113 83 83 113 84 84 114 84 84 114 84 84 114 84 84 114 84 84 114 84 84 114 85 85 115 85 85 115 85 85 115 85 85 115 85 85 115 85 85 115 85 85 115 86 86 116 86 86 116 86 86 116 86 86 116 86 86 116 86 86 116 86 86 116 86 86 116 86 86 116 86 86 116 86 86 116 86 86 116 87 87 117 87 87 117 87 87 117 87 87 117 87 87 117 87 87 117 87 87 117 87 87 117 87 87 117 87 87 117 87 87 117 87 87 117 87 87 117 87 87 117 87 87 117 87 87 117 87 87 117 87 87 117 87 87 117 86 86 116 86 86 116 86 86 116 86 86 116 86 86 116 86 86 116 86 86 116 86 86 116 86 86 116 86 86 116 86 86 116 86 86 116 85 85 115 85 85 115 85 85 115 85 85 115 85 85 115 85 85 115 85 85 115 85 85 115 84 84 114 84 84 114 84 84 114 84 84 114 84 84 114 84 84 114 83 83 113 83 83 113 83 83 113 83 83 113 83 83 113 82 82 112 82 82 112 82 82 112 82 82 112 82 82 112 81 81 111 81 81 111 81 81 111 81 81 111 80 80 110 80 80 110 80 80 110 80 80 110 79 79 109 79 79 109 79 79 109 79 79 109 78 78 108 78 78 108 78 78 108 77 77 107 77 77 107 77 77 107 77 77 107 76 76 106 76 76 106 
11 11 41 12 12 42 12 12 42 12 12 42 12 12 42 13 13 43 13 13 43 13 13 43 14 14 44 14 14 44 14 14 44 14 14 44 15 15 45 15 15 45 15 15 45 16 16 46 16 16 46 16 16 46 17 17 47 17 17 47 17 17 47 17 17 47 18 18 48 18 18 48 18 18 48 19 19 49 19 19 49 19 19 49 20 20 50 20 20 50 20 20 50 21 21 51 21 21 51 21 21 51 22 22 52 22 22 52 23 23 53 23 23 53 23 23 53 24 24 54 24 24 54 24 24 54 25 25 55 25 25 55 25 25 55 26 26 56 26 26 56 27 27 57 27 27 57 27 27 57 28 28 58 28 28 58 29 29 59 29 29 59 29 29 59 30 30 60 30 30 60 30 30 60 31 31 61 31 31 61 32 32 62 32 32 62 33 33 63 33 33 63 33 33 63 34 34 64 34 34 64 35 35 65 35 35 65 35 35 65 36 36 66 36 36 66 37 37 67 37 37 67 38 38 68 38 38 68 38 38 68 39 39 69 39 39 69 40 40 70 40 40 70 41 41 71 41 41 71 41 41 71 42 42 72 42 42 72 43 43 73 43 43 73 44 44 74 44 44 74 45 45 75 45 45 75 45 45 75 46 46 76 46 46 76 47 47 77 47 47 77 48 48 78 48 48 78 49 49 79 49 49 79 49 49 79 50 50 80 50 50 80 51 51 81 51 51 81 52 52 82 52 52 82 53 53 83 53 53 83 54 54 84 54 54 84 54 54 84 55 55 85 55 55 85 56 56 86 56 56 86 57 57 87 57 57 87 57 57 87 58 58 88 58 58 88 59 59 89 59 59 89 60 60 90 60 60 90 61 61 91 61 61 91 61 61 91 62 62 92 62 62 92 63 63 93 63 63 93 63 63 93 64 64 94 64 64 94 65 65 95 65 65 95 66 66 96 66 66 96 66 66 96 67 67 97 67 67 97 68 68 98 68 68 98 68 68 98 69 69 99 69 69 99 69 69 99 70 70 100 70 70 100 71 71 101 71 71 101 71 71 101 72 72 102 72 72 102 72 72 102 73 73 103 73 73 103 74 74 104 74 74 104 74 74 104 75 75 105 75 75 105 75 75 105 76 76 106 76 76 106 76 76 106 77 77 107 77 77 107 77 77 107 77 77 107 78 78 108 78 78 108 78 78 108 79 79 109 79 79 109 79 79 109 80 80 110 80 80 110 80 80 110 80 80 110 81 81 111 81 81 111 81 81 111 81 81 111 82 82 112 82 82 112 82 82 112 82 82 112 83 83 113 83 83 113 83 83 113 83 83 113 83 83 113 84 84 114 84 84 114 84 84 114 84 84 114 84 84 114 85 85 115 85 85 115 85 85 115 85 85 115 85 85 115 85 85 115 85 85 115 86 86 116 86 86 116 86 86 116 86 86 116 86 86 116 86 86 116 86 86 116 86 86 116 87 87 117 87 87 117 87 87 117 87 87 117 87 87 117 87 87 117 87 87 117 87 87 117 87 87 117 87 87 117 87 87 117 87 87 117 87 87 117 87 87 117 87 87 117 87 87 117 87 87 117 88 88 118 88 88 118 88 88 118 88 88 118 88 88 118 87 87 117 87 87 117 87 87 117 87 87 117 87 87 117 87 87 117 87 87 117 87 87 117 87 87 117 87 87 117 87 87 117 87 87 117 87 87 117 87 87 117 87 87 117 87 87 117 87 87 117 86 86 116 86 86 116 86 86 116 86 86 116 86 86 116 86 86 116 86 86 116 86 86 116 85 85 115 85 85 115 85 85 115 85 85 115 85 85 115 85 85 115 84 84 114 84 84 114 84 84 114 84 84 114 84 84 114 83 83 113 83 83 113 83 83 113 83 83 113 83 83 113 82 82 112 82 82 112 82 82 112 82 82 112 81 81 111 81 81 111 81 81 111 81 81 111 80 80 110 80 80 110 80 80 110 80 80 110 79 79 109 79 79 109 79 79 109 79 79 109 78 78 108 78 78 108 78 78 108 77 77 107 77 77 107 77 77 107 
12 12 42 12 12 42 12 12 42 13 13 43 13 13 43 13 13 43 13 13 43 14 14 44 14 14 44 14 14 44 15 15 45 15 15 45 15 15 45 15 15 45 16 16 46 16 16 46 16 16 46 17 17 47 17 17 47 17 17 47 18 18 48 18 18 48 18 18 48 19 19 49 19 19 49 19 19 49 20 20 50 20 20 50 20 20 50 21 21 51 21 21 51 21 21 51 22 22 52 22 22 52 22 22 52 23 23 53 23 23 53 23 23 53 24 24 54 24 24 54 24 24 54 25 25 55 25 25 55 26 26 56 26 26 56 26 26 56 27 27 57 27 27 57 27 27 57 28 28 58 28 28 58 29 29 59 29 29 59 29 29 59 30 30 60 30 30 60 31 31 61 31 31 61 31 31 61 32 32 62 32 32 62 33 33 63 33 33 63 34 34 64 34 34 64 34 34 64 35 35 65 35 35 65 36 36 66 36 36 66 36 36 66 37 37 67 37 37 67 38 38 68 38 38 68 39 39 69 39 39 69 39 39 69 40 40 70 40 40 70 41 41 71 41 41 71 42 42 72 42 42 72 43 43 73 43 43 73 43 43 73 44 44 74 44 44 74 45 45 75 45 45 75 46 46 76 46 46 76 47 47 77 47 47 77 47 47 77 48 48 78 48 48 78 49 49 79 49 49 79 50 50 80 50 50 80 51 51 81 51 51 81 51 51 81 52 52 82 52 52 82 53 53 83 53 53 83 54 54 84 54 54 84 55 55 85 55 55 85 55 55 85 56 56 86 56 56 86 57 57 87 57 57 87 58 58 88 58 58 88 59 59 89 59 59 89 59 59 89 60 60 90 60 60 90 61 61 91 61 61 91 62 62 92 62 62 92 62 62 92 63 63 93 63 63 93 64 64 94 64 64 94 65 65 95 65 65 95 65 65 95 66 66 96 66 66 96 67 67 97 67 67 97 67 67 97 68 68 98 68 68 98 69 69 99 69 69 99 69 69 99 70 70 100 70 70 100 71 71 101 71 71 101 71 71 101 72 72 102 72 72 102 72 72 102 73 73 103 73 73 103 74 74 104 74 74 104 74 74 104 75 75 105 75 75 105 75 75 105 76 76 106 76 76 106 76 76 106 77 77 107 77 77 107 77 77 107 78 78 108 78 78 108 78 78 108 78 78 108 79 79 109 79 79 109 79 79 109 80 80 110 80 80 110 80 80 110 80 80 110 81 81 111 81 81 111 81 81 111 82 82 112 82 82 112 82 82 112 82 82 112 83 83 113 83 83 113 83 83 113 83 83 113 83 83 113 84 84 114 84 84 114 84 84 114 84 84 114 85 85 115 85 85 115 85 85 115 85 85 115 85 85 115 85 85 115 86 86 116 86 86 116 86 86 116 86 86 116 86 86 116 86 86 116 87 87 117 87 87 117 87 87 117 87 87 117 87 87 117 87 87 117 87 87 117 87 87 117 87 87 117 88 88 118 88 88 118 88 88 118 88 88 118 88 88 118 88 88 118 88 88 118 88 88 118 88 88 118 88 88 118 88 88 118 88 88 118 88 88 118 88 88 118 88 88 118 88 88 118 88 88 118 88 88 118 88 88 118 88 88 118 88 88 118 88 88 118 88 88 118 88 88 118 88 88 118 88 88 118 88 88 118 88 88 118 88 88 118 88 88 118 88 88 118 88 88 118 88 88 118 88 88 118 87 87 117 87 87 117 87 87 117 87 87 117 87 87 117 87 87 117 87 87 117 87 87 117 87 87 117 86 86 116 86 86 116 86 86 116 86 86 116 86 86 116 86 86 116 86 86 116 85 85 115 85 85 115 85 85 115 85 85 115 85 85 115 84 84 114 84 84 114 84 84 114 84 84 114 84 84 114 83 83 113 83 83 113 83 83 113 83 83 113 83 83 113 82 82 112 82 82 112 82 82 112 82 82 112 81 81 111 81 81 111 81 81 111 81 81 111 80 80 110 80 80 110 80 80 110 79 79 109 79 79 109 79 79 109 79 79 109 78 78 108 78 78 108 78 78 108 
12 12 42 12 12 42 13 13 43 13 13 43 13 13 43 14 14 44 14 14 44 14 14 44 14 14 44 15 15 45 15 15 45 15 15 45 16 16 46 16 16 46 16 16 46 16 16 46 17 17 47 17 17 47 17 17 47 18 18 48 18 18 48 18 18 48 19 19 49 19 19 49 19 19 49 20 20 50 20 20 50 20 20 50 21 21 51 21 21 51 21 21 51 22 22 52 22 22 52 22 22 52 23 23 53 23 23 53 23 23 53 24 24 54 24 24 54 25 25 55 25 25 55 25 25 55 26 26 56 26 26 56 26 26 56 27 27 57 27 27 57 28 28 58 28 28 58 28 28 58 29 29 59 29 29 59 30 30 60 30 30 60 30 30 60 31 31 61 31 31 61 32 32 62 32 32 62 32 32 62 33 33 63 33 33 63 34 34 64 34 34 64 34 34 64 35 35 65 35 35 65 36 36 66 36 36 66 37 37 67 37 37 67 37 37 67 38 38 68 38 38 68 39 39 69 39 39 69 40 40 70 40 40 70 41 41 71 41 41 71 41 41 71 42 42 72 42 42 72 43 43 73 43 43 73 44 44 74 44 44 74 44 44 74 45 45 75 45 45 75 46 46 76 46 46 76 47 47 77 47 47 77 48 48 78 48 48 78 49 49 79 49 49 79 49 49 79 50 50 80 50 50 80 51 51 81 51 51 81 52 52 82 52 52 82 53 53 83 53 53 83 53 53 83 54 54 84 54 54 84 55 55 85 55 55 85 56 56 86 56 56 86 57 57 87 57 57 87 57 57 87 58 58 88 58 58 88 59 59 89 59 59 89 60 60 90 60 60 90 61 61 91 61 61 91 61 61 91 62 62 92 62 62 92 63 63 93 63 63 93 64 64 94 64 64 94 64 64 94 65 65 95 65 65 95 66 66 96 66 66 96 66 66 96 67 67 97 67 67 97 68 68 98 68 68 98 69 69 99 69 69 99 69 69 99 70 70 100 70 70 100 70 70 100 71 71 101 71 71 101 72 72 102 72 72 102 72 72 102 73 73 103 73 73 103 73 73 103 74 74 104 74 74 104 75 75 105 75 75 105 75 75 105 76 76 106 76 76 106 76 76 106 77 77 107 77 77 107 77 77 107 78 78 108 78 78 108 78 78 108 79 79 109 79 79 109 79 79 109 79 79 109 80 80 110 80 80 110 80 80 110 81 81 111 81 81 111 81 81 111 81 81 111 82 82 112 82 82 112 82 82 112 83 83 113 83 83 113 83 83 113 83 83 113 83 83 113 84 84 114 84 84 114 84 84 114 84 84 114 85 85 115 85 85 115 85 85 115 85 85 115 85 85 115 86 86 116 86 86 116 86 86 116 86 86 116 86 86 116 86 86 116 87 87 117 87 87 117 87 87 117 87 87 117 87 87 117 87 87 117 87 87 117 88 88 118 88 88 118 88 88 118 88 88 118 88 88 118 88 88 118 88 88 118 88 88 118 88 88 118 89 89 119 89 89 119 89 89 119 89 89 119 89 89 119 89 89 119 89 89 119 89 89 119 89 89 119 89 89 119 89 89 119 89 89 119 89 89 119 89 89 119 89 89 119 89 89 119 89 89 119 89 89 119 89 89 119 89 89 119 89 89 119 89 89 119 89 89 119 89 89 119 89 89 119 89 89 119 89 89 119 89 89 119 89 89 119 88 88 118 88 88 118 88 88 118 88 88 118 88 88 118 88 88 118 88 88 118 88 88 118 88 88 118 88 88 118 87 87 117 87 87 117 87 87 117 87 87 117 87 87 117 87 87 117 87 87 117 86 86 116 86 86 116 86 86 116 86 86 116 86 86 116 85 85 115 85 85 115 85 85 115 85 85 115 85 85 115 84 84 114 84 84 114 84 84 114 84 84 114 84 84 114 83 83 113 83 83 113 83 83 113 83 83 113 82 82 112 82 82 112 82 82 112 82 82 112 81 81 111 81 81 111 81 81 111 81 81 111 80 80 110 80 80 110 80 80 110 79 79 109 79 79 109 79 79 109 78 78 108 
13 13 43 13 13 43 13 13 43 13 13 43 14 14 44 14 14 44 14 14 44 14 14 44 15 15 45 15 15 45 15 15 45 16 16 46 16 16 46 16 16 46 17 17 47 17 17 47 17 17 47 17 17 47 18 18 48 18 18 48 18 18 48 19 19 49 19 19 49 19 19 49 20 20 50 20 20 50 20 20 50 21 21 51 21 21 51 21 21 51 22 22 52 22 22 52 23 23 53 23 23 53 23 23 53 24 24 54 24 24 54 24 24 54 25 25 55 25 25 55 25 25 55 26 26 56 26 26 56 27 27 57 27 27 57 27 27 57 28 28 58 28 28 58 29 29 59 29 29 59 29 29 59 30 30 60 30 30 60 31 31 61 31 31 61 31 31 61 32 32 62 32 32 62 33 33 63 33 33 63 33 33 63 34 34 64 34 34 64 35 35 65 35 35 65 35 35 65 36 36 66 36 36 66 37 37 67 37 37 67 38 38 68 38 38 68 38 38 68 39 39 69 39 39 69 40 40 70 40 40 70 41 41 71 41 41 71 42 42 72 42 42 72 42 42 72 43 43 73 43 43 73 44 44 74 44 44 74 45 45 75 45 45 75 46 46 76 46 46 76 46 46 76 47 47 77 47 47 77 48 48 78 48 48 78 49 49 79 49 49 79 50 50 80 50 50 80 50 50 80 51 51 81 51 51 81 52 52 82 52 52 82 53 53 83 53 53 83 54 54 84 54 54 84 55 55 85 55 55 85 55 55 85 56 56 86 56 56 86 57 57 87 57 57 87 58 58 88 58 58 88 59 59 89 59 59 89 59 59 89 60 60 90 60 60 90 61 61 91 61 61 91 62 62 92 62 62 92 63 63 93 63 63 93 63 63 93 64 64 94 64 64 94 65 65 95 65 65 95 65 65 95 66 66 96 66 66 96 67 67 97 67 67 97 68 68 98 68 68 98 68 68 98 69 69 99 69 69 99 70 70 100 70 70 100 70 70 100 71 71 101 71 71 101 72 72 102 72 72 102 72 72 102 73 73 103 73 73 103 73 73 103 74 74 104 74 74 104 75 75 105 75 75 105 75 75 105 76 76 106 76 76 106 76 76 106 77 77 107 77 77 107 77 77 107 78 78 108 78 78 108 78 78 108 79 79 109 79 79 109 79 79 109 80 80 110 80 80 110 80 80 110 80 80 110 81 81 111 81 81 111 81 81 111 82 82 112 82 82 112 82 82 112 82 82 112 83 83 113 83 83 113 83 83 113 83 83 113 84 84 114 84 84 114 84 84 114 84 84 114 85 85 115 85 85 115 85 85 115 85 85 115 86 86 116 86 86 116 86 86 116 86 86 116 86 86 116 86 86 116 87 87 117 87 87 117 87 87 117 87 87 117 87 87 117 88 88 118 88 88 118 88 88 118 88 88 118 88 88 118 88 88 118 88 88 118 88 88 118 89 89 119 89 89 119 89 89 119 89 89 119 89 89 119 89 89 119 89 89 119 89 89 119 89 89 119 89 89 119 89 89 119 89 89 119 90 90 120 90 90 120 90 90 120 90 90 120 90 90 120 90 90 120 90 90 120 90 90 120 90 90 120 90 90 120 90 90 120 90 90 120 90 90 120 90 90 120 90 90 120 90 90 120 90 90 120 90 90 120 90 90 120 90 90 120 89 89 119 89 89 119 89 89 119 89 89 119 89 89 119 89 89 119 89 89 119 89 89 119 89 89 119 89 89 119 89 89 119 89 89 119 88 88 118 88 88 118 88 88 118 88 88 118 88 88 118 88 88 118 88 88 118 87 87 117 87 87 117 87 87 117 87 87 117 87 87 117 87 87 117 86 86 116 86 86 116 86 86 116 86 86 116 86 86 116 85 85 115 85 85 115 85 85 115 85 85 115 85 85 115 84 84 114 84 84 114 84 84 114 84 84 114 83 83 113 83 83 113 83 83 113 83 83 113 82 82 112 82 82 112 82 82 112 82 82 112 81 81 111 81 81 111 81 81 111 80 80 110 80 80 110 80 80 110 80 80 110 79 79 109 
